tc-huang/low_cost_robot/circle.csv
,x,y,z,j0,j1,j2,j3,j4,j5
0,0.008728,0.105265,0.053893999999999984,0.0,0.0,0.0,0.0,0.0,0.0
1,0.008728,0.105265,0.053893999999999984,0.0,0.0,0.0,0.0,0.0,0.0
2,0.008728,0.105265,0.053893999999999984,0.0,0.0,0.0,0.0,0.0,0.0
3,0.008728,0.105265,0.053893999999999984,0.0,0.0,0.0,0.0,0.0,0.0
4,0.008728,0.105265,0.053893999999999984,0.0,0.0,0.0,0.0,0.0,0.0
5,0.008728,0.105265,0.053893999999999984,0.0,0.0,0.0,0.0,0.0,0.0
6,0.008728,0.105265,0.053893999999999984,0.0,0.0,0.0,0.0,0.0,0.0
7,0.008728,0.105265,0.053893999999999984,0.0,0.0,0.0,0.0,0.0,0.0
8,0.008728,0.105265,0.053893999999999984,0.0,0.0,0.0,0.0,0.0,0.0
9,0.008728,0.105265,0.053893999999999984,0.0,0.0,0.0,0.0,0.0,0.0
10,0.008728,0.105265,0.053893999999999984,0.0,0.0,0.0,0.0,0.0,0.0
11,0.008728,0.105265,0.053893999999999984,0.0,0.0,0.0,0.0,0.0,0.0
12,0.008728,0.105265,0.053893999999999984,0.0,0.0,0.0,0.0,0.0,0.0
13,0.008728,0.105265,0.053893999999999984,0.0,0.0,0.0,0.0,0.0,0.0
14,0.008728,0.105265,0.053893999999999984,0.0,0.0,0.0,0.0,0.0,0.0
15,0.008728,0.105265,0.053893999999999984,0.0,0.0,0.0,0.0,0.0,0.0
16,0.008728,0.105265,0.053893999999999984,0.0,0.0,0.0,0.0,0.0,0.0
17,0.008728,0.105265,0.053893999999999984,0.0,0.0,0.0,0.0,0.0,0.0
18,0.008728,0.105265,0.053893999999999984,0.0,0.0,0.0,0.0,0.0,0.0
19,0.008728,0.105265,0.053893999999999984,0.0,0.0,0.0,0.0,0.0,0.0
20,0.008728,0.105265,0.053893999999999984,0.0,0.0,0.0,0.0,0.0,0.0
21,0.008728,0.105265,0.053893999999999984,0.0,0.0,0.0,0.0,0.0,0.0
22,0.008728,0.105265,0.053893999999999984,0.0,0.0,0.0,0.0,0.0,0.0
23,0.008728,0.105265,0.053893999999999984,0.0,0.0,0.0,0.0,0.0,0.0
24,0.008728,0.105265,0.053893999999999984,0.0,0.0,0.0,0.0,0.0,0.0
25,0.008728,0.105265,0.053893999999999984,0.0,0.0,0.0,0.0,0.0,0.0
26,0.008728,0.105265,0.053893999999999984,0.0,0.0,0.0,0.0,0.0,0.0
27,0.008728,0.105265,0.053893999999999984,0.0,0.0,0.0,0.0,0.0,0.0
28,0.008728,0.105265,0.053893999999999984,0.0,0.0,0.0,0.0,0.0,0.0
29,0.008728,0.105265,0.053893999999999984,0.0,0.0,0.0,0.0,0.0,0.0
30,0.008728,0.105265,0.053893999999999984,0.0,0.0,0.0,0.0,0.0,0.0
31,0.00890118380534519,0.10501423462105748,0.05339337568495131,-0.0016490315099920354,0.00280221283867629,-0.002282834476115961,0.00021566845362223585,-1.2603809198662363e-05,-6.925208111812434e-08
32,0.009079132724159096,0.1047579500125093,0.05288722029535148,-0.0033513675765307668,0.005638561214235437,-0.004607183878284731,0.0004528098207403851,-2.650807591688367e-05,-2.5522847042724776e-07
33,0.009261713348187803,0.10449672753255615,0.0523768979447812,-0.005106331444973408,0.008508174629457159,-0.006959632319673024,0.0007043216323886651,-4.150014377136982e-05,-5.16798414943121e-07
34,0.009627874003273574,0.10399636318234964,0.05138307169637052,-0.00864958216693252,0.014174228024240088,-0.011506334385560302,0.0013193514491504198,-7.917353911142015e-05,-1.1787758151010016e-06
35,0.010000514248407597,0.10349702753360442,0.050405331072258766,-0.012288191356894773,0.019808492204950644,-0.015983518014124846,0.0019770312818159236,-0.0001200965189537435,-1.9702214449182088e-06
36,0.010194017175852894,0.10323338910716578,0.04990878477263791,-0.01419153160044812,0.02267640382977525,-0.01828054298526922,0.0022877683425621405,-0.00013952520629963746,-2.4046261006920742e-06
37,0.010581610219835896,0.10273420619253167,0.048945607193021407,-0.0180270174402855,0.028329434381791224,-0.022679158549794926,0.0030295759512029394,-0.00018612070553509867,-3.338506968210482e-06
38,0.010975116527504436,0.10224147498326779,0.0480016167802262,-0.021954418846158927,0.03393905816597745,-0.02697629582358933,0.003824220819730557,-0.00023609425728622502,-4.346847883994416e-06
39,0.011374538814401116,0.10175590133244848,0.047076481701274,-0.025973919771338044,0.03950539267804151,-0.031170174811381512,0.00467303404087957,-0.0002894420259950625,-5.416929631693146e-06
40,0.011779887151409131,0.10127790021586128,0.046169685973754884,-0.030085698331574033,0.045028915516992216,-0.03526078900578721,0.0055767553108382025,-0.0003461585003157994,-6.538842434363334e-06
41,0.012191176625873747,0.10080771098158052,0.04528060398125765,-0.03428991750974413,0.05051043332412254,-0.03924915527146057,0.0065358352338350315,-0.0004062421630595312,-7.70447896686038e-06
42,0.01260842625397212,0.10034547123305981,0.04440855021041694,-0.03858671837446063,0.05595102697277643,-0.04313683245154381,0.0075506163596886266,-0.00046969844114567853,-8.907096395402739e-06
43,0.013031658683385149,0.09989126408310768,0.04355281269278914,-0.042976215443611125,0.06135198857196213,-0.04692561241744865,0.00862143691229254,-0.0005365408905613195,-1.0140981167743957e-05
44,0.013460900138490522,0.09944514829211759,0.042712675550690485,-0.04745849119778803,0.06671475883040441,-0.0506173229083035,0.009748686490903501,-0.0006067912690971463,-1.1400954879639408e-05
45,0.01389618094952599,0.09900717730684683,0.041887434147827404,-0.05203359459408488,0.07204086929264827,-0.05421370330988411,0.01093283245667237,-0.0006804793291891914,-1.268312668307038e-05
46,0.014337537230644248,0.09857741098970862,0.041076405159287135,-0.056701550270108834,0.07733189157553094,-0.05771632816565512,0.012174428695191844,-0.0007576419756054729,-1.3984518942261659e-05
47,0.014785010564989844,0.0981559228824135,0.04027893308519567,-0.061462347290883464,0.08258939428269028,-0.06112656245987602,0.013474113685977581,-0.0008383221095868071,-1.530210695005352e-05
48,0.01545473709693174,0.09757536084435946,0.03913737440410767,-0.0686200099492791,0.09024821748930396,-0.0658696620153497,0.015585336696553919,-0.000969301373325637,-1.730314486847695e-05
49,0.016131355618194294,0.09701749866138934,0.03803201824773915,-0.07590364818001674,0.09776917052614345,-0.07037845779273393,0.017795878546758227,-0.0011062305285953079,-1.9327204579136343e-05
50,0.01681562027034373,0.09648155808370909,0.03695920034717004,-0.0833173894724174,0.1051676576542117,-0.07466536322788815,0.020107828274525757,-0.0012492545406890933,-2.1368418878156264e-05
51,0.01750822765366932,0.09596700066915416,0.03591577432168512,-0.09086458299239113,0.11245683434921333,-0.07874017621655986,0.022523564025605704,-0.0013985345469059317,-2.342215228661689e-05
52,0.018209831868559238,0.09547349200562086,0.034899035448048274,-0.09854787458845418,0.11964786625019545,-0.08261046634255653,0.025045624765359414,-0.0015542398753459257,-2.5484672198670768e-05
53,0.019145422582281982,0.09488368655772972,0.03361139197194116,-0.10881285350993841,0.12891435553940417,-0.08726732397435225,0.028604938700641173,-0.0017738532398765636,-2.8243228729529844e-05
54,0.020093717728135056,0.09433047552065339,0.032366656690530515,-0.11925793569752581,0.13799996108835338,-0.09157780763477578,0.032325441144979226,-0.002003165478712721,-3.100667450452078e-05
55,0.02105644458090511,0.09381320150649669,0.03115988044033463,-0.1298892146956275,0.14692660361964247,-0.09555511418113566,0.036212839163191686,-0.0022425518275698115,-3.3770961539934924e-05
56,0.02226502558065479,0.09325031879534965,0.029729560464024363,-0.1432136027985249,0.1576859053137861,-0.09989069222108378,0.041311199308897324,-0.0025562852906348046,-3.722298465186017e-05
57,0.023496532751283397,0.09273966832835136,0.028347146829438716,-0.15678155001471028,0.16822875843383245,-0.1037491273023605,0.04664826623637321,-0.0028844113836308826,-4.06675839354016e-05
58,0.024987899467977345,0.09222561863567495,0.026775300316848882,-0.17311953812399794,0.18040996997907616,-0.10760282020023865,0.053341044081507104,-0.0032955413753982692,-4.478745610324749e-05
59,0.026516547107537175,0.09178054253023382,0.025256395000305062,-0.1897670665802198,0.19233604783133798,-0.11082961956927276,0.06035866759884708,-0.0037262660178898695,-4.8889781836766456e-05
60,0.028086641741783304,0.09140429174438702,0.023785325027796955,-0.2067191094596179,0.2040244944199866,-0.11343660224994019,0.06770566250501478,-0.0041768902338170455,-5.297275447149433e-05
61,0.02994960397076804,0.0910706873059267,0.02215325539402696,-0.22655375869331204,0.21716172111164278,-0.11560451759725776,0.07659641698593433,-0.004721739049075526,-5.771048328873669e-05
62,0.03187440091170036,0.0908220611165568,0.02057456510443624,-0.24672335414800567,0.23000799529741314,-0.11698793660377939,0.08589488982071045,-0.005291189199641897,-6.242045877366432e-05
63,0.03386500679356982,0.09065675825593925,0.019047066068216045,-0.26719093505953645,0.24256274114504006,-0.11759451981464858,0.09558872047739293,-0.005884497516618378,-6.710303559107774e-05
64,0.036189599487677526,0.0905690307380943,0.01738666882137546,-0.29053740059060806,0.256355216297185,-0.11734765213085918,0.10695841360484216,-0.006579758406693328,-7.242225762192193e-05
65,0.03860193652069684,0.09057297697769706,0.015787423449170945,-0.31412078238239105,0.2697739371033068,-0.11617918474870066,0.11875485863774486,-0.007300693126669657,-7.770961146348427e-05
66,0.04110242370057145,0.09066153183357609,0.014249961593161845,-0.3378550267124244,0.2828075312690958,-0.11412294487091404,0.13093509901867073,-0.008044692144779578,-8.296776205728524e-05
67,0.04339891852149836,0.09081378223362142,0.012942054719058432,-0.3589810995621491,0.29401660215105024,-0.11154903462872592,0.14206195841495278,-0.008724316182804103,-8.754703256172038e-05
68,0.04576250257805338,0.09102090333278615,0.011684390914118728,-0.380086903418247,0.3049132847991485,-0.10833963502155722,0.1534262371511357,-0.009418206300129106,-9.21082214119368e-05
69,0.04818937016191148,0.09127477676934152,0.010477856570626026,-0.40110507122537487,0.31549466202967025,-0.10453915044526844,0.16498595825950446,-0.010123817136377642,-9.665413639571127e-05
70,0.050356031954652325,0.09154364143648522,0.009478728707322318,-0.4192707763312593,0.32438975062103687,-0.10071619612890036,0.1752147630261139,-0.010748310588131776,-0.00010054059626510655
71,0.05256559651496976,0.09183645043813685,0.008517954182032217,-0.437293081990654,0.3330598339811679,-0.09651239662720187,0.18554575626099393,-0.011378947599915524,-0.0001044196865603369
72,0.05447436135536974,0.09211638695872311,0.0077451500969503845,-0.45240352717633747,0.3401595424734526,-0.09260279584680427,0.19439176006489722,-0.011919118548204346,-0.00010764816491586213
73,0.05641176529730373,0.09240643106369378,0.006999022246600359,-0.4673860659575809,0.3471136572736527,-0.08845994435647142,0.20329076491784803,-0.012462505595951997,-0.0001108738029036362
74,0.05837465009486608,0.09270337051777304,0.006280562891174513,-0.4822175444014612,0.35391731989871605,-0.08410356122261903,0.21222234385907432,-0.013007866615490651,-0.00011409788705286373
75,0.0599965700328032,0.09296517841489482,0.005728094065752504,-0.4941510099029382,0.3592712847021447,-0.0803375050832208,0.2195377135515998,-0.013454741774007491,-0.00011667688844577327
76,0.06163688140615218,0.09322855021149166,0.005193053280929796,-0.5059967588709232,0.36454033885349096,-0.0764435419761799,0.2268769288733811,-0.01390309937776809,-0.00011925625827527131
77,0.0632934866658462,0.09349194440701879,0.004676220073561721,-0.5177415064378995,0.3697198480352296,-0.07243183333476005,0.2342279676500307,-0.014352206226325161,-0.00012183671040394485
78,0.06457591521949084,0.09370711669839074,0.004304861828763634,-0.5266273292211556,0.37354862031127717,-0.06922727633158503,0.23987251862323378,-0.014697233618187231,-0.00012377290165383674
79,0.0658727339287125,0.09392216450749023,0.0039437374209089215,-0.5354868404292783,0.37733600542149226,-0.06594695939078636,0.24554133013513763,-0.015043786313261268,-0.00012571021372172057
80,0.06718251998366276,0.09413627176214594,0.0035932829700498076,-0.5443107501710134,0.38107911649277865,-0.06259641988078497,0.25122732696506894,-0.015391431260812747,-0.00012764911922000406
81,0.06850392804875366,0.09434869577003152,0.0032539107726816535,-0.5530907347998151,0.3847752310513806,-0.05918092024437429,0.25692391429997735,-0.01573976490693823,-0.00012958991376912872
82,0.06941452354726337,0.0945031944078641,0.003038777869115883,-0.5590245648817175,0.3872066972272468,-0.05677188916044542,0.260820309491058,-0.015978150603616223,-0.00013088495632961687
83,0.0707643570870141,0.09471419467877451,0.002718679875669358,-0.5677842611600035,0.39083156184049234,-0.05322409063475945,0.2665652618559306,-0.016329543077431556,-0.0001328294838061896
84,0.07169282470816268,0.09486699258846201,0.002517457441299026,-0.5736937393827264,0.39321001976401077,-0.05073073065363046,0.2704866592967951,-0.01656952306979109,-0.0001341273003989444
85,0.07263271872094969,0.09501998957638576,0.002322221054699966,-0.579617256195527,0.39556999004551907,-0.04819115285869576,0.27443285468393086,-0.01681105849049888,-0.00013542635892498106
86,0.07358312150408365,0.09517270613174303,0.0021330339589645253,-0.5855490438674381,0.3979108801899302,-0.045608710240572475,0.2784002059005135,-0.017053926098790986,-0.00013672676059436035
87,0.0745431658718587,0.09532470514697938,0.0019499685324934346,-0.5914837813201507,0.4002320348736978,-0.04298654202252851,0.2823852629742681,-0.01729791439204925,-0.00013802853127805847
88,0.07551203354379568,0.09547558999228047,0.0017731053898910887,-0.5974165702911718,0.40253274416761065,-0.040327581968166264,0.28638476382866906,-0.01754282344631508,-0.00013933186249053626
89,0.07648895351623224,0.09562500263645392,0.0016025324961391335,-0.6033429109350045,0.40481225152741723,-0.037634567255627714,0.290395630659603,-0.017788464650707773,-0.00014063686245012203
90,0.07747320041731744,0.09577262170278288,0.0014383443117680916,-0.6092586781487872,0.40706976166225484,-0.034910047483749415,0.29441496601591755,-0.018034660491426078,-0.00014194363274078629
91,0.07846409284965432,0.09591816044972801,0.0012806409631582055,-0.6151600988599845,0.4093044482502286,-0.03215639378205025,0.29844004847282174,-0.01828124429227862,-0.000143252274340944
92,0.07946099168446025,0.09606136470972129,0.001129527431540031,-0.6210437300154925,0.41151546145523804,-0.029375808024641268,0.302468327887486,-0.018528059926929883,-0.00014456288751902362
93,0.08046329830478334,0.09620201080528076,0.0009851127581190916,-0.6269064372848984,0.41370193519357995,-0.026570332114970632,0.3064974202617145,-0.01877496150596214,-0.0001458755716607718
94,0.08147045280105135,0.09633990346207147,0.0008475092651461374,-0.632745374501679,0.41586299409995137,-0.02374185729255267,0.31052510224933666,-0.019021813041310724,-0.00014719042512000016
95,0.08248193212636436,0.09647487373812628,0.0007168317945722841,-0.6385579638705048,0.4179977601454029,-0.020892133403765792,0.31454930535496556,-0.019268488091093685,-0.00014850754509458173
96,0.08300546533002358,0.09654957454917804,0.0006599785110186634,-0.6415172509872211,0.41903901551961537,-0.019393759266163282,0.31661532164827816,-0.01939518911759247,-0.0001491669791923327
97,0.08403964999842393,0.09668474222050204,0.0005441210288841813,-0.6473689184914161,0.4211263808400447,-0.016457637385717917,0.32068425575693493,-0.019644682319098432,-0.0001504876508407237
98,0.08457384602298554,0.09675913420199789,0.0004948034123943013,-0.6503428935433901,0.42214356875807935,-0.014918668562974597,0.3227699697038526,-0.019772629164128454,-0.0001511489188026314
99,0.08562715681259833,0.09689279850999372,0.0003931223486174501,-0.6562149685104808,0.42418620472824087,-0.011909526650423595,0.3268725151051992,-0.02002426074018755,-0.00015247338337213937
100,0.08617033143595394,0.09696607741010199,0.0003510692476873106,-0.6591950825856392,0.42518035664415454,-0.010336267458755611,0.328972569279975,-0.020153125576518747,-0.0001531366121636055
101,0.087259269906917,0.09712173863800047,0.0002919638877505737,-0.6650723786542416,0.42706621565271236,-0.007074283298224026,0.33307110199449425,-0.020416288605920166,-0.00015650935350241515
102,0.08782699597280871,0.0972158037705709,0.00028399566276070265,-0.6680461432059727,0.4279227278859794,-0.005311002724902095,0.33516143388260883,-0.02055010025810821,-0.00015803949715736813
103,0.08840639327328105,0.09731559935431275,0.00028707438161626464,-0.6710425467077814,0.42873238279276277,-0.0034911263045312355,0.3372701143153249,-0.020684675318601797,-0.00015947842557503992
104,0.08954923290076275,0.0975048523213307,0.000302194558619559,-0.6769287361627836,0.4302855036018945,9.426648081423941e-05,0.34139004225796715,-0.020946503454978466,-0.00016211031032539527
105,0.09013725810249226,0.09760928947549564,0.0003251338838826112,-0.6798931335663337,0.43099803831083633,0.001964446674195145,0.34349339754919417,-0.021079497759213472,-0.00016331415054040362
106,0.09073329924340642,0.09771570205255926,0.0003548143309577284,-0.6828742296570393,0.4316827813239835,0.00386186953779089,0.3456175335588811,-0.021211168744131797,-0.00016447383284437208
107,0.09133226017837759,0.09781811834279558,0.00038021512776435784,-0.6858701424759641,0.4323834707199119,0.005720469376255406,0.3478012226152225,-0.021344206058142016,-0.00016479008188028486
108,0.09193329069334091,0.09791572749120483,0.000402779565376557,-0.6888796903757646,0.4331044192643238,0.007562974655429204,0.3500066684886206,-0.021478380045522036,-0.00016504926976119958
109,0.09309522391409362,0.09807611267171713,0.0004212214077010251,-0.6947726324246559,0.4346637740486265,0.011044028216861236,0.3543024224497862,-0.021739952481619078,-0.00016565883506012248
110,0.09368424587948498,0.09815595831909264,0.0004325485012661723,-0.6977372253685723,0.4354525025506294,0.012810116511732075,0.3564818464199663,-0.021872947771966477,-0.0001660071646089959
111,0.09427717901379128,0.09823292344495882,0.00044407837275725615,-0.700717743699571,0.43625098272571194,0.014582668685839474,0.35867245783117696,-0.022006767896077643,-0.0001663799764669327
112,0.09487403258051269,0.09830724098606355,0.0004561396310904797,-0.7037128970376934,0.4370574995849882,0.01636279345824536,0.36087379941636705,-0.02214136694791784,-0.0001667748452377965
113,0.09547478206464521,0.09837910546849103,0.0004690300815266557,-0.7067213884734328,0.4378704359619549,0.018151315578806573,0.3630853696750797,-0.02227669861639123,-0.00016718978665156628
114,0.09664010428161011,0.09849669444940465,0.0004754613813721803,-0.7126036684516057,0.43957675553880177,0.021571181105183725,0.36739359465454663,-0.02254049237023407,-0.0001680733682176905
115,0.09723276431332166,0.0985571228206231,0.00048464101624455524,-0.7155637098391546,0.44041901195393507,0.02332085748965298,0.36957700013506095,-0.022674325610409756,-0.00016853924075667606
116,0.09783041665555003,0.0986162977796338,0.0004964458193658372,-0.7185377101709488,0.4412583910581747,0.025086091254691877,0.3717715911161658,-0.022808909536250064,-0.00016901957043579416
117,0.09843283154915354,0.09867422736223824,0.0005109761550459169,-0.7215240494661482,0.44209419509067965,0.02686644463009133,0.3739764969142799,-0.022944184697961043,-0.00016951333290040458
118,0.09903977794435795,0.09873091184756352,0.0005283224758579758,-0.7245211684529093,0.44292576889975677,0.028661434608770422,0.37619085513533373,-0.023080093183434087,-0.00017001961368342516
119,0.09965102518650307,0.09878634563525958,0.0005485664101358007,-0.7275275689497466,0.44375249783953763,0.03047054555678835,0.37841381683023584,-0.023216578749877623,-0.0001705375923912471
120,0.10026634438343679,0.0988405187870807,0.0005717817331670899,-0.7305418137746558,0.4445738054897683,0.032293239482888876,0.38064455055236723,-0.023353586920427088,-0.00017106652977264824
121,0.10088550950717207,0.09889341828872972,0.0005980352352938506,-0.7335625262706397,0.445389151304277,0.034128964408672524,0.38288224546747734,-0.02349106505061405,-0.00017160575699519604
122,0.10150829827452305,0.09894502907952057,0.0006273874977002075,-0.7365883895212987,0.44619802825983274,0.03597716117898424,0.38512611368122873,-0.023628962369962783,-0.00017215466667965535
123,0.10213449284391564,0.09899533488940691,0.0006598935852340226,-0.7396181453176324,0.44699996055595986,0.03783726898507415,0.38737539193006265,-0.023767230003381306,-0.00017271270536232106
124,0.10276388035914732,0.09904431891607068,0.0006956036645353464,-0.7426505929268783,0.4477945014011348,0.03970872982274662,0.3896293427566913,-0.02390582097624659,-0.00017327936712782654
125,0.1033962533655594,0.09909196436908826,0.0007345635548607204,-0.7456845877057053,0.44858123090935775,0.04159099206785724,0.39188725526951335,-0.024044690206384882,-0.00017385418820591023
126,0.10403141011972562,0.09913825490353304,0.0007768152182313359,-0.7487190395930657,0.4493597541223153,0.04348351331934121,0.3941484455668179,-0.02418379448556194,-0.0001744367423646231
127,0.10466915481019719,0.09918317496155904,0.0008223971948665004,-0.7517529115122102,0.4501296991656208,0.04538576263378775,0.396412256891562,-0.02432309245261742,-0.0001750266369634637
128,0.10530929770392362,0.0992267100373841,0.000871344989283207,-0.7547852177065631,0.45089071554250193,0.04729722225421798,0.39867805957024877,-0.02446254455998721,-0.00017562350955494234
129,0.10595165523057337,0.09926884687852228,0.0009236914119263862,-0.7578150220301539,0.45164247256446616,0.0492173889182539,0.40094525077949766,-0.024602113035040334,-0.00017622702494336228
130,0.1065960500150138,0.0993095736340071,0.0009794668807362183,-0.7608414362099647,0.45238465791564786,0.051145774816548556,0.40321325417584225,-0.0247417618373998,-0.0001768368726260792
131,0.10724231086658466,0.09934887995860023,0.0010386996866555837,-0.7638636180947522,0.4531169763455146,0.053081908260587334,0.40548151941775656,-0.024881456613207627,-0.00017745276455590744
132,0.10789027273246392,0.09938675708054305,0.0011014162267126426,-0.766880769902553,0.4538391484832167,0.05502533410928941,0.4077495216036098,-0.025021164647124287,-0.00017807443317424798
133,0.10853977662131213,0.09942319783920898,0.0011676412079902887,-0.769892136477087,0.45455090976595947,0.05697561399584874,0.41001676064494064,-0.02516085481271405,-0.0001787016296734016
134,0.10919066950245762,0.0994581966980219,0.001237397825496686,-0.7728970035615897,0.45525200947326244,0.05893232638964107,0.412282760590939,-0.025300497521754537,-0.00017933412245377443
135,0.10984280418511409,0.09949174973717023,0.0013107079166847085,-0.7758946960971675,0.4559422098587445,0.060895066522534576,0.41454706891716586,-0.025440064672915937,-0.00017997169574758868
136,0.11049603918147302,0.09952385462995293,0.0013875920951232495,-0.7788845765515364,0.4566212853710757,0.06286344620436977,0.41680925578921396,-0.025579529600179104,-0.00018061414838554693
137,0.1111502385569658,0.09955451060600226,0.0014680698656046182,-0.7818660432829535,0.4572890219559067,0.06483709354855428,0.4190689133101035,-0.02571886702129885,-0.00018126129268684072
138,0.11180527177053005,0.09958371840413545,0.0015521597227642209,-0.7848385289432399,0.4579452164308777,0.06681565262551342,0.421325654758645,-0.02585805298656659,-0.00018191295345612642
139,0.11246101350731598,0.09961148021716593,0.0016398792351061814,-0.7878014989230085,0.45858967592618827,0.06879878305904046,0.4235791138247156,-0.025997064828083182,-0.0001825689670737455
140,0.11311734355583365,0.09963779957585957,0.00173124511633653,-0.7907544503335713,0.45922221738354696,0.07078615957974098,0.42582894385388004,-0.026135881132660077,-0.00018322929813672037
141,0.11377414652575724,0.09966268139339453,0.0018262732832538958,-0.7936969095239841,0.45984266711105476,0.07277747153007626,0.4280748170607694,-0.026274481623335125,-0.00018389368807571505
142,0.11443131172273627,0.09968613184548382,0.001924978907706043,-0.7966284311619969,0.46045086037436045,0.07477242237088268,0.4303164238066136,-0.026412847177767776,-0.00018456198949304723
143,0.11508873297256092,0.09970815829607657,0.0020273764580091974,-0.7995485969011401,0.4610466410338666,0.07677072916067679,0.4325534718622394,-0.02655095976321344,-0.000185234076942061
144,0.1157463084425707,0.09972876922556398,0.0021334797327779015,-0.8024570140663878,0.461629861216924,0.0787721220234748,0.4347856856848188,-0.026688802388274046,-0.00018590983467445124
145,0.11640394062379623,0.09974797397905229,0.0022433018889538164,-0.8053533159584844,0.4622003810200628,0.08077634361635623,0.43701280573485934,-0.026826359131143538,-0.000186589535519017
146,0.11640394062379623,0.09974797397905229,0.0022433018889538164,-0.8053533159584844,0.4622003810200628,0.08077634361635623,0.43701280573485934,-0.026826359131143538,-0.000186589535519017
147,0.1170885768656329,0.09977240546324434,0.002374966969362513,-0.8083276069391307,0.46270238185265783,0.08288199831006426,0.43930186181720454,-0.026967759342934904,-0.00018727269929110115
148,0.11777044428455277,0.09979433123357136,0.0025081852178114733,-0.8112810570566068,0.46320039701524957,0.08497942655055127,0.4415798810395253,-0.027108509349124503,-0.00018795919431640029
149,0.11844971913683416,0.09981390102075956,0.0026432121784151774,-0.8142141233829063,0.46369318833397405,0.0870695228180727,0.4438471165187272,-0.027248624634041173,-0.00018864893924363423
150,0.11912655569074047,0.0998312502993483,0.002780278591648269,-0.8171272077942823,0.46417964594103844,0.08915307949091264,0.44610379429781666,-0.0273881190073796,-0.00018934186219552357
151,0.11980108832685747,0.09984650171376938,0.002919592528496842,-0.8200206631452595,0.4646587762383989,0.09123079675994844,0.44835011565740257,-0.027527004757869785,-0.00019003789486291686
152,0.11980108832685747,0.09984650171376938,0.002919592528496842,-0.8200206631452595,0.4646587762383989,0.09123079675994844,0.44835011565740257,-0.027527004757869785,-0.00019003789486291686
153,0.12050095868870078,0.09986627721421804,0.0030808588751106702,-0.8229840570212992,0.4650699079860707,0.09340446827989302,0.4506539905685216,-0.02766946643715092,-0.0001907369632159864
154,0.12119595043606819,0.09988301828195391,0.0032423245894748903,-0.825920196611165,0.4654816913282751,0.09556229913952917,0.45294211774061444,-0.027810988953060906,-0.00019143901577335393
155,0.12188643717726333,0.09989696290542778,0.0034044148117449574,-0.8288301213185711,0.46589218719852876,0.09770598094701867,0.4552151502200776,-0.027951612330076248,-0.00019214400326735364
156,0.12257275054411096,0.09990832404804666,0.0035675113598730712,-0.8317147586445777,0.4662996713205088,0.09983701862812173,0.4574736791842464,-0.028091372780912983,-0.0001928518771155736
157,0.12257275054411096,0.09990832404804666,0.0035675113598730712,-0.8317147586445777,0.4662996713205088,0.09983701862812173,0.4574736791842464,-0.028091372780912983,-0.0001928518771155736
158,0.12328306050164542,0.09992369695911851,0.003752637784641105,-0.834663124182039,0.4666395326774168,0.10205973047723668,0.45978631320776264,-0.02823449879077195,-0.00019356258102803706
159,0.12398683919145512,0.09993568089073683,0.003936833245110641,-0.8375794563473953,0.4669837213950789,0.10426068499091372,0.46207951863623664,-0.02837645978500139,-0.000194276079651435
160,0.12468462435061835,0.0999445819973419,0.004120671464489883,-0.8404652497615644,0.4673297109857412,0.10644223079045524,0.46435428116368604,-0.02851731620574652,-0.00019499233804467378
161,0.12468462435061835,0.0999445819973419,0.004120671464489883,-0.8404652497615644,0.4673297109857412,0.10644223079045524,0.46435428116368604,-0.02851731620574652,-0.00019499233804467378
162,0.12540501132563925,0.0999569905127803,0.004326252684846932,-0.8434091427561184,0.46760965513127845,0.10871077181076406,0.46667980058788805,-0.028661333721340648,-0.00019571131228492033
163,0.12611730605449645,0.09996565052405529,0.004529719096081505,-0.846316643054009,0.4678978577381446,0.11095184897746727,0.4689824736532874,-0.028803976467689958,-0.00019643297800211621
164,0.12611730605449645,0.09996565052405529,0.004529719096081505,-0.846316643054009,0.4678978577381446,0.11095184897746727,0.4689824736532874,-0.028803976467689958,-0.00019643297800211621
165,0.12685047806026994,0.09997719617975209,0.00475402435159554,-0.8492763286179733,0.4681237767432845,0.11327368935200445,0.47133204469456197,-0.028949544189168765,-0.0001971573016500367
166,0.12757382065748332,0.09998450742190522,0.004974765958906099,-0.8521948442678523,0.46836302374227634,0.11556149871297317,0.4736550523592921,-0.029093509020213962,-0.000197884267902334
167,0.12828822342048116,0.09998803927269703,0.005192857581914054,-0.8550746058246145,0.468611709526338,0.11781905289064443,0.47595316327030834,-0.02923597320251348,-0.00019861385855366443
168,0.12828822342048116,0.09998803927269703,0.005192857581914054,-0.8550746058246145,0.468611709526338,0.11781905289064443,0.47595316327030834,-0.02923597320251348,-0.00019861385855366443
169,0.12902294668433006,0.0999943466792998,0.0054322650429943775,-0.8580034445993546,0.46879653914470293,0.12015618407693422,0.4782965523782154,-0.02938126396235924,-0.00019934604387635203
170,0.12974707214690537,0.09999643187382497,0.005667578501444476,-0.8608891248475226,0.4689957986327135,0.1224567712626146,0.4806115322584638,-0.029524838324127983,-0.00020008081178315474
171,0.12974707214690537,0.09999643187382497,0.005667578501444476,-0.8608891248475226,0.4689957986327135,0.1224567712626146,0.4806115322584638,-0.029524838324127983,-0.00020008081178315474
172,0.13049016748469588,0.10000085851445406,0.0059235996176900535,-0.8638192270140692,0.4691336977296455,0.12483225215245031,0.48296875058134475,-0.029671053312593017,-0.00020081813928754587
173,0.13122129676055527,0.10000075708146583,0.006174329105127413,-0.8667026085819776,0.4692899398006211,0.12716607211075062,0.4852946039488053,-0.02981537029207649,-0.00020155802034375357
174,0.13122129676055527,0.10000075708146583,0.006174329105127413,-0.8667026085819776,0.4692899398006211,0.12716607211075062,0.4852946039488053,-0.02981537029207649,-0.00020155802034375357
175,0.13197029390382653,0.10000267844380546,0.006445384241275484,-0.8696264903849963,0.4693863844756365,0.12957113099745143,0.48766016436552145,-0.029962173151398114,-0.00020230043694414039
176,0.13270619223637484,0.09999987368125046,0.0067101446567238154,-0.8725007771328303,0.46950424758117476,0.13193035096853148,0.48999186646854664,-0.030106924709983194,-0.00020304538709226287
177,0.13270619223637484,0.09999987368125046,0.0067101446567238154,-0.8725007771328303,0.46950424758117476,0.13193035096853148,0.48999186646854664,-0.030106924709983194,-0.00020304538709226287
178,0.13345905565151042,0.09999886330725988,0.00699502720970438,-0.875412236948914,0.4695631574181266,0.13435797357777604,0.49236116446125744,-0.030254033181758296,-0.00020379285600655527
179,0.13419787902573654,0.09999301299507268,0.007272764920923408,-0.8782717899038115,0.4696459152305855,0.13673633054392373,0.4946944953973973,-0.03039896060720539,-0.00020454284430728725
180,0.13419787902573654,0.09999301299507268,0.007272764920923408,-0.8782717899038115,0.4696459152305855,0.13673633054392373,0.4946944953973973,-0.03039896060720539,-0.00020454284430728725
181,0.13495292383980786,0.09998879861247045,0.007570561425245453,-0.8811656711959347,0.4696700155742589,0.13918090308697445,0.4970636587980753,-0.03054613730908313,-0.00020529533930837017
182,0.1356931432496526,0.09997969578516347,0.007860482583251782,-0.8840057955624343,0.4697198999618681,0.14157338344478346,0.4993950670143599,-0.030691022844294452,-0.00020605034335485916
183,0.1356931432496526,0.09997969578516347,0.007860482583251782,-0.8840057955624343,0.4697198999618681,0.14157338344478346,0.4993950670143599,-0.030691022844294452,-0.00020605034335485916
184,0.1364489671358456,0.09997212415616002,0.00817050851893146,-0.886877795708441,0.469711009798766,0.1440304054332368,0.5017608323069959,-0.03083806768976971,-0.00020680784516261336
185,0.1364489671358456,0.09997212415616002,0.00817050851893146,-0.886877795708441,0.469711009798766,0.1440304054332368,0.5017608323069959,-0.03083806768976971,-0.00020680784516261336
186,0.1372182925472443,0.09996540110980924,0.00849883351272751,-0.889775938621203,0.46965000086782727,0.14654392713159486,0.5041565811068843,-0.03098700330197826,-0.00020756784110040132
187,0.1379702310373713,0.09995324381172294,0.008816690512179426,-0.8926141977544798,0.46962307869034275,0.14899548761079176,0.5065090998095997,-0.03113331079102261,-0.0002083303421793461
188,0.1379702310373713,0.09995324381172294,0.008816690512179426,-0.8926141977544798,0.46962307869034275,0.14899548761079176,0.5065090998095997,-0.03113331079102261,-0.0002083303421793461
189,0.1387356103032156,0.09994206197629144,0.0091534637843807,-0.8954775859749691,0.46954170197804085,0.15150416920709756,0.5088912314413916,-0.0312814870491299,-0.00020909534392005432
190,0.1387356103032156,0.09994206197629144,0.0091534637843807,-0.8954775859749691,0.46954170197804085,0.15150416920709756,0.5088912314413916,-0.0312814870491299,-0.00020909534392005432
191,0.13951251099800746,0.09993126400474373,0.009507484440742023,-0.8983609548573236,0.46941190278005007,0.15406266584500034,0.5112989744540981,-0.03143128629609497,-0.00020986284783488634
192,0.14027015603360307,0.09991478075109492,0.009849057706880895,-0.9011801826539422,0.469321958234253,0.15655207065214577,0.5136593450747349,-0.03157820218180299,-0.00021063286847129936
193,0.14027015603360307,0.09991478075109492,0.009849057706880895,-0.9011801826539422,0.469321958234253,0.15655207065214577,0.5136593450747349,-0.03157820218180299,-0.00021063286847129936
194,0.14103966141005514,0.0998989635897935,0.010208912317501373,-0.9040194046249656,0.4691797139353434,0.15909355308363937,0.5160457857416858,-0.0317267700498263,-0.00021140540356801772
195,0.14103966141005514,0.0998989635897935,0.010208912317501373,-0.9040194046249656,0.4691797139353434,0.15909355308363937,0.5160457857416858,-0.0317267700498263,-0.00021140540356801772
196,0.14181922716369524,0.09988328236248392,0.010585447112004168,-0.9068738905405022,0.4689908604177188,0.16168026840573907,0.5184545464538599,-0.0318767594616402,-0.00021218045609870193
197,0.14257816525059425,0.09986186185819884,0.010947973971130481,-0.909661331638535,0.4688459481974302,0.1641926755560541,0.5208127771392808,-0.03202367060637245,-0.0002129580413199976
198,0.14257816525059425,0.09986186185819884,0.010947973971130481,-0.909661331638535,0.4688459481974302,0.1641926755560541,0.5208127771392808,-0.03202367060637245,-0.0002129580413199976
199,0.14334779028590355,0.09984096107076543,0.011328523303098081,-0.912464785734235,0.4686494787872383,0.16675375738477233,0.5231944156423978,-0.03217207099578678,-0.0002137381570951986
200,0.14334779028590355,0.09984096107076543,0.011328523303098081,-0.912464785734235,0.4686494787872383,0.16675375738477233,0.5231944156423978,-0.03217207099578678,-0.0002137381570951986
201,0.1441263768202989,0.09982009094905368,0.011725512772462657,-0.9152798252184217,0.46840699588119755,0.16935693855113607,0.5255958766924191,-0.03232174019531367,-0.00021452080632267898
202,0.1441263768202989,0.09982009094905368,0.011725512772462657,-0.9152798252184217,0.46840699588119755,0.16935693855113607,0.5255958766924191,-0.03232174019531367,-0.00021452080632267898
203,0.1449123944215864,0.09979884203949153,0.012137566127888924,-0.9181025013047038,0.4681232406370484,0.17199644628568117,0.5280139492336828,-0.032472480827377415,-0.00021530599735471043
204,0.1449123944215864,0.09979884203949153,0.012137566127888924,-0.9181025013047038,0.4681232406370484,0.17199644628568117,0.5280139492336828,-0.032472480827377415,-0.00021530599735471043
205,0.1457044846028872,0.09977687449704417,0.01256348735309716,-0.920929288098369,0.46780225525290164,0.17466721245264408,0.5304457543559745,-0.03262411595865882,-0.00021609374284488987
206,0.1457044846028872,0.09977687449704417,0.01256348735309716,-0.920929288098369,0.46780225525290164,0.17466721245264408,0.5304457543559745,-0.03262411595865882,-0.00021609374284488987
207,0.14650144043354907,0.09975390919558984,0.013002238073136566,-0.9237570333806592,0.4674474739740664,0.17736478747763704,0.5328887081541926,-0.03277648680177413,-0.00021688405839709297
208,0.14727317909736415,0.09972457225232825,0.01342142061448759,-0.9265080063645825,0.4671528218557545,0.17996973249200943,0.5352709266065231,-0.0329251494671335,-0.00021767696770411214
209,0.14727317909736415,0.09972457225232825,0.01342142061448759,-0.9265080063645825,0.4671528218557545,0.17996973249200943,0.5352709266065231,-0.0329251494671335,-0.00021767696770411214
210,0.14805154998531378,0.09969502656827489,0.013856104789094686,-0.9292633131665823,0.46681470880618225,0.1826096720589846,0.5376677132482499,-0.0330747592588791,-0.00021847247324164042
211,0.14805154998531378,0.09969502656827489,0.013856104789094686,-0.9292633131665823,0.46681470880618225,0.1826096720589846,0.5376677132482499,-0.0330747592588791,-0.00021847247324164042
212,0.14883520714085863,0.099664944315071,0.01430502288568232,-0.9320196124988208,0.4664373861449018,0.1852795213485161,0.5400762520249652,-0.033225142867411045,-0.00021927057997248552
213,0.14883520714085863,0.099664944315071,0.01430502288568232,-0.9320196124988208,0.4664373861449018,0.1852795213485161,0.5400762520249652,-0.033225142867411045,-0.00021927057997248552
214,0.14962296003868572,0.09963405776490601,0.014767076272463167,-0.9347739324670152,0.466024466188234,0.18797483324708059,0.5424940287719031,-0.03337614560149334,-0.0002200712964654494
215,0.14962296003868572,0.09963405776490601,0.014767076272463167,-0.9347739324670152,0.466024466188234,0.18797483324708059,0.5424940287719031,-0.03337614560149334,-0.0002200712964654494
216,0.15041375453265265,0.09960215124383417,0.015241313679642252,-0.9375236261955954,0.4655790079497296,0.19069171800971105,0.5449187965308412,-0.03352762923310772,-0.00022087463424188595
217,0.15041375453265265,0.09960215124383417,0.015241313679642252,-0.9375236261955954,0.4655790079497296,0.19069171800971105,0.5449187965308412,-0.03352762923310772,-0.00022087463424188595
218,0.15120665608607298,0.09956905404237922,0.015726912207516097,-0.9402663329425024,0.4651035921297179,0.19342677287720586,0.547348544903568,-0.03367947010011781,-0.00022168060680410588
219,0.15120665608607298,0.09956905404237922,0.015726912207516097,-0.9402663329425024,0.4651035921297179,0.19342677287720586,0.547348544903568,-0.03367947010011781,-0.00022168060680410588
220,0.1520008350221843,0.09953463418790351,0.01622316069917347,-0.9429999440300697,0.46460038668547965,0.19617702037569104,0.5497814730366571,-0.033831557436774955,-0.00022248922876470846
221,0.1520008350221843,0.09953463418790351,0.01622316069917347,-0.9429999440300697,0.46460038668547965,0.19617702037569104,0.5497814730366571,-0.033831557436774955,-0.00022248922876470846
222,0.1527955526272203,0.09949879438195415,0.016729445164975668,-0.9457225637941231,0.46407120411884617,0.19893985420458718,0.5522159656672582,-0.03398379147926332,-0.00022329793659375222
223,0.1527955526272203,0.09949879438195415,0.016729445164975668,-0.9457225637941231,0.46407120411884617,0.19893985420458718,0.5522159656672582,-0.03398379147926332,-0.00022329793659375222
224,0.15359015175181018,0.09946146439275447,0.01724523607022696,-0.9484325025559472,0.4635175514652473,0.20171299209304255,0.5546505726903426,-0.03413608345619746,-0.00022410929748498397
225,0.15359015175181018,0.09946146439275447,0.01724523607022696,-0.9484325025559472,0.4635175514652473,0.20171299209304255,0.5546505726903426,-0.03413608345619746,-0.00022410929748498397
226,0.15438404577107107,0.09942259829027665,0.017770077079067623,-0.9511282440418977,0.46294067399345445,0.20449443403775822,0.5570839900981875,-0.0342883531895937,-0.00022492353051547424
227,0.15438404577107107,0.09942259829027665,0.017770077079067623,-0.9511282440418977,0.46294067399345445,0.20449443403775822,0.5570839900981875,-0.0342883531895937,-0.00022492353051547424
228,0.15517670979627862,0.09938217086910565,0.018303575243030737,-0.9538084250586142,0.4623415931975387,0.20728242593852084,0.5595150436503811,-0.03444052845062487,-0.00022574065355322696
229,0.15517670979627862,0.09938217086910565,0.018303575243030737,-0.9538084250586142,0.4623415931975387,0.20728242593852084,0.5595150436503811,-0.03444052845062487,-0.00022574065355322696
230,0.15596767299653036,0.0993401745056582,0.018845392404255396,-0.9564718179287012,0.4617211398587156,0.2100754278083501,0.5619426744361284,-0.03459254409795623,-0.00022656066753045794
231,0.15596767299653036,0.0993401745056582,0.018845392404255396,-0.9564718179287012,0.4617211398587156,0.2100754278083501,0.5619426744361284,-0.03459254409795623,-0.00022656066753045794
232,0.15675651187831846,0.09929661643047753,0.019395237666880852,-0.959117315131264,0.4610799827734661,0.21287208599076562,0.564365926113396,-0.03474434129478108,-0.00022738357206771894
233,0.15675651187831846,0.09929661643047753,0.019395237666880852,-0.959117315131264,0.4610799827734661,0.21287208599076562,0.564365926113396,-0.03474434129478108,-0.00022738357206771894
234,0.15754284440721977,0.09925151636800744,0.019952860808828868,-0.9617439158533405,0.46041865367667295,0.21567120889563357,0.5667839336327832,-0.034895866815481805,-0.0002282093666766386
235,0.15754284440721977,0.09925151636800744,0.019952860808828868,-0.9617439158533405,0.46041865367667295,0.21567120889563357,0.5667839336327832,-0.034895866815481805,-0.0002282093666766386
236,0.15832632487047998,0.09920490449866359,0.020518046521815825,-0.9643507142104168,0.45973756882734756,0.21847174582521592,0.5691959132731599,-0.03504707243295627,-0.00022903805076722803
237,0.15832632487047998,0.09920490449866359,0.020518046521815825,-0.9643507142104168,0.45973756882734756,0.21847174582521592,0.5691959132731599,-0.03504707243295627,-0.00022903805076722803
238,0.15832632487047998,0.09920490449866359,0.020518046521815825,-0.9643507142104168,0.45973756882734756,0.21847174582521592,0.5691959132731599,-0.03504707243295627,-0.00022903805076722803
239,0.15913468390818453,0.09916123244139775,0.02112780203062678,-0.9670025226780113,0.4589328666983222,0.22139240306794977,0.5716704209886737,-0.035202207273029126,-0.00022986959959800065
240,0.15913468390818453,0.09916123244139775,0.02112780203062678,-0.9670025226780113,0.4589328666983222,0.22139240306794977,0.5716704209886737,-0.035202207273029126,-0.00022986959959800065
241,0.15993553466794597,0.0991149973660563,0.021739328830252258,-0.9696245795565479,0.4581265998044446,0.22429539426150202,0.5741288792982241,-0.03535640329115987,-0.0002307040402760483
242,0.15993553466794597,0.0991149973660563,0.021739328830252258,-0.9696245795565479,0.4581265998044446,0.22429539426150202,0.5741288792982241,-0.03535640329115987,-0.0002307040402760483
243,0.16072919498443738,0.09906644901296253,0.022353274346822827,-0.9722173339117766,0.45731621006448736,0.22718248142467923,0.5765718354913671,-0.035509694558421075,-0.00023154139209043958
244,0.16072919498443738,0.09906644901296253,0.022353274346822827,-0.9722173339117766,0.45731621006448736,0.22718248142467923,0.5765718354913671,-0.035509694558421075,-0.00023154139209043958
245,0.1615159213289051,0.09901581101411834,0.022970196486129107,-0.9747811335716265,0.45649947986874095,0.23005515528317957,0.5789997366258227,-0.03566210888420916,-0.00023238166647696857
246,0.1615159213289051,0.09901581101411834,0.022970196486129107,-0.9747811335716265,0.45649947986874095,0.23005515528317957,0.5789997366258227,-0.03566210888420916,-0.00023238166647696857
247,0.1615159213289051,0.09901581101411834,0.022970196486129107,-0.9747811335716265,0.45649947986874095,0.23005515528317957,0.5789997366258227,-0.03566210888420916,-0.00023238166647696857
248,0.162323483181438,0.098967501538546,0.023629345684667333,-0.977379013758389,0.45556677732160233,0.23303516876312905,0.5814819757167717,-0.0358179501053672,-0.00023322484524997245
249,0.162323483181438,0.098967501538546,0.023629345684667333,-0.977379013758389,0.45556677732160233,0.23303516876312905,0.5814819757167717,-0.0358179501053672,-0.00023322484524997245
250,0.1631203782962088,0.09891637285088292,0.02428660020234011,-0.9799401737468154,0.4546424961558645,0.23598528734147423,0.5839409326415334,-0.03597240579625147,-0.00023407095869034978
251,0.1631203782962088,0.09891637285088292,0.02428660020234011,-0.9799401737468154,0.4546424961558645,0.23598528734147423,0.5839409326415334,-0.03597240579625147,-0.00023407095869034978
252,0.16390732753431683,0.09886278929967858,0.024943154630639286,-0.98246588355604,0.4537223150911552,0.23890899871077104,0.586378023134133,-0.036125563692187716,-0.0002349200261848441
253,0.16390732753431683,0.09886278929967858,0.024943154630639286,-0.98246588355604,0.4537223150911552,0.23890899871077104,0.586378023134133,-0.036125563692187716,-0.0002349200261848441
254,0.16390732753431683,0.09886278929967858,0.024943154630639286,-0.98246588355604,0.4537223150911552,0.23890899871077104,0.586378023134133,-0.036125563692187716,-0.0002349200261848441
255,0.1647120698820267,0.09881114074589786,0.025639995757823386,-0.9850177222854579,0.4526921912304671,0.24193033590745092,0.5888632596194953,-0.03628176831120701,-0.00023577203334767692
256,0.1647120698820267,0.09881114074589786,0.025639995757823386,-0.9850177222854579,0.4526921912304671,0.24193033590745092,0.5888632596194953,-0.03628176831120701,-0.00023577203334767692
257,0.16550384931366996,0.09875654113470488,0.026332034340661503,-0.9875279601297815,0.45167818046128694,0.2449126119561915,0.5913198148402999,-0.036436253503071794,-0.00023662701167760414
258,0.16550384931366996,0.09875654113470488,0.026332034340661503,-0.9875279601297815,0.45167818046128694,0.2449126119561915,0.5913198148402999,-0.036436253503071794,-0.00023662701167760414
259,0.16628368960920623,0.09869943479026158,0.02702090803948129,-0.9899984569779129,0.45067457887705215,0.24786064628604326,0.5937497765173895,-0.036589148584806316,-0.00023748497954083206
260,0.16628368960920623,0.09869943479026158,0.02702090803948129,-0.9899984569779129,0.45067457887705215,0.24786064628604326,0.5937497765173895,-0.036589148584806316,-0.00023748497954083206
261,0.16628368960920623,0.09869943479026158,0.02702090803948129,-0.9899984569779129,0.45067457887705215,0.24786064628604326,0.5937497765173895,-0.036589148584806316,-0.00023748497954083206
262,0.16707910709865814,0.09864413108946644,0.02774915799879818,-0.9924890049290298,0.44956363617939593,0.2509001061358895,0.5962235004522016,-0.036744821764778966,-0.00023834592015291832
263,0.16707910709865814,0.09864413108946644,0.02774915799879818,-0.9924890049290298,0.44956363617939593,0.2509001061358895,0.5962235004522016,-0.036744821764778966,-0.00023834592015291832
264,0.16786003480013686,0.09858596581202171,0.02847058951309621,-0.9949347577538344,0.44847351285816656,0.25389443275126117,0.5986647409948961,-0.03689854003668965,-0.0002392098620132121
265,0.16786003480013686,0.09858596581202171,0.02847058951309621,-0.9949347577538344,0.44847351285816656,0.25389443275126117,0.5986647409948961,-0.03689854003668965,-0.0002392098620132121
266,0.16786003480013686,0.09858596581202171,0.02847058951309621,-0.9949347577538344,0.44847351285816656,0.25389443275126117,0.5986647409948961,-0.03689854003668965,-0.0002392098620132121
267,0.1686539923324301,0.09852926118439828,0.029229096013839412,-0.9973945598865658,0.44728294094613874,0.2569712158263177,0.601144426512534,-0.03705470883034259,-0.0002400767960767616
268,0.1686539923324301,0.09852926118439828,0.029229096013839412,-0.9973945598865658,0.44728294094613874,0.2569712158263177,0.601144426512534,-0.03705470883034259,-0.0002400767960767616
269,0.16943157802772207,0.09846954161622029,0.02997799013526259,-0.9998058666984545,0.44612070887318583,0.25999476213724854,0.6035870985188865,-0.03720864197981934,-0.00024094675493846536
270,0.16943157802772207,0.09846954161622029,0.02997799013526259,-0.9998058666984545,0.44612070887318583,0.25999476213724854,0.6035870985188865,-0.03720864197981934,-0.00024094675493846536
271,0.16943157802772207,0.09846954161622029,0.02997799013526259,-0.9998058666984545,0.44612070887318583,0.25999476213724854,0.6035870985188865,-0.03720864197981934,-0.00024094675493846536
272,0.1702201936919724,0.09841110742171152,0.030762389423775863,-1.0022263696264544,0.4448625113321513,0.2630941547882907,0.6060640754452701,-0.03736477085396089,-0.00024181973089281561
273,0.1702201936919724,0.09841110742171152,0.030762389423775863,-1.0022263696264544,0.4448625113321513,0.2630941547882907,0.6060640754452701,-0.03736477085396089,-0.00024181973089281561
274,0.17099105214103544,0.0983496457965759,0.03153501294258172,-1.004595691454818,0.44363809161336715,0.26613425916252437,0.608500534278468,-0.03751844668725248,-0.0002426957561472503
275,0.17099105214103544,0.0983496457965759,0.03153501294258172,-1.004595691454818,0.44363809161336715,0.26613425916252437,0.608500534278468,-0.03751844668725248,-0.0002426957561472503
276,0.17099105214103544,0.0983496457965759,0.03153501294258172,-1.004595691454818,0.44363809161336715,0.26613425916252437,0.608500534278468,-0.03751844668725248,-0.0002426957561472503
277,0.17177134134032385,0.0982894108210895,0.032342103451567975,-1.0069702151637465,0.4423204695888032,0.26924532514019656,0.610968042330418,-0.03767411807820366,-0.00024357482129337522
278,0.17177134134032385,0.0982894108210895,0.032342103451567975,-1.0069702151637465,0.4423204695888032,0.26924532514019656,0.610968042330418,-0.03767411807820366,-0.00024357482129337522
279,0.17177134134032385,0.0982894108210895,0.032342103451567975,-1.0069702151637465,0.4423204695888032,0.26924532514019656,0.610968042330418,-0.03767411807820366,-0.00024357482129337522
280,0.17255812771375456,0.09822985356349498,0.03317964809596206,-1.0093440218340302,0.44092158263285625,0.2724150335861606,0.6134600524295123,-0.03783137980090064,-0.00024445693266690187
281,0.17255812771375456,0.09822985356349498,0.03317964809596206,-1.0093440218340302,0.44092158263285625,0.2724150335861606,0.6134600524295123,-0.03783137980090064,-0.00024445693266690187
282,0.1733238592391915,0.09816696227150329,0.03399988109559673,-1.0116605309421574,0.43957136240632483,0.27551030662924797,0.6159033157970221,-0.03798567772726178,-0.00024534213172101887
283,0.1733238592391915,0.09816696227150329,0.03399988109559673,-1.0116605309421574,0.43957136240632483,0.27551030662924797,0.6159033157970221,-0.03798567772726178,-0.00024534213172101887
284,0.1733238592391915,0.09816696227150329,0.03399988109559673,-1.0116605309421574,0.43957136240632483,0.27551030662924797,0.6159033157970221,-0.03798567772726178,-0.00024534213172101887
285,0.17409553736641814,0.09810498670854015,0.03485110615834262,-1.0139743666436802,0.43813763948899165,0.27866404768324576,0.6183701449760725,-0.038141510041867215,-0.0002462338721612895
286,0.17409553736641814,0.09810498670854015,0.03485110615834262,-1.0139743666436802,0.43813763948899165,0.27866404768324576,0.6183701449760725,-0.038141510041867215,-0.0002462338721612895
287,0.17409553736641814,0.09810498670854015,0.03485110615834262,-1.0139743666436802,0.43813763948899165,0.27866404768324576,0.6183701449760725,-0.038141510041867215,-0.0002462338721612895
288,0.17487064401481756,0.09804350350591787,0.03572978081001752,-1.0162805153529817,0.43663072935431374,0.28186559737844313,0.6208548330571072,-0.03829852285658087,-0.0002471289753256238
289,0.17487064401481756,0.09804350350591787,0.03572978081001752,-1.0162805153529817,0.43663072935431374,0.28186559737844313,0.6208548330571072,-0.03829852285658087,-0.0002471289753256238
290,0.1756227119172476,0.09797873275097982,0.036587369688720686,-1.0185258244171818,0.4351816773918544,0.28498307164331427,0.6232852819952985,-0.03845223025554286,-0.00024802695239433
291,0.1756227119172476,0.09797873275097982,0.036587369688720686,-1.0185258244171818,0.4351816773918544,0.28498307164331427,0.6232852819952985,-0.03845223025554286,-0.00024802695239433
292,0.1756227119172476,0.09797873275097982,0.036587369688720686,-1.0185258244171818,0.4351816773918544,0.28498307164331427,0.6232852819952985,-0.03845223025554286,-0.00024802695239433
293,0.1763782998448892,0.0979148606772759,0.037473956409519255,-1.020762737194617,0.43365412097132156,0.28815114286583454,0.6257341649182241,-0.03860715525076509,-0.00024892774612367193
294,0.1763782998448892,0.0979148606772759,0.037473956409519255,-1.020762737194617,0.43365412097132156,0.28815114286583454,0.6257341649182241,-0.03860715525076509,-0.00024892774612367193
295,0.1763782998448892,0.0979148606772759,0.037473956409519255,-1.020762737194617,0.43365412097132156,0.28815114286583454,0.6257341649182241,-0.03860715525076509,-0.00024892774612367193
296,0.17713515411841244,0.09785154048726878,0.038386242705520476,-1.0229868530569002,0.43205749930783677,0.29136012895843166,0.6281962936534707,-0.03876297629063731,-0.00024983137677921455
297,0.17713515411841244,0.09785154048726878,0.038386242705520476,-1.0229868530569002,0.43205749930783677,0.29136012895843166,0.6281962936534707,-0.03876297629063731,-0.00024983137677921455
298,0.17713515411841244,0.09785154048726878,0.038386242705520476,-1.0229868530569002,0.43205749930783677,0.29136012895843166,0.6281962936534707,-0.03876297629063731,-0.00024983137677921455
299,0.17789134209138893,0.09778851510495715,0.03932142762807483,-1.0251943628408413,0.43039967844866384,0.29460179765184114,0.6306671824570549,-0.03891941542632584,-0.00025073787939960284
300,0.17789134209138893,0.09778851510495715,0.03932142762807483,-1.0251943628408413,0.43039967844866384,0.29460179765184114,0.6306671824570549,-0.03891941542632584,-0.00025073787939960284
301,0.17789134209138893,0.09778851510495715,0.03932142762807483,-1.0251943628408413,0.43039967844866384,0.29460179765184114,0.6306671824570549,-0.03891941542632584,-0.00025073787939960284
302,0.1786452038753935,0.0977256023402654,0.040277131564620455,-1.0273819610527901,0.42868719791898097,0.2978691457955046,0.6331429451651956,-0.039076231900692295,-0.0002516472916978519
303,0.1786452038753935,0.0977256023402654,0.040277131564620455,-1.0273819610527901,0.42868719791898097,0.2978691457955046,0.6331429451651956,-0.039076231900692295,-0.0002516472916978519
304,0.1786452038753935,0.0977256023402654,0.040277131564620455,-1.0273819610527901,0.42868719791898097,0.2978691457955046,0.6331429451651956,-0.039076231900692295,-0.0002516472916978519
305,0.1793953111466852,0.09766268220942242,0.041251331777784735,-1.0295467713890671,0.4269254802192887,0.3011562120190837,0.6356202078144494,-0.039233216711261024,-0.0002525596506729634
306,0.1793953111466852,0.09766268220942242,0.041251331777784735,-1.0295467713890671,0.4269254802192887,0.3011562120190837,0.6356202078144494,-0.039233216711261024,-0.0002525596506729634
307,0.1793953111466852,0.09766268220942242,0.041251331777784735,-1.0295467713890671,0.4269254802192887,0.3011562120190837,0.6356202078144494,-0.039233216711261024,-0.0002525596506729634
308,0.18014043204576768,0.09759968616666549,0.042242307649094674,-1.0316862834865206,0.42511900867330116,0.3044579176462186,0.6380960343673973,-0.03939018798888702,-0.0002534749572869822
309,0.18014043204576768,0.09759968616666549,0.042242307649094674,-1.0316862834865206,0.42511900867330116,0.3044579176462186,0.6380960343673973,-0.03939018798888702,-0.0002534749572869822
310,0.18014043204576768,0.09759968616666549,0.042242307649094674,-1.0316862834865206,0.42511900867330116,0.3044579176462186,0.6380960343673973,-0.03939018798888702,-0.0002534749572869822
311,0.18087950132783037,0.09753658797651199,0.04324859412782522,-1.03379829934883,0.42327147830727896,0.30776993160402977,0.6405678635227425,-0.03954698707438185,-0.00025439318310788405
312,0.18087950132783037,0.09753658797651199,0.04324859412782522,-1.03379829934883,0.42327147830727896,0.30776993160402977,0.6405678635227425,-0.03954698707438185,-0.00025439318310788405
313,0.18087950132783037,0.09753658797651199,0.04324859412782522,-1.03379829934883,0.42327147830727896,0.30776993160402977,0.6405678635227425,-0.03954698707438185,-0.00025439318310788405
314,0.18161159507071298,0.09747339590603302,0.04426894213784525,-1.0358808885306263,0.42138592374650846,0.3110885557377722,0.6430334549158335,-0.039703475203437893,-0.0002553144463362254
315,0.18161159507071298,0.09747339590603302,0.04426894213784525,-1.0358808885306263,0.42138592374650846,0.3110885557377722,0.6430334549158335,-0.039703475203437893,-0.0002553144463362254
316,0.18161159507071298,0.09747339590603302,0.04426894213784525,-1.0358808885306263,0.42138592374650846,0.3110885557377722,0.6430334549158335,-0.039703475203437893,-0.0002553144463362254
317,0.1823359091560205,0.09741014627788824,0.045302284894498425,-1.0379323494850188,0.41946482752303504,0.3144106274730147,0.645490843249689,-0.03985953063004481,-0.00025623878504231517
318,0.1823359091560205,0.09741014627788824,0.045302284894498425,-1.0379323494850188,0.41946482752303504,0.3144106274730147,0.645490843249689,-0.03985953063004481,-0.00025623878504231517
319,0.1823359091560205,0.09741014627788824,0.045302284894498425,-1.0379323494850188,0.41946482752303504,0.3144106274730147,0.645490843249689,-0.03985953063004481,-0.00025623878504231517
320,0.18305174106895594,0.0973468980261922,0.04634770925830369,-1.039951177043528,0.4175102116938667,0.31773343725750425,0.6479382992023242,-0.04001504621179859,-0.0002571662205910164
321,0.18305174106895594,0.0973468980261922,0.04634770925830369,-1.039951177043528,0.4175102116938667,0.31773343725750425,0.6479382992023242,-0.04001504621179859,-0.0002571662205910164
322,0.18305174106895594,0.0973468980261922,0.04634770925830369,-1.039951177043528,0.4175102116938667,0.31773343725750425,0.6479382992023242,-0.04001504621179859,-0.0002571662205910164
323,0.18375847450803312,0.0972837281399336,0.047404431380874044,-1.0419360348940268,0.4155237152472861,0.3210546585771544,0.6503742960855398,-0.040169927344974626,-0.00025809676836097026
324,0.18375847450803312,0.0972837281399336,0.047404431380874044,-1.0419360348940268,0.4155237152472861,0.3210546585771544,0.6503742960855398,-0.040169927344974626,-0.00025809676836097026
325,0.18375847450803312,0.0972837281399336,0.047404431380874044,-1.0419360348940268,0.4155237152472861,0.3210546585771544,0.6503742960855398,-0.040169927344974626,-0.00025809676836097026
326,0.18445556638508004,0.09722072786292678,0.04847177601268019,-1.0438857322651158,0.4135066594138125,0.3243722886694321,0.6527974814002988,-0.04032409020251056,-0.00025903043965648753
327,0.18445556638508004,0.09722072786292678,0.04847177601268019,-1.0438857322651158,0.4135066594138125,0.3243722886694321,0.6527974814002988,-0.04032409020251056,-0.00025903043965648753
328,0.18445556638508004,0.09722072786292678,0.04847177601268019,-1.0438857322651158,0.4135066594138125,0.3243722886694321,0.6527974814002988,-0.04032409020251056,-0.00025903043965648753
329,0.18514253585623697,0.09715799953446783,0.04954915893617154,-1.0457992041584077,0.4114601026912767,0.327684598334044,0.6552066525636037,-0.04047746023068288,-0.0002599672421738813
330,0.18514253585623697,0.09715799953446783,0.04954915893617154,-1.0457992041584077,0.4114601026912767,0.327684598334044,0.6552066525636037,-0.04047746023068288,-0.0002599672421738813
331,0.18514253585623697,0.09715799953446783,0.04954915893617154,-1.0457992041584077,0.4114601026912767,0.327684598334044,0.6552066525636037,-0.04047746023068288,-0.0002599672421738813
332,0.1858189550759379,0.09709565397062754,0.05063607206658064,-1.047675494572446,0.4093848871307682,0.33099008947585307,0.6576007361902209,-0.04062997086624642,-0.0002609071802447643
333,0.1858189550759379,0.09709565397062754,0.05063607206658064,-1.047675494572446,0.4093848871307682,0.33099008947585307,0.6576007361902209,-0.04062997086624642,-0.0002609071802447643
334,0.1858189550759379,0.09709565397062754,0.05063607206658064,-1.047675494572446,0.4093848871307682,0.33099008947585307,0.6576007361902209,-0.04062997086624642,-0.0002609071802447643
335,0.1864844414102268,0.09703380830041818,0.051732070829310924,-1.049513742247512,0.4072816772051891,0.334287459215333,0.6599787704040675,-0.04078156244140201,-0.0002618502550505207
336,0.1864844414102268,0.09703380830041818,0.051732070829310924,-1.049513742247512,0.4072816772051891,0.334287459215333,0.6599787704040675,-0.04078156244140201,-0.0002618502550505207
337,0.1864844414102268,0.09703380830041818,0.051732070829310924,-1.049513742247512,0.4072816772051891,0.334287459215333,0.6599787704040675,-0.04078156244140201,-0.0002618502550505207
338,0.1864844414102268,0.09703380830041818,0.051732070829310924,-1.049513742247512,0.4072816772051891,0.334287459215333,0.6599787704040675,-0.04078156244140201,-0.0002618502550505207
339,0.1871578331954329,0.0969755275952337,0.05288827350016295,-1.0513462572185248,0.4050157019744237,0.33769818940196616,0.6624037892649848,-0.04093617533463082,-0.00026279646389096496
340,0.1871578331954329,0.0969755275952337,0.05288827350016295,-1.0513462572185248,0.4050157019744237,0.33769818940196616,0.6624037892649848,-0.04093617533463082,-0.00026279646389096496
341,0.1871578331954329,0.0969755275952337,0.05288827350016295,-1.0513462572185248,0.4050157019744237,0.33769818940196616,0.6624037892649848,-0.04093617533463082,-0.00026279646389096496
342,0.18781590343217916,0.09691719784006193,0.054044301168482786,-1.053133288514188,0.40274645435527345,0.34107769450982295,0.6648007140656884,-0.04108911900355256,-0.0002637458210052163
343,0.18781590343217916,0.09691719784006193,0.054044301168482786,-1.053133288514188,0.40274645435527345,0.34107769450982295,0.6648007140656884,-0.04108911900355256,-0.0002637458210052163
344,0.18781590343217916,0.09691719784006193,0.054044301168482786,-1.053133288514188,0.40274645435527345,0.34107769450982295,0.6648007140656884,-0.04108911900355256,-0.0002637458210052163
345,0.18845901955044814,0.09685911308868181,0.05520124769035196,-1.0548751702396169,0.4004701333804914,0.344428592389766,0.6671704925777323,-0.041240452802616165,-0.0002646983340176765
346,0.18845901955044814,0.09685911308868181,0.05520124769035196,-1.0548751702396169,0.4004701333804914,0.344428592389766,0.6671704925777323,-0.041240452802616165,-0.0002646983340176765
347,0.18845901955044814,0.09685911308868181,0.05520124769035196,-1.0548751702396169,0.4004701333804914,0.344428592389766,0.6671704925777323,-0.041240452802616165,-0.0002646983340176765
348,0.18908745976160288,0.09680153689839298,0.056360010047829714,-1.0565721207809267,0.3981835480388181,0.34775302209818615,0.6695138685515163,-0.041390223280727445,-0.0002656540024936207
349,0.18908745976160288,0.09680153689839298,0.056360010047829714,-1.0565721207809267,0.3981835480388181,0.34775302209818615,0.6695138685515163,-0.041390223280727445,-0.0002656540024936207
350,0.18908745976160288,0.09680153689839298,0.056360010047829714,-1.0565721207809267,0.3981835480388181,0.34775302209818615,0.6695138685515163,-0.041390223280727445,-0.0002656540024936207
351,0.18908745976160288,0.09680153689839298,0.056360010047829714,-1.0565721207809267,0.3981835480388181,0.34775302209818615,0.6695138685515163,-0.041390223280727445,-0.0002656540024936207
352,0.18971901787760503,0.09674756220688485,0.0575741707114027,-1.0582531165906564,0.3957458063784285,0.35117489784441347,0.6718942672034757,-0.04154239969837564,-0.00026661281845747367
353,0.18971901787760503,0.09674756220688485,0.0575741707114027,-1.0582531165906564,0.3957458063784285,0.35117489784441347,0.6718942672034757,-0.04154239969837564,-0.00026661281845747367
354,0.18971901787760503,0.09674756220688485,0.0575741707114027,-1.0582531165906564,0.3957458063784285,0.35117489784441347,0.6718942672034757,-0.04154239969837564,-0.00026661281845747367
355,0.19033268104805862,0.09669380157820491,0.0587826066536583,-1.0598838438045162,0.39331728875200195,0.3545522174030084,0.6742387609034013,-0.04169242017532472,-0.00026757478767447634
356,0.19033268104805862,0.09669380157820491,0.0587826066536583,-1.0598838438045162,0.39331728875200195,0.3545522174030084,0.6742387609034013,-0.04169242017532472,-0.00026757478767447634
357,0.19033268104805862,0.09669380157820491,0.0587826066536583,-1.0598838438045162,0.39331728875200195,0.3545522174030084,0.6742387609034013,-0.04169242017532472,-0.00026757478767447634
358,0.19033268104805862,0.09669380157820491,0.0587826066536583,-1.0598838438045162,0.39331728875200195,0.3545522174030084,0.6742387609034013,-0.04169242017532472,-0.00026757478767447634
359,0.19094590845930703,0.09664343916753024,0.06004076894109174,-1.0614918335647106,0.39075216553275544,0.3580115588663767,0.6766116032931588,-0.0418443081495381,-0.0002685399071626902
360,0.19094590845930703,0.09664343916753024,0.06004076894109174,-1.0614918335647106,0.39075216553275544,0.3580115588663767,0.6766116032931588,-0.0418443081495381,-0.0002685399071626902
361,0.19094590845930703,0.09664343916753024,0.06004076894109174,-1.0614918335647106,0.39075216553275544,0.3580115588663767,0.6766116032931588,-0.0418443081495381,-0.0002685399071626902
362,0.1915390770195792,0.09659323457561345,0.0612877365818769,-1.0630459095381835,0.38820974106998496,0.36141359567049797,0.6789416577781822,-0.04199361071778824,-0.0002695081839656684
363,0.1915390770195792,0.09659323457561345,0.0612877365818769,-1.0630459095381835,0.38820974106998496,0.36141359567049797,0.6789416577781822,-0.04199361071778824,-0.0002695081839656684
364,0.1915390770195792,0.09659323457561345,0.0612877365818769,-1.0630459095381835,0.38820974106998496,0.36141359567049797,0.6789416577781822,-0.04199361071778824,-0.0002695081839656684
365,0.1915390770195792,0.09659323457561345,0.0612877365818769,-1.0630459095381835,0.38820974106998496,0.36141359567049797,0.6789416577781822,-0.04199361071778824,-0.0002695081839656684
366,0.19212910567012406,0.09654641593479786,0.06258046784461391,-1.0645718752089868,0.3855403310051861,0.3648866618131157,0.6812935930592685,-0.04214437971590027,-0.00027047961343550656
367,0.19212910567012406,0.09654641593479786,0.06258046784461391,-1.0645718752089868,0.3855403310051861,0.3648866618131157,0.6812935930592685,-0.04214437971590027,-0.00027047961343550656
368,0.19212910567012406,0.09654641593479786,0.06258046784461391,-1.0645718752089868,0.3855403310051861,0.3648866618131157,0.6812935930592685,-0.04214437971590027,-0.00027047961343550656
369,0.19269765077078224,0.09649985273728792,0.0638579873521046,-1.0660414704770107,0.3829029336699576,0.36829341222509404,0.6835977170033343,-0.042292249566282594,-0.00027145419846529516
370,0.19269765077078224,0.09649985273728792,0.0638579873521046,-1.0660414704770107,0.3829029336699576,0.36829341222509404,0.6835977170033343,-0.042292249566282594,-0.00027145419846529516
371,0.19269765077078224,0.09649985273728792,0.0638579873521046,-1.0660414704770107,0.3829029336699576,0.36829341222509404,0.6835977170033343,-0.042292249566282594,-0.00027145419846529516
372,0.19269765077078224,0.09649985273728792,0.0638579873521046,-1.0660414704770107,0.3829029336699576,0.36829341222509404,0.6835977170033343,-0.042292249566282594,-0.00027145419846529516
373,0.19326094116502088,0.09645678604675055,0.06517849457647718,-1.0674785748803468,0.38014478636751914,0.371763287167774,0.6859188155927051,-0.04244128195942207,-0.0002724319290348188
374,0.19326094116502088,0.09645678604675055,0.06517849457647718,-1.0674785748803468,0.38014478636751914,0.371763287167774,0.6859188155927051,-0.04244128195942207,-0.0002724319290348188
375,0.19326094116502088,0.09645678604675055,0.06517849457647718,-1.0674785748803468,0.38014478636751914,0.371763287167774,0.6859188155927051,-0.04244128195942207,-0.0002724319290348188
376,0.19380184153463173,0.0964141680218402,0.06648079096878731,-1.0688576909638068,0.37742510192145207,0.37516045006702176,0.6881884045387566,-0.04258718388165057,-0.0002734128016062177
377,0.19380184153463173,0.0964141680218402,0.06648079096878731,-1.0688576909638068,0.37742510192145207,0.37516045006702176,0.6881884045387566,-0.04258718388165057,-0.0002734128016062177
378,0.19380184153463173,0.0964141680218402,0.06648079096878731,-1.0688576909638068,0.37742510192145207,0.37516045006702176,0.6881884045387566,-0.04258718388165057,-0.0002734128016062177
379,0.19380184153463173,0.0964141680218402,0.06648079096878731,-1.0688576909638068,0.37742510192145207,0.37516045006702176,0.6881884045387566,-0.04258718388165057,-0.0002734128016062177
380,0.19433578097527385,0.09637523310353495,0.06782411805807266,-1.070200638349688,0.37458859956675217,0.37861497947002554,0.6904711702456804,-0.04273401338515763,-0.0002743967995967767
381,0.19433578097527385,0.09637523310353495,0.06782411805807266,-1.070200638349688,0.37458859956675217,0.37861497947002554,0.6904711702456804,-0.04273401338515763,-0.0002743967995967767
382,0.19433578097527385,0.09637523310353495,0.06782411805807266,-1.070200638349688,0.37458859956675217,0.37861497947002554,0.6904711702456804,-0.04273401338515763,-0.0002743967995967767
383,0.19484678865014804,0.09633699608433618,0.0691469473197951,-1.0714845753310225,0.37179505089721426,0.381992229599627,0.6926996765318619,-0.0428775400664323,-0.0002753839125886116
384,0.19484678865014804,0.09633699608433618,0.0691469473197951,-1.0714845753310225,0.37179505089721426,0.381992229599627,0.6926996765318619,-0.0428775400664323,-0.0002753839125886116
385,0.19484678865014804,0.09633699608433618,0.0691469473197951,-1.0714845753310225,0.37179505089721426,0.381992229599627,0.6926996765318619,-0.0428775400664323,-0.0002753839125886116
386,0.19484678865014804,0.09633699608433618,0.0691469473197951,-1.0714845753310225,0.37179505089721426,0.381992229599627,0.6926996765318619,-0.0428775400664323,-0.0002753839125886116
387,0.19534941306530615,0.09630267319620536,0.07050941025218926,-1.0727291676779471,0.3688870652342676,0.38542257726827395,0.6949383503022613,-0.04302180839380104,-0.0002763741175127825
388,0.19534941306530615,0.09630267319620536,0.07050941025218926,-1.0727291676779471,0.3688870652342676,0.38542257726827395,0.6949383503022613,-0.04302180839380104,-0.0002763741175127825
389,0.19534941306530615,0.09630267319620536,0.07050941025218926,-1.0727291676779471,0.3688870652342676,0.38542257726827395,0.6949383503022613,-0.04302180839380104,-0.0002763741175127825
390,0.19534941306530615,0.09630267319620536,0.07050941025218926,-1.0727291676779471,0.3688870652342676,0.38542257726827395,0.6949383503022613,-0.04302180839380104,-0.0002763741175127825
391,0.19584132461341683,0.0962720493966792,0.07190566837607122,-1.073930515173949,0.3658795184361259,0.3888923314631498,0.6971799757092386,-0.04316636808286491,-0.00027736739801274336
392,0.19584132461341683,0.0962720493966792,0.07190566837607122,-1.073930515173949,0.3658795184361259,0.3888923314631498,0.6971799757092386,-0.04316636808286491,-0.00027736739801274336
393,0.19584132461341683,0.0962720493966792,0.07190566837607122,-1.073930515173949,0.3658795184361259,0.3888923314631498,0.6971799757092386,-0.04316636808286491,-0.00027736739801274336
394,0.19630860495757851,0.0962422695202952,0.07327449391683237,-1.0750701806550875,0.36293098231132925,0.39227040741740665,0.699359594325726,-0.043307139341951274,-0.00027836374273793274
395,0.19630860495757851,0.0962422695202952,0.07327449391683237,-1.0750701806550875,0.36293098231132925,0.39227040741740665,0.699359594325726,-0.043307139341951274,-0.00027836374273793274
396,0.19630860495757851,0.0962422695202952,0.07327449391683237,-1.0750701806550875,0.36293098231132925,0.39227040741740665,0.699359594325726,-0.043307139341951274,-0.00027836374273793274
397,0.19630860495757851,0.0962422695202952,0.07327449391683237,-1.0750701806550875,0.36293098231132925,0.39227040741740665,0.699359594325726,-0.043307139341951274,-0.00027836374273793274
398,0.19676459426421689,0.09621658432379211,0.07467790269963688,-1.0761647060805346,0.3598792810245559,0.3956888476237065,0.7015417701224335,-0.04344817941754721,-0.00027936312549677934
399,0.19676459426421689,0.09621658432379211,0.07467790269963688,-1.0761647060805346,0.3598792810245559,0.3956888476237065,0.7015417701224335,-0.04344817941754721,-0.00027936312549677934
400,0.19676459426421689,0.09621658432379211,0.07467790269963688,-1.0761647060805346,0.3598792810245559,0.3956888476237065,0.7015417701224335,-0.04344817941754721,-0.00027936312549677934
401,0.19676459426421689,0.09621658432379211,0.07467790269963688,-1.0761647060805346,0.3598792810245559,0.3956888476237065,0.7015417701224335,-0.04344817941754721,-0.00027936312549677934
402,0.19720737903349506,0.09619485394763456,0.07611074851690888,-1.0772108808357987,0.35673728458134824,0.3991358525820157,0.7037202545518891,-0.04358909813291171,-0.0002803655244718172
403,0.19720737903349506,0.09619485394763456,0.07611074851690888,-1.0772108808357987,0.35673728458134824,0.3991358525820157,0.7037202545518891,-0.04358909813291171,-0.0002803655244718172
404,0.19720737903349506,0.09619485394763456,0.07611074851690888,-1.0772108808357987,0.35673728458134824,0.3991358525820157,0.7037202545518891,-0.04358909813291171,-0.0002803655244718172
405,0.19720737903349506,0.09619485394763456,0.07611074851690888,-1.0772108808357987,0.35673728458134824,0.3991358525820157,0.7037202545518891,-0.04358909813291171,-0.0002803655244718172
406,0.1976353675441499,0.09617700555743043,0.07756871915063372,-1.0782059629519285,0.3535155668339673,0.40260159383466926,0.7058897697506795,-0.0437295660233952,-0.00028137092188332453
407,0.1976353675441499,0.09617700555743043,0.07756871915063372,-1.0782059629519285,0.3535155668339673,0.40260159383466926,0.7058897697506795,-0.0437295660233952,-0.00028137092188332453
408,0.1976353675441499,0.09617700555743043,0.07756871915063372,-1.0782059629519285,0.3535155668339673,0.40260159383466926,0.7058897697506795,-0.0437295660233952,-0.00028137092188332453
409,0.1976353675441499,0.09617700555743043,0.07756871915063372,-1.0782059629519285,0.3535155668339673,0.40260159383466926,0.7058897697506795,-0.0437295660233952,-0.00028137092188332453
410,0.19804723384627565,0.09616301993998314,0.07904819355049794,-1.0791475964067292,0.350222806510628,0.4060778746476137,0.7080458444302413,-0.04386930404760501,-0.0002823793016980045
411,0.19804723384627565,0.09616301993998314,0.07904819355049794,-1.0791475964067292,0.350222806510628,0.4060778746476137,0.7080458444302413,-0.04386930404760501,-0.0002823793016980045
412,0.19804723384627565,0.09616301993998314,0.07904819355049794,-1.0791475964067292,0.350222806510628,0.4060778746476137,0.7080458444302413,-0.04386930404760501,-0.0002823793016980045
413,0.1984325280256667,0.09615020691560856,0.08048867401427665,-1.0800246138462708,0.3470153292525587,0.40943971596791434,0.7101277669117309,-0.044004490767761376,-0.00028339064628814107
414,0.1984325280256667,0.09615020691560856,0.08048867401427665,-1.0800246138462708,0.3470153292525587,0.40943971596791434,0.7101277669117309,-0.044004490767761376,-0.00028339064628814107
415,0.1984325280256667,0.09615020691560856,0.08048867401427665,-1.0800246138462708,0.3470153292525587,0.40943971596791434,0.7101277669117309,-0.044004490767761376,-0.00028339064628814107
416,0.1984325280256667,0.09615020691560856,0.08048867401427665,-1.0800246138462708,0.3470153292525587,0.40943971596791434,0.7101277669117309,-0.044004490767761376,-0.00028339064628814107
417,0.19880230722161024,0.09614186883181819,0.08195516902146269,-1.0808479683967078,0.343723282171326,0.41282155487562433,0.7122001074052753,-0.044139191255351894,-0.00028440491938481815
418,0.19880230722161024,0.09614186883181819,0.08195516902146269,-1.0808479683967078,0.343723282171326,0.41282155487562433,0.7122001074052753,-0.044139191255351894,-0.00028440491938481815
419,0.19880230722161024,0.09614186883181819,0.08195516902146269,-1.0808479683967078,0.343723282171326,0.41282155487562433,0.7122001074052753,-0.044139191255351894,-0.00028440491938481815
420,0.19880230722161024,0.09614186883181819,0.08195516902146269,-1.0808479683967078,0.343723282171326,0.41282155487562433,0.7122001074052753,-0.044139191255351894,-0.00028440491938481815
421,0.19915528187121387,0.09613796874373662,0.08344372169564965,-1.0816154332921184,0.3403562032662514,0.416214672222294,0.7142581924678925,-0.044273113363929265,-0.00028542208609401177
422,0.19915528187121387,0.09613796874373662,0.08344372169564965,-1.0816154332921184,0.3403562032662514,0.416214672222294,0.7142581924678925,-0.044273113363929265,-0.00028542208609401177
423,0.19915528187121387,0.09613796874373662,0.08344372169564965,-1.0816154332921184,0.3403562032662514,0.416214672222294,0.7142581924678925,-0.044273113363929265,-0.00028542208609401177
424,0.19915528187121387,0.09613796874373662,0.08344372169564965,-1.0816154332921184,0.3403562032662514,0.416214672222294,0.7142581924678925,-0.044273113363929265,-0.00028542208609401177
425,0.19949038335829195,0.09613851244326845,0.08495100944135292,-1.0823250901818908,0.3369219175292157,0.41961180818185106,0.7162980702805315,-0.04440601014473491,-0.0002864421138928707
426,0.19949038335829195,0.09613851244326845,0.08495100944135292,-1.0823250901818908,0.3369219175292157,0.41961180818185106,0.7162980702805315,-0.04440601014473491,-0.0002864421138928707
427,0.19949038335829195,0.09613851244326845,0.08495100944135292,-1.0823250901818908,0.3369219175292157,0.41961180818185106,0.7162980702805315,-0.04440601014473491,-0.0002864421138928707
428,0.19949038335829195,0.09613851244326845,0.08495100944135292,-1.0823250901818908,0.3369219175292157,0.41961180818185106,0.7162980702805315,-0.04440601014473491,-0.0002864421138928707
429,0.1998067246029929,0.09614353920892656,0.08647423392137822,-1.0829752730716486,0.3334268412091119,0.423006907785778,0.7183163876097391,-0.044537672123641334,-0.00028746497129167813
430,0.1998067246029929,0.09614353920892656,0.08647423392137822,-1.0829752730716486,0.3334268412091119,0.423006907785778,0.7183163876097391,-0.044537672123641334,-0.00028746497129167813
431,0.1998067246029929,0.09614353920892656,0.08647423392137822,-1.0829752730716486,0.3334268412091119,0.423006907785778,0.7183163876097391,-0.044537672123641334,-0.00028746497129167813
432,0.1998067246029929,0.09614353920892656,0.08647423392137822,-1.0829752730716486,0.3334268412091119,0.423006907785778,0.7183163876097391,-0.044537672123641334,-0.00028746497129167813
433,0.20010356763123838,0.09615311420524687,0.088011029905527,-1.0835645224521584,0.3298762334210337,0.42639491067959284,0.720310288029089,-0.044667920919555584,-0.0002884906263079298
434,0.20010356763123838,0.09615311420524687,0.088011029905527,-1.0835645224521584,0.3298762334210337,0.42639491067959284,0.720310288029089,-0.044667920919555584,-0.0002884906263079298
435,0.20010356763123838,0.09615311420524687,0.088011029905527,-1.0835645224521584,0.3298762334210337,0.42639491067959284,0.720310288029089,-0.044667920919555584,-0.0002884906263079298
436,0.20010356763123838,0.09615311420524687,0.088011029905527,-1.0835645224521584,0.3298762334210337,0.42639491067959284,0.720310288029089,-0.044667920919555584,-0.0002884906263079298
437,0.2003802969712914,0.09616732227249694,0.08955938974110936,-1.0840915478034179,0.3262744040835455,0.4297715774025597,0.7222773277318715,-0.04479660396947713,-0.00028951904531419187
438,0.2003802969712914,0.09616732227249694,0.08955938974110936,-1.0840915478034179,0.3262744040835455,0.4297715774025597,0.7222773277318715,-0.04479660396947713,-0.00028951904531419187
439,0.2003802969712914,0.09616732227249694,0.08955938974110936,-1.0840915478034179,0.3262744040835455,0.4297715774025597,0.7222773277318715,-0.04479660396947713,-0.00028951904531419187
440,0.2003802969712914,0.09616732227249694,0.08955938974110936,-1.0840915478034179,0.3262744040835455,0.4297715774025597,0.7222773277318715,-0.04479660396947713,-0.00028951904531419187
441,0.20063639788935222,0.09618626287724334,0.09111760077128712,-1.0845551969643565,0.3226248856520653,0.43313334587356994,0.7242154058703784,-0.04492359016620785,-0.00029055019229927144
442,0.20063639788935222,0.09618626287724334,0.09111760077128712,-1.0845551969643565,0.3226248856520653,0.43313334587356994,0.7242154058703784,-0.04492359016620785,-0.00029055019229927144
443,0.20063639788935222,0.09618626287724334,0.09111760077128712,-1.0845551969643565,0.3226248856520653,0.43313334587356994,0.7242154058703784,-0.04492359016620785,-0.00029055019229927144
444,0.20063639788935222,0.09618626287724334,0.09111760077128712,-1.0845551969643565,0.3226248856520653,0.43313334587356994,0.7242154058703784,-0.04492359016620785,-0.00029055019229927144
445,0.20087143862621654,0.09621004602527476,0.09268419349440571,-1.0849544311171877,0.3189305748515083,0.43647721286730967,0.7261227068963886,-0.045048766249365726,-0.00029158402845559867
446,0.20087143862621654,0.09621004602527476,0.09268419349440571,-1.0849544311171877,0.3189305748515083,0.43647721286730967,0.7261227068963886,-0.045048766249365726,-0.00029158402845559867
447,0.20087143862621654,0.09621004602527476,0.09268419349440571,-1.0849544311171877,0.3189305748515083,0.43647721286730967,0.7261227068963886,-0.045048766249365726,-0.00029158402845559867
448,0.20087143862621654,0.09621004602527476,0.09268419349440571,-1.0849544311171877,0.3189305748515083,0.43647721286730967,0.7261227068963886,-0.045048766249365726,-0.00029158402845559867
449,0.20108505592977274,0.09623878896761037,0.09425789863835432,-1.0852883043540884,0.31519384956037844,0.4398006361650918,0.7279976528236638,-0.04517203381872644,-0.0002926205119989354
450,0.20108505592977274,0.09623878896761037,0.09425789863835432,-1.0852883043540884,0.31519384956037844,0.4398006361650918,0.7279976528236638,-0.04517203381872644,-0.0002926205119989354
451,0.20108505592977274,0.09623878896761037,0.09425789863835432,-1.0852883043540884,0.31519384956037844,0.4398006361650918,0.7279976528236638,-0.04517203381872644,-0.0002926205119989354
452,0.20108505592977274,0.09623878896761037,0.09425789863835432,-1.0852883043540884,0.31519384956037844,0.4398006361650918,0.7279976528236638,-0.04517203381872644,-0.0002926205119989354
453,0.20127694329346657,0.096272613556798,0.0958376116361393,-1.085555946977395,0.3114166651253465,0.44310145380645133,0.7298388636981484,-0.04529330686203559,-0.0002936595981452586
454,0.20127694329346657,0.096272613556798,0.0958376116361393,-1.085555946977395,0.3114166651253465,0.44310145380645133,0.7298388636981484,-0.04529330686203559,-0.0002936595981452586
455,0.20127694329346657,0.096272613556798,0.0958376116361393,-1.085555946977395,0.3114166651253465,0.44310145380645133,0.7298388636981484,-0.04529330686203559,-0.0002936595981452586
456,0.20127694329346657,0.096272613556798,0.0958376116361393,-1.085555946977395,0.3114166651253465,0.44310145380645133,0.7298388636981484,-0.04529330686203559,-0.0002936595981452586
457,0.20144684140989907,0.09631164413404768,0.09742236324585116,-1.0857565518376597,0.30760063365947443,0.4463778174806984,0.7316451248602445,-0.04541250970831784,-0.0002947012391893549
458,0.20144684140989907,0.09631164413404768,0.09742236324585116,-1.0857565518376597,0.30760063365947443,0.4463778174806984,0.7316451248602445,-0.04541250970831784,-0.0002947012391893549
459,0.20144684140989907,0.09631164413404768,0.09742236324585116,-1.0857565518376597,0.30760063365947443,0.4463778174806984,0.7316451248602445,-0.04541250970831784,-0.0002947012391893549
460,0.20144684140989907,0.09631164413404768,0.09742236324585116,-1.0857565518376597,0.30760063365947443,0.4463778174806984,0.7316451248602445,-0.04541250970831784,-0.0002947012391893549
461,0.20159453043295708,0.09635600584796564,0.0990112952705694,-1.085889363141064,0.30374708927351357,0.44962813760530196,0.7334153598287753,-0.045529575333189874,-0.0002957453846455189
462,0.20159453043295708,0.09635600584796564,0.0990112952705694,-1.085889363141064,0.30374708927351357,0.44962813760530196,0.7334153598287753,-0.045529575333189874,-0.0002957453846455189
463,0.20159453043295708,0.09635600584796564,0.0990112952705694,-1.085889363141064,0.30374708927351357,0.44962813760530196,0.7334153598287753,-0.045529575333189874,-0.0002957453846455189
464,0.20159453043295708,0.09635600584796564,0.0990112952705694,-1.085889363141064,0.30374708927351357,0.44962813760530196,0.7334153598287753,-0.045529575333189874,-0.0002957453846455189
465,0.20171982371297262,0.09640582332291969,0.10060364050974048,-1.0859536672627916,0.2998571416874297,0.45285103805883986,0.7351486078382045,-0.04564444395541343,-0.00029679198142267937
466,0.20171982371297262,0.09640582332291969,0.10060364050974048,-1.0859536672627916,0.2998571416874297,0.45285103805883986,0.7351486078382045,-0.04564444395541343,-0.00029679198142267937
467,0.20171982371297262,0.09640582332291969,0.10060364050974048,-1.0859536672627916,0.2998571416874297,0.45285103805883986,0.7351486078382045,-0.04564444395541343,-0.00029679198142267937
468,0.20171982371297262,0.09640582332291969,0.10060364050974048,-1.0859536672627916,0.2998571416874297,0.45285103805883986,0.7351486078382045,-0.04564444395541343,-0.00029679198142267937
469,0.2018225627290382,0.09646121960965817,0.10219870621971706,-1.08594878518952,0.2959317202514517,0.45604531888536826,0.7368440052273786,-0.04575706187441886,-0.00029784097401503747
470,0.2018225627290382,0.09646121960965817,0.10219870621971706,-1.08594878518952,0.2959317202514517,0.45604531888536826,0.7368440052273786,-0.04575706187441886,-0.00029784097401503747
471,0.2018225627290382,0.09646121960965817,0.10219870621971706,-1.08594878518952,0.2959317202514517,0.45604531888536826,0.7368440052273786,-0.04575706187441886,-0.00029784097401503747
472,0.2018225627290382,0.09646121960965817,0.10219870621971706,-1.08594878518952,0.2959317202514517,0.45604531888536826,0.7368440052273786,-0.04575706187441886,-0.00029784097401503747
473,0.2019026129923445,0.09652231536302984,0.1037958604827158,-1.0858740662852115,0.29197161005837025,0.45920992557676305,0.738500770015901,-0.045867380507197464,-0.00029889230469565
474,0.2019026129923445,0.09652231536302984,0.1037958604827158,-1.0858740662852115,0.29197161005837025,0.45920992557676305,0.738500770015901,-0.045867380507197464,-0.00029889230469565
475,0.2019026129923445,0.09652231536302984,0.1037958604827158,-1.0858740662852115,0.29197161005837025,0.45920992557676305,0.738500770015901,-0.045867380507197464,-0.00029889230469565
476,0.2019026129923445,0.09652231536302984,0.1037958604827158,-1.0858740662852115,0.29197161005837025,0.45920992557676305,0.738500770015901,-0.045867380507197464,-0.00029889230469565
477,0.20195986073570854,0.09658922820182983,0.10539452098466248,-1.085728883132496,0.28797748153982067,0.4623439237799888,0.7401181891183632,-0.0459753555901291,-0.00029994591370492664
478,0.20195986073570854,0.09658922820182983,0.10539452098466248,-1.085728883132496,0.28797748153982067,0.4623439237799888,0.7401181891183632,-0.0459753555901291,-0.00029994591370492664
479,0.20195986073570854,0.09658922820182983,0.10539452098466248,-1.085728883132496,0.28797748153982067,0.4623439237799888,0.7401181891183632,-0.0459753555901291,-0.00029994591370492664
480,0.20195986073570854,0.09658922820182983,0.10539452098466248,-1.085728883132496,0.28797748153982067,0.4623439237799888,0.7401181891183632,-0.0459753555901291,-0.00029994591370492664
481,0.2019942102386117,0.0966620722142166,0.10699414578671168,-1.085512627249343,0.2839499146990989,0.4654464784757156,0.7416956077412119,-0.04608094651724636,-0.00030100173942922094
482,0.2019942102386117,0.0966620722142166,0.10699414578671168,-1.085512627249343,0.2839499146990989,0.4654464784757156,0.7416956077412119,-0.04608094651724636,-0.00030100173942922094
483,0.2019942102386117,0.0966620722142166,0.10699414578671168,-1.085512627249343,0.2839499146990989,0.4654464784757156,0.7416956077412119,-0.04608094651724636,-0.00030100173942922094
484,0.2019942102386117,0.0966620722142166,0.10699414578671168,-1.085512627249343,0.2839499146990989,0.4654464784757156,0.7416956077412119,-0.04608094651724636,-0.00030100173942922094
485,0.2020055816651988,0.09674095757908152,0.10859422574549259,-1.0852247055192963,0.27988941893356256,0.46851683684014445,0.7432324205854106,-0.046184115791352016,-0.0003020597185669216
486,0.2020055816651988,0.09674095757908152,0.10859422574549259,-1.0852247055192963,0.27988941893356256,0.46851683684014445,0.7432324205854106,-0.046184115791352016,-0.0003020597185669216
487,0.2020055816651988,0.09674095757908152,0.10859422574549259,-1.0852247055192963,0.27988941893356256,0.46851683684014445,0.7432324205854106,-0.046184115791352016,-0.0003020597185669216
488,0.20199537721408747,0.09682318366971729,0.1101350090056967,-1.0848786828581332,0.2759529711787495,0.4714444553875133,0.7446798213663068,-0.046281759024917574,-0.00030311978294251195
489,0.20199537721408747,0.09682318366971729,0.1101350090056967,-1.0848786828581332,0.2759529711787495,0.4714444553875133,0.7446798213663068,-0.046281759024917574,-0.00030311978294251195
490,0.20199537721408747,0.09682318366971729,0.1101350090056967,-1.0848786828581332,0.2759529711787495,0.4714444553875133,0.7446798213663068,-0.046281759024917574,-0.00030311978294251195
491,0.20199537721408747,0.09682318366971729,0.1101350090056967,-1.0848786828581332,0.2759529711787495,0.4714444553875133,0.7446798213663068,-0.046281759024917574,-0.00030311978294251195
492,0.20196308231776128,0.0969119578679723,0.1116863361054641,-1.0844607621986941,0.27195667769917425,0.47436050829894233,0.7460963043035903,-0.046377592209962,-0.000304181850883405
493,0.20196308231776128,0.0969119578679723,0.1116863361054641,-1.0844607621986941,0.27195667769917425,0.47436050829894233,0.7460963043035903,-0.046377592209962,-0.000304181850883405
494,0.20196308231776128,0.0969119578679723,0.1116863361054641,-1.0844607621986941,0.27195667769917425,0.47436050829894233,0.7460963043035903,-0.046377592209962,-0.000304181850883405
495,0.20196308231776128,0.0969119578679723,0.1116863361054641,-1.0844607621986941,0.27195667769917425,0.47436050829894233,0.7460963043035903,-0.046377592209962,-0.000304181850883405
496,0.2019084004472753,0.0970073088509726,0.11324575314270639,-1.083970127126404,0.2679060466333536,0.47726035159600705,0.7474793868436682,-0.04647145949958834,-0.00030524584372826634
497,0.2019084004472753,0.0970073088509726,0.11324575314270639,-1.083970127126404,0.2679060466333536,0.47726035159600705,0.7474793868436682,-0.04647145949958834,-0.00030524584372826634
498,0.2019084004472753,0.0970073088509726,0.11324575314270639,-1.083970127126404,0.2679060466333536,0.47726035159600705,0.7474793868436682,-0.04647145949958834,-0.00030524584372826634
499,0.2019084004472753,0.0970073088509726,0.11324575314270639,-1.083970127126404,0.2679060466333536,0.47726035159600705,0.7474793868436682,-0.04647145949958834,-0.00030524584372826634
500,0.20183110418045666,0.09710927537479475,0.11481118638363687,-1.0834060310429239,0.2638056210719247,0.4801401299774921,0.7488269784747742,-0.04656322979595272,-0.000306311687303336
501,0.20183110418045666,0.09710927537479475,0.11481118638363687,-1.0834060310429239,0.2638056210719247,0.4801401299774921,0.7488269784747742,-0.04656322979595272,-0.000306311687303336
502,0.20183110418045666,0.09710927537479475,0.11481118638363687,-1.0834060310429239,0.2638056210719247,0.4801401299774921,0.7488269784747742,-0.04656322979595272,-0.000306311687303336
503,0.20183110418045666,0.09710927537479475,0.11481118638363687,-1.0834060310429239,0.2638056210719247,0.4801401299774921,0.7488269784747742,-0.04656322979595272,-0.000306311687303336
504,0.20173102181983624,0.09721790317415416,0.11638087325639312,-1.0827677809944138,0.2596591587264313,0.4829966328901193,0.7501373105795303,-0.046652792313297616,-0.00030737931089993865
505,0.20173102181983624,0.09721790317415416,0.11638087325639312,-1.0827677809944138,0.2596591587264313,0.4829966328901193,0.7501373105795303,-0.046652792313297616,-0.00030737931089993865
506,0.20173102181983624,0.09721790317415416,0.11638087325639312,-1.0827677809944138,0.2596591587264313,0.4829966328901193,0.7501373105795303,-0.046652792313297616,-0.00030737931089993865
507,0.20161225740960242,0.09733040780242881,0.11789424197887813,-1.0820747877479608,0.25562714120442825,0.4857199604485763,0.7513630915990273,-0.046737129762187746,-0.0003084486419485698
508,0.20161225740960242,0.09733040780242881,0.11789424197887813,-1.0820747877479608,0.25562714120442825,0.4857199604485763,0.7513630915990273,-0.046737129762187746,-0.0003084486419485698
509,0.20161225740960242,0.09733040780242881,0.11789424197887813,-1.0820747877479608,0.25562714120442825,0.4857199604485763,0.7513630915990273,-0.046737129762187746,-0.0003084486419485698
510,0.20161225740960242,0.09733040780242881,0.11789424197887813,-1.0820747877479608,0.25562714120442825,0.4857199604485763,0.7513630915990273,-0.046737129762187746,-0.0003084486419485698
511,0.20147103533480792,0.09744991403374394,0.11942018594076807,-1.081306608103549,0.251526928711959,0.48843685441338636,0.7525595100006404,-0.046819759255101054,-0.00030951959809420715
512,0.20147103533480792,0.09744991403374394,0.11942018594076807,-1.081306608103549,0.251526928711959,0.48843685441338636,0.7525595100006404,-0.046819759255101054,-0.00030951959809420715
513,0.20147103533480792,0.09744991403374394,0.11942018594076807,-1.081306608103549,0.251526928711959,0.48843685441338636,0.7525595100006404,-0.046819759255101054,-0.00030951959809420715
514,0.20147103533480792,0.09744991403374394,0.11942018594076807,-1.081306608103549,0.251526928711959,0.48843685441338636,0.7525595100006404,-0.046819759255101054,-0.00030951959809420715
515,0.20130712321147387,0.09757642273386372,0.12095553093396946,-1.080462503344559,0.24736586181201037,0.49114134889961947,0.7537234600965597,-0.04690048558220755,-0.00031059210129906863
516,0.20130712321147387,0.09757642273386372,0.12095553093396946,-1.080462503344559,0.24736586181201037,0.49114134889961947,0.7537234600965597,-0.04690048558220755,-0.00031059210129906863
517,0.20130712321147387,0.09757642273386372,0.12095553093396946,-1.080462503344559,0.24736586181201037,0.49114134889961947,0.7537234600965597,-0.04690048558220755,-0.00031059210129906863
518,0.20112617983145253,0.09770710072977484,0.12243880146003319,-1.0795653143096222,0.24330763616030635,0.4937229374736586,0.7548080378840005,-0.04697631076836295,-0.0003116660743268181
519,0.20112617983145253,0.09770710072977484,0.12243880146003319,-1.0795653143096222,0.24330763616030635,0.4937229374736586,0.7548080378840005,-0.04697631076836295,-0.0003116660743268181
520,0.20112617983145253,0.09770710072977484,0.12243880146003319,-1.0795653143096222,0.24330763616030635,0.4937229374736586,0.7548080378840005,-0.04697631076836295,-0.0003116660743268181
521,0.20112617983145253,0.09770710072977484,0.12243880146003319,-1.0795653143096222,0.24330763616030635,0.4937229374736586,0.7548080378840005,-0.04697631076836295,-0.0003116660743268181
522,0.20092254137644885,0.0978450129032403,0.12393773698432133,-1.0785907337458323,0.23917170326359938,0.49630479419368057,0.7558660254293198,-0.04705060579957655,-0.00031274143373596235
523,0.20092254137644885,0.0978450129032403,0.12393773698432133,-1.0785907337458323,0.23917170326359938,0.49630479419368057,0.7558660254293198,-0.04705060579957655,-0.00031274143373596235
524,0.20092254137644885,0.0978450129032403,0.12393773698432133,-1.0785907337458323,0.23917170326359938,0.49630479419368057,0.7558660254293198,-0.04705060579957655,-0.00031274143373596235
525,0.2007028616774032,0.09798729529728516,0.12538977257862682,-1.0775638338358429,0.23512512195299853,0.4987749701926157,0.7568502344522566,-0.04712035129895695,-0.0003138180977073816
526,0.2007028616774032,0.09798729529728516,0.12538977257862682,-1.0775638338358429,0.23512512195299853,0.4987749701926157,0.7568502344522566,-0.04712035129895695,-0.0003138180977073816
527,0.2007028616774032,0.09798729529728516,0.12538977257862682,-1.0775638338358429,0.23512512195299853,0.4987749701926157,0.7568502344522566,-0.04712035129895695,-0.0003138180977073816
528,0.2007028616774032,0.09798729529728516,0.12538977257862682,-1.0775638338358429,0.23512512195299853,0.4987749701926157,0.7568502344522566,-0.04712035129895695,-0.0003138180977073816
529,0.2004602655201078,0.09813696210154312,0.1268614001489411,-1.0764578372036213,0.23098990607416353,0.5012534442153161,0.7578114662601126,-0.047188796933816536,-0.00031489598124818734
530,0.2004602655201078,0.09813696210154312,0.1268614001489411,-1.0764578372036213,0.23098990607416353,0.5012534442153161,0.7578114662601126,-0.047188796933816536,-0.00031489598124818734
531,0.2004602655201078,0.09813696210154312,0.1268614001489411,-1.0764578372036213,0.23098990607416353,0.5012534442153161,0.7578114662601126,-0.047188796933816536,-0.00031489598124818734
532,0.2002024399109307,0.09829113127026734,0.12828943939761278,-1.0753001091571937,0.22693532611864592,0.5036277324821602,0.758702703172392,-0.04725293060936922,-0.00031597500284520825
533,0.2002024399109307,0.09829113127026734,0.12828943939761278,-1.0753001091571937,0.22693532611864592,0.5036277324821602,0.758702703172392,-0.04725293060936922,-0.00031597500284520825
534,0.2002024399109307,0.09829113127026734,0.12828943939761278,-1.0753001091571937,0.22693532611864592,0.5036277324821602,0.758702703172392,-0.04725293060936922,-0.00031597500284520825
535,0.2002024399109307,0.09829113127026734,0.12828943939761278,-1.0753001091571937,0.22693532611864592,0.5036277324821602,0.758702703172392,-0.04725293060936922,-0.00031597500284520825
536,0.19992136879868228,0.09845278285002822,0.12973942863234375,-1.0740614478591577,0.22278514498403307,0.5060152601571247,0.7595730630644955,-0.04731589944817946,-0.00031705507971748685
537,0.19992136879868228,0.09845278285002822,0.12973942863234375,-1.0740614478591577,0.22278514498403307,0.5060152601571247,0.7595730630644955,-0.04731589944817946,-0.00031705507971748685
538,0.19992136879868228,0.09845278285002822,0.12973942863234375,-1.0740614478591577,0.22278514498403307,0.5060152601571247,0.7595730630644955,-0.04731589944817946,-0.00031705507971748685
539,0.1996257858135067,0.09861902431880104,0.13114790557719308,-1.0727715471734116,0.21871005228525636,0.5083036280550792,0.7603760119169615,-0.04737471835375663,-0.00031813613302874905
540,0.1996257858135067,0.09861902431880104,0.13114790557719308,-1.0727715471734116,0.21871005228525636,0.5083036280550792,0.7603760119169615,-0.04737471835375663,-0.00031813613302874905
541,0.1996257858135067,0.09861902431880104,0.13114790557719308,-1.0727715471734116,0.21871005228525636,0.5083036280550792,0.7603760119169615,-0.04737471835375663,-0.00031813613302874905
542,0.19931585909440663,0.09878996667041255,0.13252170293486532,-1.0714300194298298,0.2146927882691832,0.5105063776569795,0.7611182068928025,-0.04742980803515433,-0.0003192180783483584
543,0.19931585909440663,0.09878996667041255,0.13252170293486532,-1.0714300194298298,0.2146927882691832,0.5105063776569795,0.7611182068928025,-0.04742980803515433,-0.0003192180783483584
544,0.19931585909440663,0.09878996667041255,0.13252170293486532,-1.0714300194298298,0.2146927882691832,0.5105063776569795,0.7611182068928025,-0.04742980803515433,-0.0003192180783483584
545,0.19899168532127723,0.09896568899543343,0.13386634960203087,-1.0700364380617822,0.2107193760552842,0.5126344957709547,0.7618050567104011,-0.04748151035642524,-0.00032030082697114145
546,0.19899168532127723,0.09896568899543343,0.13386634960203087,-1.0700364380617822,0.2107193760552842,0.5126344957709547,0.7618050567104011,-0.04748151035642524,-0.00032030082697114145
