tc-huang/low_cost_robot/line.csv
,x,y,z,j0,j1,j2,j3,j4,j5
0,0.008728,0.105265,0.053894,0,0,0,0,0,0
1,0.008728,0.105265,0.053894,0,0,0,0,0,0
2,0.008728,0.105265,0.053894,0,0,0,0,0,0
3,0.008728,0.105265,0.053894,0,0,0,0,0,0
4,0.008728,0.105265,0.053894,0,0,0,0,0,0
5,0.008728,0.105265,0.053894,0,0,0,0,0,0
6,0.008728,0.105265,0.053894,0,0,0,0,0,0
7,0.008728,0.105265,0.053894,0,0,0,0,0,0
8,0.008728,0.105265,0.053894,0,0,0,0,0,0
9,0.008728,0.105265,0.053894,0,0,0,0,0,0
10,0.008728,0.105265,0.053894,0,0,0,0,0,0
11,0.008728,0.105265,0.053894,0,0,0,0,0,0
12,0.008728,0.105265,0.053894,0,0,0,0,0,0
13,0.008728,0.105265,0.053894,0,0,0,0,0,0
14,0.008728,0.105265,0.053894,0,0,0,0,0,0
15,0.008728,0.105265,0.053894,0,0,0,0,0,0
16,0.008728,0.105265,0.053894,0,0,0,0,0,0
17,0.008728,0.105265,0.053894,0,0,0,0,0,0
18,0.008728,0.105265,0.053894,0,0,0,0,0,0
19,0.008728,0.105265,0.053894,0,0,0,0,0,0
20,0.008728,0.105265,0.053894,0,0,0,0,0,0
21,0.008728,0.105265,0.053894,0,0,0,0,0,0
22,0.008728,0.105265,0.053894,0,0,0,0,0,0
23,0.008728,0.105265,0.053894,0,0,0,0,0,0
24,0.008728,0.105265,0.053894,0,0,0,0,0,0
25,0.008728,0.105265,0.053894,0,0,0,0,0,0
26,0.008728,0.105265,0.053894,0,0,0,0,0,0
27,0.008728,0.105265,0.053894,0,0,0,0,0,0
28,0.008728,0.105265,0.053894,0,0,0,0,0,0
29,0.008728,0.105265,0.053894,0,0,0,0,0,0
30,0.008728,0.105265,0.053894,0,0,0,0,0,0
31,0.008728,0.105265,0.053894,0,0,0,0,0,0
32,0.008728,0.105265,0.053894,0,0,0,0,0,0
33,0.008728,0.105265,0.053894,0,0,0,0,0,0
34,0.008728,0.105265,0.053894,0,0,0,0,0,0
35,0.008728,0.105265,0.053894,0,0,0,0,0,0
36,0.008728,0.105265,0.053894,0,0,0,0,0,0
37,0.008728,0.105265,0.053894,0,0,0,0,0,0
38,0.008728,0.105265,0.053894,0,0,0,0,0,0
39,0.008728,0.105265,0.053894,0,0,0,0,0,0
40,0.008728,0.105265,0.053894,0,0,0,0,0,0
41,0.008728,0.105265,0.053894,0,0,0,0,0,0
42,0.008728,0.105265,0.053894,0,0,0,0,0,0
43,0.008728,0.105265,0.053894,0,0,0,0,0,0
44,0.008728,0.105265,0.053894,0,0,0,0,0,0
45,0.008728,0.105265,0.053894,0,0,0,0,0,0
46,0.008728,0.105265,0.053894,0,0,0,0,0,0
47,0.008728,0.105265,0.053894,0,0,0,0,0,0
48,0.008728,0.105265,0.053894,0,0,0,0,0,0
49,0.008728,0.105265,0.053894,0,0,0,0,0,0
50,0.008728,0.105265,0.053894,0,0,0,0,0,0
51,0.008728,0.105265,0.053894,0,0,0,0,0,0
52,0.008728,0.105265,0.053894,0,0,0,0,0,0
53,0.008728,0.105265,0.053894,0,0,0,0,0,0
54,0.008728,0.105265,0.053894,0,0,0,0,0,0
55,0.008728,0.105265,0.053894,0,0,0,0,0,0
56,0.008728,0.105265,0.053894,0,0,0,0,0,0
57,0.008728,0.105265,0.053894,0,0,0,0,0,0
58,0.008728,0.105265,0.053894,0,0,0,0,0,0
59,0.008728,0.105265,0.053894,0,0,0,0,0,0
60,0.008728,0.105265,0.053894,0,0,0,0,0,0
61,0.008728,0.105265,0.053894,0,0,0,0,0,0
62,0.008728,0.105265,0.053894,0,0,0,0,0,0
63,0.008728,0.105265,0.053894,0,0,0,0,0,0
64,0.008728,0.105265,0.053894,0,0,0,0,0,0
65,0.008728,0.105265,0.053894,0,0,0,0,0,0
66,0.008728,0.105265,0.053894,0,0,0,0,0,0
67,0.008728,0.105265,0.053894,0,0,0,0,0,0
68,0.008728,0.105265,0.053894,0,0,0,0,0,0
69,0.008728,0.105265,0.053894,0,0,0,0,0,0
70,0.008728,0.105265,0.053894,0,0,0,0,0,0
71,0.008728,0.105265,0.053894,0,0,0,0,0,0
72,0.008728,0.105265,0.053894,0,0,0,0,0,0
73,0.008728,0.105265,0.053894,0,0,0,0,0,0
74,0.008728,0.105265,0.053894,0,0,0,0,0,0
75,0.008728,0.105265,0.053894,0,0,0,0,0,0
76,0.008728,0.105265,0.053894,0,0,0,0,0,0
77,0.008728,0.105265,0.053894,0,0,0,0,0,0
78,0.008728,0.105265,0.053894,0,0,0,0,0,0
79,0.008728,0.105265,0.053894,0,0,0,0,0,0
80,0.008728,0.105265,0.053894,0,0,0,0,0,0
81,0.008728,0.105265,0.053894,0,0,0,0,0,0
82,0.008728,0.105265,0.053894,0,0,0,0,0,0
83,0.009005474,0.105400058,0.054226811,-0.002632285,-0.001892526,0.001472152,-7.59E-05,5.90E-06,-6.94E-08
84,0.009005474,0.105400058,0.054226811,-0.002632285,-0.001892526,0.001472152,-7.59E-05,5.90E-06,-6.94E-08
85,0.009284296,0.105528186,0.054548352,-0.005270346,-0.003725868,0.002880266,-0.000133505,1.07E-05,-2.56E-07
86,0.009284296,0.105528186,0.054548352,-0.005270346,-0.003725868,0.002880266,-0.000133505,1.07E-05,-2.56E-07
87,0.009284296,0.105528186,0.054548352,-0.005270346,-0.003725868,0.002880266,-0.000133505,1.07E-05,-2.56E-07
88,0.009567705,0.105651669,0.054864055,-0.007945092,-0.005524714,0.00425613,-0.000181935,1.47E-05,-5.19E-07
89,0.009567705,0.105651669,0.054864055,-0.007945092,-0.005524714,0.00425613,-0.000181935,1.47E-05,-5.19E-07
90,0.009852186,0.105769578,0.055170681,-0.010623578,-0.007268233,0.005588954,-0.000221858,1.79E-05,-8.33E-07
91,0.009852186,0.105769578,0.055170681,-0.010623578,-0.007268233,0.005588954,-0.000221858,1.79E-05,-8.33E-07
92,0.010137662,0.105882706,0.055469148,-0.013305343,-0.008960022,0.006885237,-0.000253298,2.03E-05,-1.19E-06
93,0.010137662,0.105882706,0.055469148,-0.013305343,-0.008960022,0.006885237,-0.000253298,2.03E-05,-1.19E-06
94,0.010137662,0.105882706,0.055469148,-0.013305343,-0.008960022,0.006885237,-0.000253298,2.03E-05,-1.19E-06
95,0.010427435,0.105993465,0.055764463,-0.016021457,-0.010626517,0.008169307,-0.000276259,2.20E-05,-1.57E-06
96,0.010427435,0.105993465,0.055764463,-0.016021457,-0.010626517,0.008169307,-0.000276259,2.20E-05,-1.57E-06
97,0.010717984,0.106100675,0.05605298,-0.018738984,-0.012247022,0.009425734,-0.000289397,2.30E-05,-1.98E-06
98,0.010717984,0.106100675,0.05605298,-0.018738984,-0.012247022,0.009425734,-0.000289397,2.30E-05,-1.98E-06
99,0.010717984,0.106100675,0.05605298,-0.018738984,-0.012247022,0.009425734,-0.000289397,2.30E-05,-1.98E-06
100,0.011012655,0.106206585,0.056339607,-0.021489139,-0.013847728,0.010677664,-0.000292469,2.32E-05,-2.42E-06
101,0.011012655,0.106206585,0.056339607,-0.021489139,-0.013847728,0.010677664,-0.000292469,2.32E-05,-2.42E-06
102,0.011307914,0.106309831,0.056620519,-0.024239003,-0.015407558,0.011908239,-0.000284653,2.26E-05,-2.88E-06
103,0.011307914,0.106309831,0.056620519,-0.024239003,-0.015407558,0.011908239,-0.000284653,2.26E-05,-2.88E-06
104,0.011603725,0.106410796,0.056896277,-0.026988316,-0.016929467,0.013120361,-0.000265746,2.12E-05,-3.36E-06
105,0.011603725,0.106410796,0.056896277,-0.026988316,-0.016929467,0.013120361,-0.000265746,2.12E-05,-3.36E-06
106,0.011603725,0.106410796,0.056896277,-0.026988316,-0.016929467,0.013120361,-0.000265746,2.12E-05,-3.36E-06
107,0.011903492,0.10651157,0.057171695,-0.029768473,-0.018439135,0.014336284,-0.000235327,1.90E-05,-3.86E-06
108,0.011903492,0.10651157,0.057171695,-0.029768473,-0.018439135,0.014336284,-0.000235327,1.90E-05,-3.86E-06
109,0.012203657,0.106610592,0.057442728,-0.032546545,-0.019914869,0.015537631,-0.000193296,1.61E-05,-4.38E-06
110,0.012203657,0.106610592,0.057442728,-0.032546545,-0.019914869,0.015537631,-0.000193296,1.61E-05,-4.38E-06
111,0.012504198,0.10670811,0.057709805,-0.035322354,-0.021359094,0.016726386,-0.00013964,1.24E-05,-4.91E-06
112,0.012504198,0.10670811,0.057709805,-0.035322354,-0.021359094,0.016726386,-0.00013964,1.24E-05,-4.91E-06
113,0.012504198,0.10670811,0.057709805,-0.035322354,-0.021359094,0.016726386,-0.00013964,1.24E-05,-4.91E-06
114,0.012808567,0.106806128,0.057977693,-0.038127441,-0.02279702,0.017924411,-7.36E-05,7.86E-06,-5.46E-06
115,0.012808567,0.106806128,0.057977693,-0.038127441,-0.02279702,0.017924411,-7.36E-05,7.86E-06,-5.46E-06
116,0.013113176,0.106902955,0.058242163,-0.040928854,-0.024206406,0.019112226,4.21E-06,2.55E-06,-6.02E-06
117,0.013113176,0.106902955,0.058242163,-0.040928854,-0.024206406,0.019112226,4.21E-06,2.55E-06,-6.02E-06
118,0.013418013,0.106998755,0.058503549,-0.043726475,-0.025589225,0.020291237,9.38E-05,-3.53E-06,-6.59E-06
119,0.013418013,0.106998755,0.058503549,-0.043726475,-0.025589225,0.020291237,9.38E-05,-3.53E-06,-6.59E-06
120,0.013418013,0.106998755,0.058503549,-0.043726475,-0.025589225,0.020291237,9.38E-05,-3.53E-06,-6.59E-06
121,0.013726576,0.107095493,0.058766601,-0.046551969,-0.02697029,0.021483188,0.000196311,-1.04E-05,-7.17E-06
122,0.013726576,0.107095493,0.058766601,-0.046551969,-0.02697029,0.021483188,0.000196311,-1.04E-05,-7.17E-06
123,0.014035244,0.107191382,0.059026934,-0.049372351,-0.0283269,0.022667737,0.000310641,-1.81E-05,-7.76E-06
124,0.014035244,0.107191382,0.059026934,-0.049372351,-0.0283269,0.022667737,0.000310641,-1.81E-05,-7.76E-06
125,0.01434401,0.107286538,0.059284811,-0.052187554,-0.029660658,0.023845908,0.000436691,-2.65E-05,-8.36E-06
126,0.01434401,0.107286538,0.059284811,-0.052187554,-0.029660658,0.023845908,0.000436691,-2.65E-05,-8.36E-06
127,0.01434401,0.107286538,0.059284811,-0.052187554,-0.029660658,0.023845908,0.000436691,-2.65E-05,-8.36E-06
128,0.014656417,0.107382905,0.059544988,-0.055029366,-0.030996059,0.025039494,0.000575976,-3.58E-05,-8.97E-06
129,0.014656417,0.107382905,0.059544988,-0.055029366,-0.030996059,0.025039494,0.000575976,-3.58E-05,-8.97E-06
130,0.014968808,0.107478628,0.059802943,-0.057864761,-0.032310027,0.026227438,0.000726975,-4.59E-05,-9.59E-06
131,0.014968808,0.107478628,0.059802943,-0.057864761,-0.032310027,0.026227438,0.000726975,-4.59E-05,-9.59E-06
132,0.015281182,0.107573788,0.060058886,-0.060693715,-0.033603869,0.027410509,0.000889542,-5.67E-05,-1.02E-05
133,0.015281182,0.107573788,0.060058886,-0.060693715,-0.033603869,0.027410509,0.000889542,-5.67E-05,-1.02E-05
134,0.015281182,0.107573788,0.060058886,-0.060693715,-0.033603869,0.027410509,0.000889542,-5.67E-05,-1.02E-05
135,0.015597126,0.107670326,0.060317595,-0.063548126,-0.034901838,0.028610647,0.001065627,-6.83E-05,-1.09E-05
136,0.015597126,0.107670326,0.060317595,-0.063548126,-0.034901838,0.028610647,0.001065627,-6.83E-05,-1.09E-05
137,0.015912943,0.107766332,0.060574426,-0.066394919,-0.036180553,0.029806177,0.001253222,-8.07E-05,-1.15E-05
138,0.015912943,0.107766332,0.060574426,-0.066394919,-0.036180553,0.029806177,0.001253222,-8.07E-05,-1.15E-05
139,0.016228635,0.107861865,0.06082955,-0.069234108,-0.037441096,0.030997694,0.00145217,-9.38E-05,-1.21E-05
140,0.016228635,0.107861865,0.06082955,-0.069234108,-0.037441096,0.030997694,0.00145217,-9.38E-05,-1.21E-05
141,0.016228635,0.107861865,0.06082955,-0.069234108,-0.037441096,0.030997694,0.00145217,-9.38E-05,-1.21E-05
142,0.016547834,0.10795887,0.061087782,-0.072097696,-0.038707534,0.032207351,0.001664866,-0.000107835,-1.28E-05
143,0.016547834,0.10795887,0.061087782,-0.072097696,-0.038707534,0.032207351,0.001664866,-0.000107835,-1.28E-05
144,0.016866802,0.108055392,0.061344364,-0.074952556,-0.039956245,0.033412924,0.001888819,-0.000122564,-1.34E-05
145,0.016866802,0.108055392,0.061344364,-0.074952556,-0.039956245,0.033412924,0.001888819,-0.000122564,-1.34E-05
146,0.016866802,0.108055392,0.061344364,-0.074952556,-0.039956245,0.033412924,0.001888819,-0.000122564,-1.34E-05
147,0.017189202,0.108153384,0.061604145,-0.07783077,-0.041211227,0.034636753,0.002126717,-0.000138187,-1.41E-05
148,0.017189202,0.108153384,0.061604145,-0.07783077,-0.041211227,0.034636753,0.002126717,-0.000138187,-1.41E-05
149,0.017511267,0.108250867,0.061862299,-0.080699186,-0.042448753,0.035856288,0.00237574,-0.000154527,-1.48E-05
150,0.017511267,0.108250867,0.061862299,-0.080699186,-0.042448753,0.035856288,0.00237574,-0.000154527,-1.48E-05
151,0.017833006,0.108347879,0.062118958,-0.083557882,-0.043669668,0.037071957,0.002635715,-0.000171572,-1.54E-05
152,0.017833006,0.108347879,0.062118958,-0.083557882,-0.043669668,0.037071957,0.002635715,-0.000171572,-1.54E-05
153,0.017833006,0.108347879,0.062118958,-0.083557882,-0.043669668,0.037071957,0.002635715,-0.000171572,-1.54E-05
154,0.018158127,0.108446384,0.062379025,-0.086439045,-0.04489786,0.038306384,0.002909784,-0.000189521,-1.61E-05
155,0.018158127,0.108446384,0.062379025,-0.086439045,-0.04489786,0.038306384,0.002909784,-0.000189521,-1.61E-05
156,0.01848282,0.108544369,0.06263757,-0.089309463,-0.046109435,0.039536533,0.003194643,-0.000208166,-1.68E-05
157,0.01848282,0.108544369,0.06263757,-0.089309463,-0.046109435,0.039536533,0.003194643,-0.000208166,-1.68E-05
158,0.01848282,0.108544369,0.06263757,-0.089309463,-0.046109435,0.039536533,0.003194643,-0.000208166,-1.68E-05
159,0.018810824,0.108643806,0.06289954,-0.092201399,-0.047328252,0.040785249,0.003493732,-0.000227724,-1.75E-05
160,0.018810824,0.108643806,0.06289954,-0.092201399,-0.047328252,0.040785249,0.003493732,-0.000227724,-1.75E-05
161,0.019138301,0.108742667,0.063159944,-0.095081614,-0.048530353,0.042029206,0.003803418,-0.000247967,-1.82E-05
162,0.019138301,0.108742667,0.063159944,-0.095081614,-0.048530353,0.042029206,0.003803418,-0.000247967,-1.82E-05
163,0.019138301,0.108742667,0.063159944,-0.095081614,-0.048530353,0.042029206,0.003803418,-0.000247967,-1.82E-05
164,0.019469023,0.108842935,0.063423777,-0.09798245,-0.049739583,0.043291482,0.004127441,-0.00026913,-1.88E-05
165,0.019469023,0.108842935,0.063423777,-0.09798245,-0.049739583,0.043291482,0.004127441,-0.00026913,-1.88E-05
166,0.019799121,0.108942562,0.063685985,-0.100870638,-0.050931932,0.044548468,0.004461839,-0.000290963,-1.95E-05
167,0.019799121,0.108942562,0.063685985,-0.100870638,-0.050931932,0.044548468,0.004461839,-0.000290963,-1.95E-05
168,0.019799121,0.108942562,0.063685985,-0.100870638,-0.050931932,0.044548468,0.004461839,-0.000290963,-1.95E-05
169,0.020132399,0.109043544,0.063951611,-0.103778597,-0.052131236,0.04582348,0.004810653,-0.000313722,-2.02E-05
170,0.020132399,0.109043544,0.063951611,-0.103778597,-0.052131236,0.04582348,0.004810653,-0.000313722,-2.02E-05
171,0.02046496,0.10914382,0.064215545,-0.10667303,-0.053313444,0.047092638,0.00516959,-0.000337136,-2.09E-05
172,0.02046496,0.10914382,0.064215545,-0.10667303,-0.053313444,0.047092638,0.00516959,-0.000337136,-2.09E-05
173,0.02046496,0.10914382,0.064215545,-0.10667303,-0.053313444,0.047092638,0.00516959,-0.000337136,-2.09E-05
174,0.020800639,0.109245394,0.064482879,-0.10958643,-0.054502391,0.048379499,0.005542999,-0.00036148,-2.16E-05
175,0.020800639,0.109245394,0.064482879,-0.10958643,-0.054502391,0.048379499,0.005542999,-0.00036148,-2.16E-05
176,0.021135508,0.109346194,0.064748442,-0.112485471,-0.055673994,0.049659918,0.005926255,-0.000386462,-2.23E-05
177,0.021135508,0.109346194,0.064748442,-0.112485471,-0.055673994,0.049659918,0.005926255,-0.000386462,-2.23E-05
178,0.021135508,0.109346194,0.064748442,-0.112485471,-0.055673994,0.049659918,0.005926255,-0.000386462,-2.23E-05
179,0.021473438,0.109448233,0.065017382,-0.115402725,-0.056852094,0.050957698,0.006324014,-0.000412376,-2.30E-05
180,0.021473438,0.109448233,0.065017382,-0.115402725,-0.056852094,0.050957698,0.006324014,-0.000412376,-2.30E-05
181,0.021810467,0.109549427,0.065284467,-0.118304832,-0.058012581,0.052248435,0.006731319,-0.000438909,-2.37E-05
182,0.021810467,0.109549427,0.065284467,-0.118304832,-0.058012581,0.052248435,0.006731319,-0.000438909,-2.37E-05
183,0.021810467,0.109549427,0.065284467,-0.118304832,-0.058012581,0.052248435,0.006731319,-0.000438909,-2.37E-05
184,0.0221505,0.109651802,0.0655549,-0.121224438,-0.059179304,0.053556182,0.007153138,-0.000466376,-2.44E-05
185,0.0221505,0.109651802,0.0655549,-0.121224438,-0.059179304,0.053556182,0.007153138,-0.000466376,-2.44E-05
186,0.0221505,0.109651802,0.0655549,-0.121224438,-0.059179304,0.053556182,0.007153138,-0.000466376,-2.44E-05
187,0.022493444,0.109755261,0.065828514,-0.124160563,-0.060351291,0.054880082,0.007589504,-0.000494778,-2.51E-05
188,0.022493444,0.109755261,0.065828514,-0.124160563,-0.060351291,0.054880082,0.007589504,-0.000494778,-2.51E-05
189,0.02283529,0.109857708,0.066099997,-0.127079822,-0.061504451,0.056195382,0.008034955,-0.00052377,-2.58E-05
190,0.02283529,0.109857708,0.066099997,-0.127079822,-0.061504451,0.056195382,0.008034955,-0.00052377,-2.58E-05
191,0.02283529,0.109857708,0.066099997,-0.127079822,-0.061504451,0.056195382,0.008034955,-0.00052377,-2.58E-05
192,0.023179998,0.109961185,0.066374645,-0.130014991,-0.0626627,0.057526548,0.008494921,-0.000553695,-2.65E-05
193,0.023179998,0.109961185,0.066374645,-0.130014991,-0.0626627,0.057526548,0.008494921,-0.000553695,-2.65E-05
194,0.023523527,0.110063587,0.066647086,-0.132932648,-0.063801933,0.058848574,0.008963607,-0.000584189,-2.72E-05
195,0.023523527,0.110063587,0.066647086,-0.132932648,-0.063801933,0.058848574,0.008963607,-0.000584189,-2.72E-05
196,0.023523527,0.110063587,0.066647086,-0.132932648,-0.063801933,0.058848574,0.008963607,-0.000584189,-2.72E-05
197,0.023869871,0.110166965,0.066922673,-0.135865645,-0.064946075,0.06018618,0.009446761,-0.000615613,-2.79E-05
198,0.023869871,0.110166965,0.066922673,-0.135865645,-0.064946075,0.06018618,0.009446761,-0.000615613,-2.79E-05
199,0.023869871,0.110166965,0.066922673,-0.135865645,-0.064946075,0.06018618,0.009446761,-0.000615613,-2.79E-05
200,0.024218936,0.110271224,0.067201236,-0.138813055,-0.066094167,0.061538504,0.009944367,-0.000647966,-2.86E-05
201,0.024218936,0.110271224,0.067201236,-0.138813055,-0.066094167,0.061538504,0.009944367,-0.000647966,-2.86E-05
202,0.024566636,0.11037425,0.067477321,-0.141741427,-0.067222138,0.062880202,0.010450126,-0.000680852,-2.93E-05
203,0.024566636,0.11037425,0.067477321,-0.141741427,-0.067222138,0.062880202,0.010450126,-0.000680852,-2.93E-05
204,0.024566636,0.11037425,0.067477321,-0.141741427,-0.067222138,0.062880202,0.010450126,-0.000680852,-2.93E-05
205,0.024917019,0.110478111,0.06775638,-0.144683739,-0.068353983,0.064236412,0.010970259,-0.000714663,-3.01E-05
206,0.024917019,0.110478111,0.06775638,-0.144683739,-0.068353983,0.064236412,0.010970259,-0.000714663,-3.01E-05
207,0.024917019,0.110478111,0.06775638,-0.144683739,-0.068353983,0.064236412,0.010970259,-0.000714663,-3.01E-05
208,0.025269992,0.110582713,0.068038244,-0.147639104,-0.069488773,0.065606286,0.01150472,-0.000749396,-3.08E-05
209,0.025269992,0.110582713,0.068038244,-0.147639104,-0.069488773,0.065606286,0.01150472,-0.000749396,-3.08E-05
210,0.025269992,0.110582713,0.068038244,-0.147639104,-0.069488773,0.065606286,0.01150472,-0.000749396,-3.08E-05
211,0.025625467,0.110687963,0.068322753,-0.15060666,-0.070625629,0.066989005,0.012053454,-0.000785048,-3.15E-05
212,0.025625467,0.110687963,0.068322753,-0.15060666,-0.070625629,0.066989005,0.012053454,-0.000785048,-3.15E-05
213,0.025979293,0.110791745,0.068604348,-0.153552925,-0.071740564,0.068358814,0.012609485,-0.000821178,-3.22E-05
214,0.025979293,0.110791745,0.068604348,-0.153552925,-0.071740564,0.068358814,0.012609485,-0.000821178,-3.22E-05
215,0.025979293,0.110791745,0.068604348,-0.153552925,-0.071740564,0.068358814,0.012609485,-0.000821178,-3.22E-05
216,0.026335595,0.110896147,0.068888617,-0.156511064,-0.072857688,0.069741425,0.013179675,-0.000858219,-3.29E-05
217,0.026335595,0.110896147,0.068888617,-0.156511064,-0.072857688,0.069741425,0.013179675,-0.000858219,-3.29E-05
218,0.026335595,0.110896147,0.068888617,-0.156511064,-0.072857688,0.069741425,0.013179675,-0.000858219,-3.29E-05
219,0.026694283,0.111001078,0.069175402,-0.159480247,-0.073976145,0.071136034,0.01376394,-0.000896167,-3.36E-05
220,0.026694283,0.111001078,0.069175402,-0.159480247,-0.073976145,0.071136034,0.01376394,-0.000896167,-3.36E-05
221,0.026694283,0.111001078,0.069175402,-0.159480247,-0.073976145,0.071136034,0.01376394,-0.000896167,-3.36E-05
222,0.027055271,0.111106453,0.06946455,-0.162459673,-0.075095125,0.072541868,0.014362191,-0.000935016,-3.43E-05
223,0.027055271,0.111106453,0.06946455,-0.162459673,-0.075095125,0.072541868,0.014362191,-0.000935016,-3.43E-05
224,0.027055271,0.111106453,0.06946455,-0.162459673,-0.075095125,0.072541868,0.014362191,-0.000935016,-3.43E-05
225,0.027418475,0.111212188,0.069755915,-0.165448566,-0.076213863,0.073958184,0.014974326,-0.000974759,-3.50E-05
226,0.027418475,0.111212188,0.069755915,-0.165448566,-0.076213863,0.073958184,0.014974326,-0.000974759,-3.50E-05
227,0.027779665,0.111316171,0.070043805,-0.168413414,-0.077308503,0.07535873,0.015592527,-0.001014903,-3.57E-05
228,0.027779665,0.111316171,0.070043805,-0.168413414,-0.077308503,0.07535873,0.015592527,-0.001014903,-3.57E-05
229,0.027779665,0.111316171,0.070043805,-0.168413414,-0.077308503,0.07535873,0.015592527,-0.001014903,-3.57E-05
230,0.028143063,0.111420509,0.07033399,-0.171387613,-0.078403304,0.076769949,0.016224471,-0.001055932,-3.65E-05
231,0.028143063,0.111420509,0.07033399,-0.171387613,-0.078403304,0.076769949,0.016224471,-0.001055932,-3.65E-05
232,0.028143063,0.111420509,0.07033399,-0.171387613,-0.078403304,0.076769949,0.016224471,-0.001055932,-3.65E-05
233,0.028508586,0.111525119,0.070626323,-0.174370414,-0.079497508,0.078191102,0.016870039,-0.001097839,-3.72E-05
234,0.028508586,0.111525119,0.070626323,-0.174370414,-0.079497508,0.078191102,0.016870039,-0.001097839,-3.72E-05
235,0.028508586,0.111525119,0.070626323,-0.174370414,-0.079497508,0.078191102,0.016870039,-0.001097839,-3.72E-05
236,0.028876151,0.111629924,0.070920664,-0.177361092,-0.080590406,0.079621482,0.017529104,-0.001140616,-3.79E-05
237,0.028876151,0.111629924,0.070920664,-0.177361092,-0.080590406,0.079621482,0.017529104,-0.001140616,-3.79E-05
238,0.028876151,0.111629924,0.070920664,-0.177361092,-0.080590406,0.079621482,0.017529104,-0.001140616,-3.79E-05
239,0.029245678,0.111734847,0.071216879,-0.18035895,-0.081681326,0.081060414,0.01820153,-0.001184254,-3.86E-05
240,0.029245678,0.111734847,0.071216879,-0.18035895,-0.081681326,0.081060414,0.01820153,-0.001184254,-3.86E-05
241,0.029245678,0.111734847,0.071216879,-0.18035895,-0.081681326,0.081060414,0.01820153,-0.001184254,-3.86E-05
242,0.029617091,0.111839817,0.071514842,-0.183363311,-0.082769639,0.08250725,0.018887176,-0.001228745,-3.93E-05
243,0.029617091,0.111839817,0.071514842,-0.183363311,-0.082769639,0.08250725,0.018887176,-0.001228745,-3.93E-05
244,0.029617091,0.111839817,0.071514842,-0.183363311,-0.082769639,0.08250725,0.018887176,-0.001228745,-3.93E-05
245,0.029990314,0.111944765,0.071814431,-0.186373524,-0.083854753,0.083961375,0.019585896,-0.001274079,-4.00E-05
246,0.029990314,0.111944765,0.071814431,-0.186373524,-0.083854753,0.083961375,0.019585896,-0.001274079,-4.00E-05
247,0.029990314,0.111944765,0.071814431,-0.186373524,-0.083854753,0.083961375,0.019585896,-0.001274079,-4.00E-05
248,0.030365272,0.112049625,0.072115531,-0.189388963,-0.084936115,0.085422201,0.020297536,-0.001320246,-4.07E-05
249,0.030365272,0.112049625,0.072115531,-0.189388963,-0.084936115,0.085422201,0.020297536,-0.001320246,-4.07E-05
250,0.030365272,0.112049625,0.072115531,-0.189388963,-0.084936115,0.085422201,0.020297536,-0.001320246,-4.07E-05
251,0.030741893,0.112154335,0.072418032,-0.192409022,-0.086013204,0.086889165,0.021021938,-0.001367237,-4.15E-05
252,0.030741893,0.112154335,0.072418032,-0.192409022,-0.086013204,0.086889165,0.021021938,-0.001367237,-4.15E-05
253,0.030741893,0.112154335,0.072418032,-0.192409022,-0.086013204,0.086889165,0.021021938,-0.001367237,-4.15E-05
254,0.031120109,0.112258833,0.072721831,-0.195433117,-0.087085535,0.088361734,0.021758942,-0.001415041,-4.22E-05
255,0.031120109,0.112258833,0.072721831,-0.195433117,-0.087085535,0.088361734,0.021758942,-0.001415041,-4.22E-05
256,0.031120109,0.112258833,0.072721831,-0.195433117,-0.087085535,0.088361734,0.021758942,-0.001415041,-4.22E-05
257,0.03149985,0.112363063,0.073026827,-0.198460688,-0.088152653,0.089839398,0.02250838,-0.001463647,-4.29E-05
258,0.03149985,0.112363063,0.073026827,-0.198460688,-0.088152653,0.089839398,0.02250838,-0.001463647,-4.29E-05
259,0.03149985,0.112363063,0.073026827,-0.198460688,-0.088152653,0.089839398,0.02250838,-0.001463647,-4.29E-05
260,0.03188105,0.112466971,0.073332927,-0.201491195,-0.089214136,0.09132167,0.023270085,-0.001513046,-4.36E-05
261,0.03188105,0.112466971,0.073332927,-0.201491195,-0.089214136,0.09132167,0.023270085,-0.001513046,-4.36E-05
262,0.03188105,0.112466971,0.073332927,-0.201491195,-0.089214136,0.09132167,0.023270085,-0.001513046,-4.36E-05
263,0.032263645,0.112570504,0.073640041,-0.204524117,-0.090269589,0.09280809,0.024043883,-0.001563226,-4.43E-05
264,0.032263645,0.112570504,0.073640041,-0.204524117,-0.090269589,0.09280809,0.024043883,-0.001563226,-4.43E-05
265,0.032263645,0.112570504,0.073640041,-0.204524117,-0.090269589,0.09280809,0.024043883,-0.001563226,-4.43E-05
266,0.032647571,0.112673612,0.073948084,-0.207558957,-0.091318646,0.094298218,0.024829602,-0.001614176,-4.50E-05
267,0.032647571,0.112673612,0.073948084,-0.207558957,-0.091318646,0.094298218,0.024829602,-0.001614176,-4.50E-05
268,0.032647571,0.112673612,0.073948084,-0.207558957,-0.091318646,0.094298218,0.024829602,-0.001614176,-4.50E-05
269,0.033032769,0.112776249,0.074256977,-0.210595234,-0.092360968,0.095791636,0.025627064,-0.001665885,-4.57E-05
270,0.033032769,0.112776249,0.074256977,-0.210595234,-0.092360968,0.095791636,0.025627064,-0.001665885,-4.57E-05
271,0.033032769,0.112776249,0.074256977,-0.210595234,-0.092360968,0.095791636,0.025627064,-0.001665885,-4.57E-05
272,0.033419178,0.112878369,0.074566643,-0.213632488,-0.093396241,0.09728795,0.026436092,-0.001718341,-4.65E-05
273,0.033419178,0.112878369,0.074566643,-0.213632488,-0.093396241,0.09728795,0.026436092,-0.001718341,-4.65E-05
274,0.033419178,0.112878369,0.074566643,-0.213632488,-0.093396241,0.09728795,0.026436092,-0.001718341,-4.65E-05
275,0.033806742,0.112979931,0.074877009,-0.216670278,-0.094424174,0.098786782,0.027256508,-0.001771534,-4.72E-05
276,0.033806742,0.112979931,0.074877009,-0.216670278,-0.094424174,0.098786782,0.027256508,-0.001771534,-4.72E-05
277,0.033806742,0.112979931,0.074877009,-0.216670278,-0.094424174,0.098786782,0.027256508,-0.001771534,-4.72E-05
278,0.034195404,0.113080894,0.075188008,-0.21970818,-0.095444501,0.100287776,0.028088131,-0.001825452,-4.79E-05
279,0.034195404,0.113080894,0.075188008,-0.21970818,-0.095444501,0.100287776,0.028088131,-0.001825452,-4.79E-05
280,0.034195404,0.113080894,0.075188008,-0.21970818,-0.095444501,0.100287776,0.028088131,-0.001825452,-4.79E-05
281,0.034585111,0.11318122,0.075499574,-0.22274579,-0.096456976,0.101790594,0.028930782,-0.001880083,-4.86E-05
282,0.034585111,0.11318122,0.075499574,-0.22274579,-0.096456976,0.101790594,0.028930782,-0.001880083,-4.86E-05
283,0.034585111,0.11318122,0.075499574,-0.22274579,-0.096456976,0.101790594,0.028930782,-0.001880083,-4.86E-05
284,0.034975809,0.113280872,0.075811648,-0.225782719,-0.097461375,0.103294917,0.029784281,-0.001935416,-4.93E-05
285,0.034975809,0.113280872,0.075811648,-0.225782719,-0.097461375,0.103294917,0.029784281,-0.001935416,-4.93E-05
286,0.034975809,0.113280872,0.075811648,-0.225782719,-0.097461375,0.103294917,0.029784281,-0.001935416,-4.93E-05
287,0.034975809,0.113280872,0.075811648,-0.225782719,-0.097461375,0.103294917,0.029784281,-0.001935416,-4.93E-05
288,0.035371946,0.113381796,0.076130348,-0.228851787,-0.098480424,0.104828163,0.030659398,-0.001992131,-5.00E-05
289,0.035371946,0.113381796,0.076130348,-0.228851787,-0.098480424,0.104828163,0.030659398,-0.001992131,-5.00E-05
290,0.035371946,0.113381796,0.076130348,-0.228851787,-0.098480424,0.104828163,0.030659398,-0.001992131,-5.00E-05
291,0.035768783,0.113481805,0.076449003,-0.231917941,-0.099488955,0.106360376,0.031544664,-0.002049504,-5.07E-05
292,0.035768783,0.113481805,0.076449003,-0.231917941,-0.099488955,0.106360376,0.031544664,-0.002049504,-5.07E-05
293,0.035768783,0.113481805,0.076449003,-0.231917941,-0.099488955,0.106360376,0.031544664,-0.002049504,-5.07E-05
294,0.036166279,0.113580879,0.07676759,-0.234980903,-0.100486944,0.107891409,0.032439906,-0.002107523,-5.14E-05
295,0.036166279,0.113580879,0.07676759,-0.234980903,-0.100486944,0.107891409,0.032439906,-0.002107523,-5.14E-05
296,0.036166279,0.113580879,0.07676759,-0.234980903,-0.100486944,0.107891409,0.032439906,-0.002107523,-5.14E-05
297,0.036564395,0.113679001,0.077086088,-0.238040408,-0.101474377,0.109421124,0.03334495,-0.002166179,-5.22E-05
298,0.036564395,0.113679001,0.077086088,-0.238040408,-0.101474377,0.109421124,0.03334495,-0.002166179,-5.22E-05
299,0.036564395,0.113679001,0.077086088,-0.238040408,-0.101474377,0.109421124,0.03334495,-0.002166179,-5.22E-05
300,0.036963094,0.113776154,0.077404476,-0.241096206,-0.102451245,0.110949391,0.034259627,-0.00222546,-5.29E-05
301,0.036963094,0.113776154,0.077404476,-0.241096206,-0.102451245,0.110949391,0.034259627,-0.00222546,-5.29E-05
302,0.036963094,0.113776154,0.077404476,-0.241096206,-0.102451245,0.110949391,0.034259627,-0.00222546,-5.29E-05
303,0.036963094,0.113776154,0.077404476,-0.241096206,-0.102451245,0.110949391,0.034259627,-0.00222546,-5.29E-05
304,0.037366925,0.11387427,0.077729075,-0.244181344,-0.103440392,0.11250432,0.035195533,-0.002286097,-5.36E-05
305,0.037366925,0.11387427,0.077729075,-0.244181344,-0.103440392,0.11250432,0.035195533,-0.002286097,-5.36E-05
306,0.037366925,0.11387427,0.077729075,-0.244181344,-0.103440392,0.11250432,0.035195533,-0.002286097,-5.36E-05
307,0.037771064,0.113971206,0.078053061,-0.247260763,-0.104416864,0.114055516,0.036140328,-0.002347312,-5.43E-05
308,0.037771064,0.113971206,0.078053061,-0.247260763,-0.104416864,0.114055516,0.036140328,-0.002347312,-5.43E-05
309,0.037771064,0.113971206,0.078053061,-0.247260763,-0.104416864,0.114055516,0.036140328,-0.002347312,-5.43E-05
310,0.038175487,0.11406696,0.078376449,-0.250334314,-0.105380828,0.115603006,0.037093854,-0.002409095,-5.50E-05
311,0.038175487,0.11406696,0.078376449,-0.250334314,-0.105380828,0.115603006,0.037093854,-0.002409095,-5.50E-05
312,0.038175487,0.11406696,0.078376449,-0.250334314,-0.105380828,0.115603006,0.037093854,-0.002409095,-5.50E-05
313,0.038580167,0.114161531,0.078699253,-0.253401856,-0.106332445,0.117146816,0.038055961,-0.002471437,-5.57E-05
314,0.038580167,0.114161531,0.078699253,-0.253401856,-0.106332445,0.117146816,0.038055961,-0.002471437,-5.57E-05
315,0.038580167,0.114161531,0.078699253,-0.253401856,-0.106332445,0.117146816,0.038055961,-0.002471437,-5.57E-05
316,0.038580167,0.114161531,0.078699253,-0.253401856,-0.106332445,0.117146816,0.038055961,-0.002471437,-5.57E-05
317,0.038989737,0.114256835,0.079027956,-0.256496614,-0.107294639,0.118715598,0.039038914,-0.00253511,-5.64E-05
318,0.038989737,0.114256835,0.079027956,-0.256496614,-0.107294639,0.118715598,0.039038914,-0.00253511,-5.64E-05
319,0.038989737,0.114256835,0.079027956,-0.256496614,-0.107294639,0.118715598,0.039038914,-0.00253511,-5.64E-05
320,0.039399306,0.11435077,0.079355612,-0.259583532,-0.108242634,0.120278622,0.040029681,-0.002599294,-5.71E-05
321,0.039399306,0.11435077,0.079355612,-0.259583532,-0.108242634,0.120278622,0.040029681,-0.002599294,-5.71E-05
322,0.039399306,0.11435077,0.079355612,-0.259583532,-0.108242634,0.120278622,0.040029681,-0.002599294,-5.71E-05
323,0.039808862,0.114443348,0.079682267,-0.262662562,-0.109176744,0.121836054,0.041028131,-0.00266398,-5.79E-05
324,0.039808862,0.114443348,0.079682267,-0.262662562,-0.109176744,0.121836054,0.041028131,-0.00266398,-5.79E-05
325,0.039808862,0.114443348,0.079682267,-0.262662562,-0.109176744,0.121836054,0.041028131,-0.00266398,-5.79E-05
326,0.039808862,0.114443348,0.079682267,-0.262662562,-0.109176744,0.121836054,0.041028131,-0.00266398,-5.79E-05
327,0.040223099,0.114536472,0.080014532,-0.265767071,-0.110119967,0.123416972,0.042047037,-0.002729972,-5.86E-05
328,0.040223099,0.114536472,0.080014532,-0.265767071,-0.110119967,0.123416972,0.042047037,-0.002729972,-5.86E-05
329,0.040223099,0.114536472,0.080014532,-0.265767071,-0.110119967,0.123416972,0.042047037,-0.002729972,-5.86E-05
330,0.040637079,0.114628074,0.080345373,-0.268862014,-0.111047687,0.124990417,0.043072859,-0.002796418,-5.93E-05
331,0.040637079,0.114628074,0.080345373,-0.268862014,-0.111047687,0.124990417,0.043072859,-0.002796418,-5.93E-05
332,0.040637079,0.114628074,0.080345373,-0.268862014,-0.111047687,0.124990417,0.043072859,-0.002796418,-5.93E-05
333,0.040637079,0.114628074,0.080345373,-0.268862014,-0.111047687,0.124990417,0.043072859,-0.002796418,-5.93E-05
334,0.041055542,0.11472005,0.0806815,-0.271980872,-0.111982997,0.126585792,0.044118712,-0.002864143,-6.00E-05
335,0.041055542,0.11472005,0.0806815,-0.271980872,-0.111982997,0.126585792,0.044118712,-0.002864143,-6.00E-05
336,0.041055542,0.11472005,0.0806815,-0.271980872,-0.111982997,0.126585792,0.044118712,-0.002864143,-6.00E-05
337,0.041473523,0.114810364,0.08101583,-0.27508863,-0.112901437,0.128172033,0.045170726,-0.002932274,-6.07E-05
338,0.041473523,0.114810364,0.08101583,-0.27508863,-0.112901437,0.128172033,0.045170726,-0.002932274,-6.07E-05
339,0.041473523,0.114810364,0.08101583,-0.27508863,-0.112901437,0.128172033,0.045170726,-0.002932274,-6.07E-05
340,0.041891028,0.114899052,0.081348463,-0.278185402,-0.113803578,0.129749552,0.046228819,-0.003000805,-6.14E-05
341,0.041891028,0.114899052,0.081348463,-0.278185402,-0.113803578,0.129749552,0.046228819,-0.003000805,-6.14E-05
342,0.041891028,0.114899052,0.081348463,-0.278185402,-0.113803578,0.129749552,0.046228819,-0.003000805,-6.14E-05
343,0.041891028,0.114899052,0.081348463,-0.278185402,-0.113803578,0.129749552,0.046228819,-0.003000805,-6.14E-05
344,0.042312858,0.114987985,0.081686229,-0.281304788,-0.11471253,0.131348132,0.047306618,-0.003070596,-6.21E-05
345,0.042312858,0.114987985,0.081686229,-0.281304788,-0.11471253,0.131348132,0.047306618,-0.003070596,-6.21E-05
346,0.042312858,0.114987985,0.081686229,-0.281304788,-0.11471253,0.131348132,0.047306618,-0.003070596,-6.21E-05
347,0.042733998,0.115075166,0.082021948,-0.284411777,-0.115603961,0.132936456,0.048389747,-0.003140739,-6.28E-05
348,0.042733998,0.115075166,0.082021948,-0.284411777,-0.115603961,0.132936456,0.048389747,-0.003140739,-6.28E-05
349,0.042733998,0.115075166,0.082021948,-0.284411777,-0.115603961,0.132936456,0.048389747,-0.003140739,-6.28E-05
350,0.042733998,0.115075166,0.082021948,-0.284411777,-0.115603961,0.132936456,0.048389747,-0.003140739,-6.28E-05
351,0.043159292,0.115162454,0.082362544,-0.287540071,-0.116501045,0.134544608,0.04949218,-0.003212116,-6.35E-05
352,0.043159292,0.115162454,0.082362544,-0.287540071,-0.116501045,0.134544608,0.04949218,-0.003212116,-6.35E-05
353,0.043159292,0.115162454,0.082362544,-0.287540071,-0.116501045,0.134544608,0.04949218,-0.003212116,-6.35E-05
354,0.043583698,0.115247884,0.082700785,-0.290654683,-0.117379592,0.136141156,0.050599212,-0.003283799,-6.43E-05
355,0.043583698,0.115247884,0.082700785,-0.290654683,-0.117379592,0.136141156,0.050599212,-0.003283799,-6.43E-05
356,0.043583698,0.115247884,0.082700785,-0.290654683,-0.117379592,0.136141156,0.050599212,-0.003283799,-6.43E-05
357,0.043583698,0.115247884,0.082700785,-0.290654683,-0.117379592,0.136141156,0.050599212,-0.003283799,-6.43E-05
358,0.0440121,0.1153333,0.083043685,-0.293789411,-0.118262825,0.137756471,0.051725168,-0.003356692,-6.50E-05
359,0.0440121,0.1153333,0.083043685,-0.293789411,-0.118262825,0.137756471,0.051725168,-0.003356692,-6.50E-05
360,0.0440121,0.1153333,0.083043685,-0.293789411,-0.118262825,0.137756471,0.051725168,-0.003356692,-6.50E-05
361,0.044439429,0.115416768,0.083383957,-0.296909291,-0.119126684,0.139359,0.052855016,-0.003429847,-6.57E-05
362,0.044439429,0.115416768,0.083383957,-0.296909291,-0.119126684,0.139359,0.052855016,-0.003429847,-6.57E-05
363,0.044439429,0.115416768,0.083383957,-0.296909291,-0.119126684,0.139359,0.052855016,-0.003429847,-6.57E-05
364,0.044439429,0.115416768,0.083383957,-0.296909291,-0.119126684,0.139359,0.052855016,-0.003429847,-6.57E-05
365,0.044870612,0.115500116,0.083728704,-0.30004821,-0.119994429,0.14097939,0.054003431,-0.003504189,-6.64E-05
366,0.044870612,0.115500116,0.083728704,-0.30004821,-0.119994429,0.14097939,0.054003431,-0.003504189,-6.64E-05
367,0.044870612,0.115500116,0.083728704,-0.30004821,-0.119994429,0.14097939,0.054003431,-0.003504189,-6.64E-05
368,0.04530055,0.115581442,0.084070581,-0.303171224,-0.120842121,0.142585959,0.055155054,-0.003578749,-6.71E-05
369,0.04530055,0.115581442,0.084070581,-0.303171224,-0.120842121,0.142585959,0.055155054,-0.003578749,-6.71E-05
370,0.04530055,0.115581442,0.084070581,-0.303171224,-0.120842121,0.142585959,0.055155054,-0.003578749,-6.71E-05
371,0.04530055,0.115581442,0.084070581,-0.303171224,-0.120842121,0.142585959,0.055155054,-0.003578749,-6.71E-05
372,0.04573421,0.115662555,0.084416779,-0.306312304,-0.121693041,0.144209621,0.056324908,-0.003654475,-6.78E-05
373,0.04573421,0.115662555,0.084416779,-0.306312304,-0.121693041,0.144209621,0.056324908,-0.003654475,-6.78E-05
374,0.04573421,0.115662555,0.084416779,-0.306312304,-0.121693041,0.144209621,0.056324908,-0.003654475,-6.78E-05
375,0.04573421,0.115662555,0.084416779,-0.306312304,-0.121693041,0.144209621,0.056324908,-0.003654475,-6.78E-05
376,0.046171405,0.115743312,0.084766931,-0.309470131,-0.122545669,0.145848757,0.057512459,-0.003731332,-6.85E-05
377,0.046171405,0.115743312,0.084766931,-0.309470131,-0.122545669,0.145848757,0.057512459,-0.003731332,-6.85E-05
378,0.046171405,0.115743312,0.084766931,-0.309470131,-0.122545669,0.145848757,0.057512459,-0.003731332,-6.85E-05
379,0.046607001,0.115821866,0.085113622,-0.312609831,-0.123376343,0.14747158,0.058701884,-0.003808323,-6.92E-05
380,0.046607001,0.115821866,0.085113622,-0.312609831,-0.123376343,0.14747158,0.058701884,-0.003808323,-6.92E-05
381,0.046607001,0.115821866,0.085113622,-0.312609831,-0.123376343,0.14747158,0.058701884,-0.003808323,-6.92E-05
382,0.046607001,0.115821866,0.085113622,-0.312609831,-0.123376343,0.14747158,0.058701884,-0.003808323,-6.92E-05
383,0.047046031,0.115900004,0.085464194,-0.315765528,-0.124208447,0.14910947,0.059908741,-0.003886429,-6.99E-05
384,0.047046031,0.115900004,0.085464194,-0.315765528,-0.124208447,0.14910947,0.059908741,-0.003886429,-6.99E-05
385,0.047046031,0.115900004,0.085464194,-0.315765528,-0.124208447,0.14910947,0.059908741,-0.003886429,-6.99E-05
386,0.047483331,0.115975911,0.085811171,-0.318902359,-0.125018412,0.150730484,0.061116884,-0.003964633,-7.06E-05
387,0.047483331,0.115975911,0.085811171,-0.318902359,-0.125018412,0.150730484,0.061116884,-0.003964633,-7.06E-05
388,0.047483331,0.115975911,0.085811171,-0.318902359,-0.125018412,0.150730484,0.061116884,-0.003964633,-7.06E-05
389,0.047483331,0.115975911,0.085811171,-0.318902359,-0.125018412,0.150730484,0.061116884,-0.003964633,-7.06E-05
390,0.047923972,0.116051349,0.086161974,-0.322054517,-0.125829601,0.152366233,0.062342217,-0.004043936,-7.13E-05
391,0.047923972,0.116051349,0.086161974,-0.322054517,-0.125829601,0.152366233,0.062342217,-0.004043936,-7.13E-05
392,0.047923972,0.116051349,0.086161974,-0.322054517,-0.125829601,0.152366233,0.062342217,-0.004043936,-7.13E-05
393,0.047923972,0.116051349,0.086161974,-0.322054517,-0.125829601,0.152366233,0.062342217,-0.004043936,-7.13E-05
394,0.048367779,0.116126189,0.086516263,-0.325220807,-0.12664066,0.15401524,0.063584207,-0.004124303,-7.20E-05
395,0.048367779,0.116126189,0.086516263,-0.325220807,-0.12664066,0.15401524,0.063584207,-0.004124303,-7.20E-05
396,0.048367779,0.116126189,0.086516263,-0.325220807,-0.12664066,0.15401524,0.063584207,-0.004124303,-7.20E-05
397,0.048809554,0.116198678,0.086866486,-0.328366422,-0.127428265,0.155645435,0.064826244,-0.004204691,-7.27E-05
398,0.048809554,0.116198678,0.086866486,-0.328366422,-0.127428265,0.155645435,0.064826244,-0.004204691,-7.27E-05
399,0.048809554,0.116198678,0.086866486,-0.328366422,-0.127428265,0.155645435,0.064826244,-0.004204691,-7.27E-05
400,0.048809554,0.116198678,0.086866486,-0.328366422,-0.127428265,0.155645435,0.064826244,-0.004204691,-7.27E-05
401,0.049254429,0.116270543,0.087220208,-0.331525691,-0.128215832,0.157288852,0.066084768,-0.004286133,-7.35E-05
402,0.049254429,0.116270543,0.087220208,-0.331525691,-0.128215832,0.157288852,0.066084768,-0.004286133,-7.35E-05
403,0.049254429,0.116270543,0.087220208,-0.331525691,-0.128215832,0.157288852,0.066084768,-0.004286133,-7.35E-05
404,0.049254429,0.116270543,0.087220208,-0.331525691,-0.128215832,0.157288852,0.066084768,-0.004286133,-7.35E-05
405,0.049702237,0.116341668,0.087577108,-0.334697496,-0.12900212,0.158944114,0.067359254,-0.004368595,-7.42E-05
406,0.049702237,0.116341668,0.087577108,-0.334697496,-0.12900212,0.158944114,0.067359254,-0.004368595,-7.42E-05
407,0.049702237,0.116341668,0.087577108,-0.334697496,-0.12900212,0.158944114,0.067359254,-0.004368595,-7.42E-05
408,0.049702237,0.116341668,0.087577108,-0.334697496,-0.12900212,0.158944114,0.067359254,-0.004368595,-7.42E-05
409,0.05015282,0.116411946,0.087936891,-0.337880779,-0.129785998,0.16060995,0.068649195,-0.004452047,-7.49E-05
410,0.05015282,0.116411946,0.087936891,-0.337880779,-0.129785998,0.16060995,0.068649195,-0.004452047,-7.49E-05
411,0.05015282,0.116411946,0.087936891,-0.337880779,-0.129785998,0.16060995,0.068649195,-0.004452047,-7.49E-05
412,0.050600936,0.116479708,0.088291911,-0.341040827,-0.130544501,0.162254159,0.069937387,-0.004535405,-7.56E-05
413,0.050600936,0.116479708,0.088291911,-0.341040827,-0.130544501,0.162254159,0.069937387,-0.004535405,-7.56E-05
414,0.050600936,0.116479708,0.088291911,-0.341040827,-0.130544501,0.162254159,0.069937387,-0.004535405,-7.56E-05
415,0.050600936,0.116479708,0.088291911,-0.341040827,-0.130544501,0.162254159,0.069937387,-0.004535405,-7.56E-05
416,0.051051801,0.116546634,0.088649935,-0.344212152,-0.131301134,0.163909357,0.071240992,-0.004619749,-7.63E-05
417,0.051051801,0.116546634,0.088649935,-0.344212152,-0.131301134,0.163909357,0.071240992,-0.004619749,-7.63E-05
418,0.051051801,0.116546634,0.088649935,-0.344212152,-0.131301134,0.163909357,0.071240992,-0.004619749,-7.63E-05
419,0.051051801,0.116546634,0.088649935,-0.344212152,-0.131301134,0.163909357,0.071240992,-0.004619749,-7.63E-05
420,0.051505263,0.116612625,0.089010674,-0.347393756,-0.132054826,0.165574326,0.072559507,-0.004705047,-7.70E-05
421,0.051505263,0.116612625,0.089010674,-0.347393756,-0.132054826,0.165574326,0.072559507,-0.004705047,-7.70E-05
422,0.051505263,0.116612625,0.089010674,-0.347393756,-0.132054826,0.165574326,0.072559507,-0.004705047,-7.70E-05
423,0.051505263,0.116612625,0.089010674,-0.347393756,-0.132054826,0.165574326,0.072559507,-0.004705047,-7.70E-05
424,0.051961175,0.116677589,0.089373864,-0.350584691,-0.132804603,0.167247944,0.07389245,-0.004791269,-7.77E-05
425,0.051961175,0.116677589,0.089373864,-0.350584691,-0.132804603,0.167247944,0.07389245,-0.004791269,-7.77E-05
426,0.051961175,0.116677589,0.089373864,-0.350584691,-0.132804603,0.167247944,0.07389245,-0.004791269,-7.77E-05
427,0.052414255,0.116739942,0.08973176,-0.353750324,-0.13352782,0.168897843,0.075222023,-0.004877296,-7.84E-05
428,0.052414255,0.116739942,0.08973176,-0.353750324,-0.13352782,0.168897843,0.075222023,-0.004877296,-7.84E-05
429,0.052414255,0.116739942,0.08973176,-0.353750324,-0.13352782,0.168897843,0.075222023,-0.004877296,-7.84E-05
430,0.052414255,0.116739942,0.08973176,-0.353750324,-0.13352782,0.168897843,0.075222023,-0.004877296,-7.84E-05
431,0.052869794,0.116801307,0.090092313,-0.356925326,-0.134247998,0.170557161,0.076566102,-0.004964252,-7.91E-05
432,0.052869794,0.116801307,0.090092313,-0.356925326,-0.134247998,0.170557161,0.076566102,-0.004964252,-7.91E-05
433,0.052869794,0.116801307,0.090092313,-0.356925326,-0.134247998,0.170557161,0.076566102,-0.004964252,-7.91E-05
434,0.052869794,0.116801307,0.090092313,-0.356925326,-0.134247998,0.170557161,0.076566102,-0.004964252,-7.91E-05
435,0.053327652,0.116861598,0.09045526,-0.360108794,-0.134964186,0.172224794,0.077924202,-0.005052105,-7.98E-05
436,0.053327652,0.116861598,0.09045526,-0.360108794,-0.134964186,0.172224794,0.077924202,-0.005052105,-7.98E-05
437,0.053327652,0.116861598,0.09045526,-0.360108794,-0.134964186,0.172224794,0.077924202,-0.005052105,-7.98E-05
438,0.053327652,0.116861598,0.09045526,-0.360108794,-0.134964186,0.172224794,0.077924202,-0.005052105,-7.98E-05
439,0.053787695,0.116920735,0.090820358,-0.363299872,-0.135675522,0.173899725,0.079295859,-0.005140826,-8.05E-05
440,0.053787695,0.116920735,0.090820358,-0.363299872,-0.135675522,0.173899725,0.079295859,-0.005140826,-8.05E-05
441,0.053787695,0.116920735,0.090820358,-0.363299872,-0.135675522,0.173899725,0.079295859,-0.005140826,-8.05E-05
442,0.053787695,0.116920735,0.090820358,-0.363299872,-0.135675522,0.173899725,0.079295859,-0.005140826,-8.05E-05
443,0.054249795,0.116978646,0.091187384,-0.366497751,-0.136381229,0.175581021,0.080680629,-0.005230389,-8.12E-05
444,0.054249795,0.116978646,0.091187384,-0.366497751,-0.136381229,0.175581021,0.080680629,-0.005230389,-8.12E-05
445,0.054249795,0.116978646,0.091187384,-0.366497751,-0.136381229,0.175581021,0.080680629,-0.005230389,-8.12E-05
446,0.054249795,0.116978646,0.091187384,-0.366497751,-0.136381229,0.175581021,0.080680629,-0.005230389,-8.12E-05
447,0.054713831,0.117035265,0.091556132,-0.369701664,-0.137080608,0.177267825,0.08207809,-0.005320765,-8.19E-05
448,0.054713831,0.117035265,0.091556132,-0.369701664,-0.137080608,0.177267825,0.08207809,-0.005320765,-8.19E-05
449,0.054713831,0.117035265,0.091556132,-0.369701664,-0.137080608,0.177267825,0.08207809,-0.005320765,-8.19E-05
450,0.054713831,0.117035265,0.091556132,-0.369701664,-0.137080608,0.177267825,0.08207809,-0.005320765,-8.19E-05
451,0.055179688,0.117090534,0.091926415,-0.372910887,-0.137773031,0.17895935,0.083487837,-0.005411929,-8.26E-05
452,0.055179688,0.117090534,0.091926415,-0.372910887,-0.137773031,0.17895935,0.083487837,-0.005411929,-8.26E-05
453,0.055179688,0.117090534,0.091926415,-0.372910887,-0.137773031,0.17895935,0.083487837,-0.005411929,-8.26E-05
454,0.05564202,0.117143031,0.092290329,-0.376090972,-0.138436492,0.180623038,0.084891087,-0.005502702,-8.33E-05
455,0.05564202,0.117143031,0.092290329,-0.376090972,-0.138436492,0.180623038,0.084891087,-0.005502702,-8.33E-05
456,0.05564202,0.117143031,0.092290329,-0.376090972,-0.138436492,0.180623038,0.084891087,-0.005502702,-8.33E-05
457,0.05564202,0.117143031,0.092290329,-0.376090972,-0.138436492,0.180623038,0.084891087,-0.005502702,-8.33E-05
458,0.056106252,0.11719427,0.09265617,-0.379276863,-0.13909457,0.182292969,0.08630698,-0.005594284,-8.40E-05
459,0.056106252,0.11719427,0.09265617,-0.379276863,-0.13909457,0.182292969,0.08630698,-0.005594284,-8.40E-05
460,0.056106252,0.11719427,0.09265617,-0.379276863,-0.13909457,0.182292969,0.08630698,-0.005594284,-8.40E-05
461,0.056106252,0.11719427,0.09265617,-0.379276863,-0.13909457,0.182292969,0.08630698,-0.005594284,-8.40E-05
462,0.056572269,0.117244189,0.093023729,-0.382467848,-0.139746564,0.183968292,0.087735091,-0.005686651,-8.47E-05
463,0.056572269,0.117244189,0.093023729,-0.382467848,-0.139746564,0.183968292,0.087735091,-0.005686651,-8.47E-05
464,0.056572269,0.117244189,0.093023729,-0.382467848,-0.139746564,0.183968292,0.087735091,-0.005686651,-8.47E-05
465,0.056572269,0.117244189,0.093023729,-0.382467848,-0.139746564,0.183968292,0.087735091,-0.005686651,-8.47E-05
466,0.057039962,0.117292733,0.093392816,-0.385663252,-0.140391849,0.185648225,0.089175016,-0.005779775,-8.54E-05
467,0.057039962,0.117292733,0.093392816,-0.385663252,-0.140391849,0.185648225,0.089175016,-0.005779775,-8.54E-05
468,0.057039962,0.117292733,0.093392816,-0.385663252,-0.140391849,0.185648225,0.089175016,-0.005779775,-8.54E-05
469,0.057039962,0.117292733,0.093392816,-0.385663252,-0.140391849,0.185648225,0.089175016,-0.005779775,-8.54E-05
470,0.057509224,0.117339849,0.093763257,-0.388862441,-0.141029866,0.187332055,0.09062637,-0.005873634,-8.61E-05
471,0.057509224,0.117339849,0.093763257,-0.388862441,-0.141029866,0.187332055,0.09062637,-0.005873634,-8.61E-05
472,0.057509224,0.117339849,0.093763257,-0.388862441,-0.141029866,0.187332055,0.09062637,-0.005873634,-8.61E-05
473,0.057509224,0.117339849,0.093763257,-0.388862441,-0.141029866,0.187332055,0.09062637,-0.005873634,-8.61E-05
474,0.057979959,0.117385492,0.094134891,-0.392064814,-0.141660116,0.189019133,0.092088787,-0.005968203,-8.68E-05
475,0.057979959,0.117385492,0.094134891,-0.392064814,-0.141660116,0.189019133,0.092088787,-0.005968203,-8.68E-05
476,0.057979959,0.117385492,0.094134891,-0.392064814,-0.141660116,0.189019133,0.092088787,-0.005968203,-8.68E-05
477,0.057979959,0.117385492,0.094134891,-0.392064814,-0.141660116,0.189019133,0.092088787,-0.005968203,-8.68E-05
478,0.058452071,0.117429623,0.094507575,-0.395269807,-0.142282156,0.190708865,0.093561919,-0.006063461,-8.75E-05
479,0.058452071,0.117429623,0.094507575,-0.395269807,-0.142282156,0.190708865,0.093561919,-0.006063461,-8.75E-05
480,0.058452071,0.117429623,0.094507575,-0.395269807,-0.142282156,0.190708865,0.093561919,-0.006063461,-8.75E-05
481,0.058452071,0.117429623,0.094507575,-0.395269807,-0.142282156,0.190708865,0.093561919,-0.006063461,-8.75E-05
482,0.058925472,0.117472203,0.094881174,-0.398476887,-0.142895594,0.19240071,0.095045436,-0.006159387,-8.82E-05
483,0.058925472,0.117472203,0.094881174,-0.398476887,-0.142895594,0.19240071,0.095045436,-0.006159387,-8.82E-05
484,0.058925472,0.117472203,0.094881174,-0.398476887,-0.142895594,0.19240071,0.095045436,-0.006159387,-8.82E-05
485,0.058925472,0.117472203,0.094881174,-0.398476887,-0.142895594,0.19240071,0.095045436,-0.006159387,-8.82E-05
486,0.059400078,0.117513201,0.095255567,-0.40168555,-0.143500087,0.194094178,0.096539023,-0.006255962,-8.89E-05
487,0.059400078,0.117513201,0.095255567,-0.40168555,-0.143500087,0.194094178,0.096539023,-0.006255962,-8.89E-05
488,0.059400078,0.117513201,0.095255567,-0.40168555,-0.143500087,0.194094178,0.096539023,-0.006255962,-8.89E-05
489,0.059400078,0.117513201,0.095255567,-0.40168555,-0.143500087,0.194094178,0.096539023,-0.006255962,-8.89E-05
490,0.05987581,0.117552587,0.095630644,-0.404895323,-0.144095331,0.195788821,0.098042381,-0.006353165,-8.96E-05
491,0.05987581,0.117552587,0.095630644,-0.404895323,-0.144095331,0.195788821,0.098042381,-0.006353165,-8.96E-05
492,0.05987581,0.117552587,0.095630644,-0.404895323,-0.144095331,0.195788821,0.098042381,-0.006353165,-8.96E-05
493,0.05987581,0.117552587,0.095630644,-0.404895323,-0.144095331,0.195788821,0.098042381,-0.006353165,-8.96E-05
494,0.06035259,0.117590336,0.096006305,-0.408105762,-0.144681063,0.197484235,0.099555226,-0.006450979,-9.03E-05
495,0.06035259,0.117590336,0.096006305,-0.408105762,-0.144681063,0.197484235,0.099555226,-0.006450979,-9.03E-05
496,0.06035259,0.117590336,0.096006305,-0.408105762,-0.144681063,0.197484235,0.099555226,-0.006450979,-9.03E-05
497,0.06035259,0.117590336,0.096006305,-0.408105762,-0.144681063,0.197484235,0.099555226,-0.006450979,-9.03E-05
498,0.060830349,0.117626426,0.096382458,-0.411316446,-0.145257054,0.199180055,0.101077287,-0.006549388,-9.10E-05
499,0.060830349,0.117626426,0.096382458,-0.411316446,-0.145257054,0.199180055,0.101077287,-0.006549388,-9.10E-05
500,0.060830349,0.117626426,0.096382458,-0.411316446,-0.145257054,0.199180055,0.101077287,-0.006549388,-9.10E-05
501,0.060830349,0.117626426,0.096382458,-0.411316446,-0.145257054,0.199180055,0.101077287,-0.006549388,-9.10E-05
502,0.061309017,0.117660836,0.096759021,-0.414526983,-0.145823109,0.200875949,0.102608309,-0.006648374,-9.17E-05
503,0.061309017,0.117660836,0.096759021,-0.414526983,-0.145823109,0.200875949,0.102608309,-0.006648374,-9.17E-05
504,0.061309017,0.117660836,0.096759021,-0.414526983,-0.145823109,0.200875949,0.102608309,-0.006648374,-9.17E-05
505,0.061309017,0.117660836,0.096759021,-0.414526983,-0.145823109,0.200875949,0.102608309,-0.006648374,-9.17E-05
506,0.061788531,0.11769355,0.097135919,-0.417737001,-0.14637906,0.202571617,0.104148047,-0.006747923,-9.24E-05
507,0.061788531,0.11769355,0.097135919,-0.417737001,-0.14637906,0.202571617,0.104148047,-0.006747923,-9.24E-05
508,0.061788531,0.11769355,0.097135919,-0.417737001,-0.14637906,0.202571617,0.104148047,-0.006747923,-9.24E-05
509,0.061788531,0.11769355,0.097135919,-0.417737001,-0.14637906,0.202571617,0.104148047,-0.006747923,-9.24E-05
510,0.062268831,0.117724553,0.097513084,-0.420946153,-0.146924766,0.204266793,0.10569627,-0.00684802,-9.32E-05
511,0.062268831,0.117724553,0.097513084,-0.420946153,-0.146924766,0.204266793,0.10569627,-0.00684802,-9.32E-05
512,0.062268831,0.117724553,0.097513084,-0.420946153,-0.146924766,0.204266793,0.10569627,-0.00684802,-9.32E-05
513,0.062268831,0.117724553,0.097513084,-0.420946153,-0.146924766,0.204266793,0.10569627,-0.00684802,-9.32E-05
514,0.062749857,0.117753831,0.097890455,-0.424154114,-0.147460112,0.205961233,0.107252756,-0.006948651,-9.39E-05
515,0.062749857,0.117753831,0.097890455,-0.424154114,-0.147460112,0.205961233,0.107252756,-0.006948651,-9.39E-05
516,0.062749857,0.117753831,0.097890455,-0.424154114,-0.147460112,0.205961233,0.107252756,-0.006948651,-9.39E-05
517,0.062749857,0.117753831,0.097890455,-0.424154114,-0.147460112,0.205961233,0.107252756,-0.006948651,-9.39E-05
518,0.063231555,0.117781374,0.098267977,-0.427360576,-0.147985001,0.207654721,0.108817297,-0.007049802,-9.46E-05
519,0.063231555,0.117781374,0.098267977,-0.427360576,-0.147985001,0.207654721,0.108817297,-0.007049802,-9.46E-05
520,0.063231555,0.117781374,0.098267977,-0.427360576,-0.147985001,0.207654721,0.108817297,-0.007049802,-9.46E-05
521,0.063231555,0.117781374,0.098267977,-0.427360576,-0.147985001,0.207654721,0.108817297,-0.007049802,-9.46E-05
522,0.063713875,0.117807172,0.0986456,-0.430565255,-0.148499358,0.209347065,0.110389693,-0.007151461,-9.53E-05
523,0.063713875,0.117807172,0.0986456,-0.430565255,-0.148499358,0.209347065,0.110389693,-0.007151461,-9.53E-05
524,0.063713875,0.117807172,0.0986456,-0.430565255,-0.148499358,0.209347065,0.110389693,-0.007151461,-9.53E-05
525,0.063713875,0.117807172,0.0986456,-0.430565255,-0.148499358,0.209347065,0.110389693,-0.007151461,-9.53E-05
526,0.064196767,0.117831219,0.099023279,-0.433767881,-0.149003125,0.211038091,0.111969755,-0.007253617,-9.60E-05
527,0.064196767,0.117831219,0.099023279,-0.433767881,-0.149003125,0.211038091,0.111969755,-0.007253617,-9.60E-05
528,0.064196767,0.117831219,0.099023279,-0.433767881,-0.149003125,0.211038091,0.111969755,-0.007253617,-9.60E-05
529,0.064196767,0.117831219,0.099023279,-0.433767881,-0.149003125,0.211038091,0.111969755,-0.007253617,-9.60E-05
530,0.064680184,0.117853507,0.099400976,-0.436968206,-0.149496259,0.212727648,0.113557304,-0.007356257,-9.67E-05
531,0.064680184,0.117853507,0.099400976,-0.436968206,-0.149496259,0.212727648,0.113557304,-0.007356257,-9.67E-05
532,0.064680184,0.117853507,0.099400976,-0.436968206,-0.149496259,0.212727648,0.113557304,-0.007356257,-9.67E-05
533,0.064680184,0.117853507,0.099400976,-0.436968206,-0.149496259,0.212727648,0.113557304,-0.007356257,-9.67E-05
534,0.064680184,0.117853507,0.099400976,-0.436968206,-0.149496259,0.212727648,0.113557304,-0.007356257,-9.67E-05
535,0.065169522,0.117874948,0.099786996,-0.440199704,-0.149999054,0.214448645,0.115173423,-0.007460705,-9.74E-05
536,0.065169522,0.117874948,0.099786996,-0.440199704,-0.149999054,0.214448645,0.115173423,-0.007460705,-9.74E-05
537,0.065169522,0.117874948,0.099786996,-0.440199704,-0.149999054,0.214448645,0.115173423,-0.007460705,-9.74E-05
538,0.065169522,0.117874948,0.099786996,-0.440199704,-0.149999054,0.214448645,0.115173423,-0.007460705,-9.74E-05
539,0.065658971,0.117894445,0.100172103,-0.443426525,-0.150488323,0.216164627,0.116795213,-0.007565523,-9.81E-05
540,0.065658971,0.117894445,0.100172103,-0.443426525,-0.150488323,0.216164627,0.116795213,-0.007565523,-9.81E-05
541,0.065658971,0.117894445,0.100172103,-0.443426525,-0.150488323,0.216164627,0.116795213,-0.007565523,-9.81E-05
542,0.065658971,0.117894445,0.100172103,-0.443426525,-0.150488323,0.216164627,0.116795213,-0.007565523,-9.81E-05
543,0.066148514,0.117912014,0.100556349,-0.446648579,-0.150964366,0.217875806,0.118422632,-0.007670709,-9.88E-05
544,0.066148514,0.117912014,0.100556349,-0.446648579,-0.150964366,0.217875806,0.118422632,-0.007670709,-9.88E-05
545,0.066148514,0.117912014,0.100556349,-0.446648579,-0.150964366,0.217875806,0.118422632,-0.007670709,-9.88E-05
546,0.066148514,0.117912014,0.100556349,-0.446648579,-0.150964366,0.217875806,0.118422632,-0.007670709,-9.88E-05
547,0.066638133,0.117927673,0.100939787,-0.449865784,-0.151427463,0.219582379,0.120055638,-0.007776261,-9.95E-05
548,0.066638133,0.117927673,0.100939787,-0.449865784,-0.151427463,0.219582379,0.120055638,-0.007776261,-9.95E-05
549,0.066638133,0.117927673,0.100939787,-0.449865784,-0.151427463,0.219582379,0.120055638,-0.007776261,-9.95E-05
550,0.066638133,0.117927673,0.100939787,-0.449865784,-0.151427463,0.219582379,0.120055638,-0.007776261,-9.95E-05
551,0.067127812,0.117941436,0.101322463,-0.453078063,-0.151877878,0.221284526,0.121694191,-0.007882174,-0.000100157
552,0.067127812,0.117941436,0.101322463,-0.453078063,-0.151877878,0.221284526,0.121694191,-0.007882174,-0.000100157
553,0.067127812,0.117941436,0.101322463,-0.453078063,-0.151877878,0.221284526,0.121694191,-0.007882174,-0.000100157
554,0.067127812,0.117941436,0.101322463,-0.453078063,-0.151877878,0.221284526,0.121694191,-0.007882174,-0.000100157
555,0.067617535,0.117953318,0.101704419,-0.456285345,-0.152315856,0.222982417,0.123338246,-0.007988447,-0.000100857
556,0.067617535,0.117953318,0.101704419,-0.456285345,-0.152315856,0.222982417,0.123338246,-0.007988447,-0.000100857
557,0.067617535,0.117953318,0.101704419,-0.456285345,-0.152315856,0.222982417,0.123338246,-0.007988447,-0.000100857
558,0.067617535,0.117953318,0.101704419,-0.456285345,-0.152315856,0.222982417,0.123338246,-0.007988447,-0.000100857
559,0.068107287,0.117963333,0.102085697,-0.459487569,-0.152741628,0.224676209,0.12498776,-0.008095077,-0.000101557
560,0.068107287,0.117963333,0.102085697,-0.459487569,-0.152741628,0.224676209,0.12498776,-0.008095077,-0.000101557
561,0.068107287,0.117963333,0.102085697,-0.459487569,-0.152741628,0.224676209,0.12498776,-0.008095077,-0.000101557
562,0.068107287,0.117963333,0.102085697,-0.459487569,-0.152741628,0.224676209,0.12498776,-0.008095077,-0.000101557
563,0.068107287,0.117963333,0.102085697,-0.459487569,-0.152741628,0.224676209,0.12498776,-0.008095077,-0.000101557
564,0.068602542,0.117972229,0.102474874,-0.462718318,-0.153175274,0.226399434,0.126664881,-0.008203453,-0.000102257
565,0.068602542,0.117972229,0.102474874,-0.462718318,-0.153175274,0.226399434,0.126664881,-0.008203453,-0.000102257
566,0.068602542,0.117972229,0.102474874,-0.462718318,-0.153175274,0.226399434,0.126664881,-0.008203453,-0.000102257
567,0.068602542,0.117972229,0.102474874,-0.462718318,-0.153175274,0.226399434,0.126664881,-0.008203453,-0.000102257
568,0.069097457,0.117979114,0.10286253,-0.465941953,-0.153594217,0.228115427,0.128345762,-0.008312079,-0.000102957
569,0.069097457,0.117979114,0.10286253,-0.465941953,-0.153594217,0.228115427,0.128345762,-0.008312079,-0.000102957
570,0.069097457,0.117979114,0.10286253,-0.465941953,-0.153594217,0.228115427,0.128345762,-0.008312079,-0.000102957
571,0.069097457,0.117979114,0.10286253,-0.465941953,-0.153594217,0.228115427,0.128345762,-0.008312079,-0.000102957
572,0.069592044,0.117984021,0.103248787,-0.469158546,-0.153998972,0.229824654,0.13003049,-0.008420961,-0.000103657
573,0.069592044,0.117984021,0.103248787,-0.469158546,-0.153998972,0.229824654,0.13003049,-0.008420961,-0.000103657
574,0.069592044,0.117984021,0.103248787,-0.469158546,-0.153998972,0.229824654,0.13003049,-0.008420961,-0.000103657
575,0.069592044,0.117984021,0.103248787,-0.469158546,-0.153998972,0.229824654,0.13003049,-0.008420961,-0.000103657
576,0.070086309,0.117986977,0.103633755,-0.472368164,-0.15439001,0.231527542,0.131719139,-0.008530102,-0.000104356
577,0.070086309,0.117986977,0.103633755,-0.472368164,-0.15439001,0.231527542,0.131719139,-0.008530102,-0.000104356
578,0.070086309,0.117986977,0.103633755,-0.472368164,-0.15439001,0.231527542,0.131719139,-0.008530102,-0.000104356
579,0.070086309,0.117986977,0.103633755,-0.472368164,-0.15439001,0.231527542,0.131719139,-0.008530102,-0.000104356
580,0.070580261,0.11798801,0.104017537,-0.475570875,-0.154767762,0.233224481,0.133411777,-0.008639507,-0.000105056
581,0.070580261,0.11798801,0.104017537,-0.475570875,-0.154767762,0.233224481,0.133411777,-0.008639507,-0.000105056
582,0.070580261,0.11798801,0.104017537,-0.475570875,-0.154767762,0.233224481,0.133411777,-0.008639507,-0.000105056
583,0.070580261,0.11798801,0.104017537,-0.475570875,-0.154767762,0.233224481,0.133411777,-0.008639507,-0.000105056
584,0.070580261,0.11798801,0.104017537,-0.475570875,-0.154767762,0.233224481,0.133411777,-0.008639507,-0.000105056
585,0.071079421,0.117987745,0.104408904,-0.478800321,-0.155152138,0.234949426,0.135131297,-0.008750612,-0.000105756
586,0.071079421,0.117987745,0.104408904,-0.478800321,-0.155152138,0.234949426,0.135131297,-0.008750612,-0.000105756
587,0.071079421,0.117987745,0.104408904,-0.478800321,-0.155152138,0.234949426,0.135131297,-0.008750612,-0.000105756
588,0.071079421,0.117987745,0.104408904,-0.478800321,-0.155152138,0.234949426,0.135131297,-0.008750612,-0.000105756
589,0.071577934,0.117985443,0.104798313,-0.482021031,-0.155521024,0.2366656,0.136853212,-0.008861881,-0.000106455
590,0.071577934,0.117985443,0.104798313,-0.482021031,-0.155521024,0.2366656,0.136853212,-0.008861881,-0.000106455
591,0.071577934,0.117985443,0.104798313,-0.482021031,-0.155521024,0.2366656,0.136853212,-0.008861881,-0.000106455
592,0.071577934,0.117985443,0.104798313,-0.482021031,-0.155521024,0.2366656,0.136853212,-0.008861881,-0.000106455
593,0.072075829,0.117981145,0.105185937,-0.485233185,-0.155875087,0.238373658,0.138577706,-0.008973325,-0.000107155
594,0.072075829,0.117981145,0.105185937,-0.485233185,-0.155875087,0.238373658,0.138577706,-0.008973325,-0.000107155
595,0.072075829,0.117981145,0.105185937,-0.485233185,-0.155875087,0.238373658,0.138577706,-0.008973325,-0.000107155
596,0.072075829,0.117981145,0.105185937,-0.485233185,-0.155875087,0.238373658,0.138577706,-0.008973325,-0.000107155
597,0.072573134,0.117974885,0.105571933,-0.488436957,-0.156214935,0.240074192,0.140304946,-0.009084955,-0.000107854
598,0.072573134,0.117974885,0.105571933,-0.488436957,-0.156214935,0.240074192,0.140304946,-0.009084955,-0.000107854
599,0.072573134,0.117974885,0.105571933,-0.488436957,-0.156214935,0.240074192,0.140304946,-0.009084955,-0.000107854
600,0.072573134,0.117974885,0.105571933,-0.488436957,-0.156214935,0.240074192,0.140304946,-0.009084955,-0.000107854
601,0.072573134,0.117974885,0.105571933,-0.488436957,-0.156214935,0.240074192,0.140304946,-0.009084955,-0.000107854
602,0.073075403,0.117967191,0.105965228,-0.491666027,-0.156560342,0.241801499,0.142058418,-0.009198244,-0.000108554
603,0.073075403,0.117967191,0.105965228,-0.491666027,-0.156560342,0.241801499,0.142058418,-0.009198244,-0.000108554
604,0.073075403,0.117967191,0.105965228,-0.491666027,-0.156560342,0.241801499,0.142058418,-0.009198244,-0.000108554
605,0.073075403,0.117967191,0.105965228,-0.491666027,-0.156560342,0.241801499,0.142058418,-0.009198244,-0.000108554
606,0.073576778,0.117957447,0.106356191,-0.494885071,-0.156889588,0.243518742,0.143813147,-0.009311625,-0.000109253
607,0.073576778,0.117957447,0.106356191,-0.494885071,-0.156889588,0.243518742,0.143813147,-0.009311625,-0.000109253
608,0.073576778,0.117957447,0.106356191,-0.494885071,-0.156889588,0.243518742,0.143813147,-0.009311625,-0.000109253
609,0.073576778,0.117957447,0.106356191,-0.494885071,-0.156889588,0.243518742,0.143813147,-0.009311625,-0.000109253
610,0.074077304,0.117945698,0.10674504,-0.498094358,-0.157203473,0.245226738,0.145569407,-0.009425114,-0.000109953
611,0.074077304,0.117945698,0.10674504,-0.498094358,-0.157203473,0.245226738,0.145569407,-0.009425114,-0.000109953
612,0.074077304,0.117945698,0.10674504,-0.498094358,-0.157203473,0.245226738,0.145569407,-0.009425114,-0.000109953
613,0.074077304,0.117945698,0.10674504,-0.498094358,-0.157203473,0.245226738,0.145569407,-0.009425114,-0.000109953
614,0.074577023,0.117931988,0.107131972,-0.501294145,-0.157502717,0.246926222,0.147327442,-0.009538729,-0.000110652
615,0.074577023,0.117931988,0.107131972,-0.501294145,-0.157502717,0.246926222,0.147327442,-0.009538729,-0.000110652
616,0.074577023,0.117931988,0.107131972,-0.501294145,-0.157502717,0.246926222,0.147327442,-0.009538729,-0.000110652
617,0.074577023,0.117931988,0.107131972,-0.501294145,-0.157502717,0.246926222,0.147327442,-0.009538729,-0.000110652
618,0.074577023,0.117931988,0.107131972,-0.501294145,-0.157502717,0.246926222,0.147327442,-0.009538729,-0.000110652
619,0.075081515,0.117916734,0.107526051,-0.504518121,-0.157806895,0.248651761,0.149111299,-0.009653975,-0.000111352
620,0.075081515,0.117916734,0.107526051,-0.504518121,-0.157806895,0.248651761,0.149111299,-0.009653975,-0.000111352
621,0.075081515,0.117916734,0.107526051,-0.504518121,-0.157806895,0.248651761,0.149111299,-0.009653975,-0.000111352
622,0.075081515,0.117916734,0.107526051,-0.504518121,-0.157806895,0.248651761,0.149111299,-0.009653975,-0.000111352
623,0.075584921,0.117899446,0.107917548,-0.507731098,-0.158094644,0.250366426,0.150895513,-0.009769257,-0.000112052
624,0.075584921,0.117899446,0.107917548,-0.507731098,-0.158094644,0.250366426,0.150895513,-0.009769257,-0.000112052
625,0.075584921,0.117899446,0.107917548,-0.507731098,-0.158094644,0.250366426,0.150895513,-0.009769257,-0.000112052
626,0.075584921,0.117899446,0.107917548,-0.507731098,-0.158094644,0.250366426,0.150895513,-0.009769257,-0.000112052
627,0.076087297,0.117880173,0.108306715,-0.510933417,-0.158366849,0.252071148,0.152680428,-0.009884596,-0.000112751
628,0.076087297,0.117880173,0.108306715,-0.510933417,-0.158366849,0.252071148,0.152680428,-0.009884596,-0.000112751
629,0.076087297,0.117880173,0.108306715,-0.510933417,-0.158366849,0.252071148,0.152680428,-0.009884596,-0.000112751
630,0.076087297,0.117880173,0.108306715,-0.510933417,-0.158366849,0.252071148,0.152680428,-0.009884596,-0.000112751
631,0.076087297,0.117880173,0.108306715,-0.510933417,-0.158366849,0.252071148,0.152680428,-0.009884596,-0.000112751
632,0.076594245,0.117859256,0.108702737,-0.51415879,-0.158643001,0.25380076,0.154490532,-0.010001527,-0.000113451
633,0.076594245,0.117859256,0.108702737,-0.51415879,-0.158643001,0.25380076,0.154490532,-0.010001527,-0.000113451
634,0.076594245,0.117859256,0.108702737,-0.51415879,-0.158643001,0.25380076,0.154490532,-0.010001527,-0.000113451
635,0.076594245,0.117859256,0.108702737,-0.51415879,-0.158643001,0.25380076,0.154490532,-0.010001527,-0.000113451
636,0.077099911,0.117836299,0.109095835,-0.517372158,-0.158902073,0.255518345,0.156300034,-0.010118433,-0.00011415
637,0.077099911,0.117836299,0.109095835,-0.517372158,-0.158902073,0.255518345,0.156300034,-0.010118433,-0.00011415
638,0.077099911,0.117836299,0.109095835,-0.517372158,-0.158902073,0.255518345,0.156300034,-0.010118433,-0.00011415
639,0.077099911,0.117836299,0.109095835,-0.517372158,-0.158902073,0.255518345,0.156300034,-0.010118433,-0.00011415
640,0.077604366,0.117811358,0.109486302,-0.520573932,-0.15914507,0.257224976,0.158109358,-0.01023534,-0.00011485
641,0.077604366,0.117811358,0.109486302,-0.520573932,-0.15914507,0.257224976,0.158109358,-0.01023534,-0.00011485
642,0.077604366,0.117811358,0.109486302,-0.520573932,-0.15914507,0.257224976,0.158109358,-0.01023534,-0.00011485
643,0.077604366,0.117811358,0.109486302,-0.520573932,-0.15914507,0.257224976,0.158109358,-0.01023534,-0.00011485
644,0.078107675,0.11778448,0.109874403,-0.523764498,-0.159372892,0.258921622,0.159918887,-0.010352273,-0.000115549
645,0.078107675,0.11778448,0.109874403,-0.523764498,-0.159372892,0.258921622,0.159918887,-0.010352273,-0.000115549
646,0.078107675,0.11778448,0.109874403,-0.523764498,-0.159372892,0.258921622,0.159918887,-0.010352273,-0.000115549
647,0.078107675,0.11778448,0.109874403,-0.523764498,-0.159372892,0.258921622,0.159918887,-0.010352273,-0.000115549
648,0.078107675,0.11778448,0.109874403,-0.523764498,-0.159372892,0.258921622,0.159918887,-0.010352273,-0.000115549
649,0.07861545,0.117755891,0.110269428,-0.526977524,-0.159604721,0.260643269,0.161753609,-0.010470798,-0.000116249
650,0.07861545,0.117755891,0.110269428,-0.526977524,-0.159604721,0.260643269,0.161753609,-0.010470798,-0.000116249
651,0.07861545,0.117755891,0.110269428,-0.526977524,-0.159604721,0.260643269,0.161753609,-0.010470798,-0.000116249
652,0.07861545,0.117755891,0.110269428,-0.526977524,-0.159604721,0.260643269,0.161753609,-0.010470798,-0.000116249
653,0.079121837,0.117725317,0.110661484,-0.530178078,-0.159819823,0.262352847,0.163587236,-0.010589267,-0.000116949
654,0.079121837,0.117725317,0.110661484,-0.530178078,-0.159819823,0.262352847,0.163587236,-0.010589267,-0.000116949
655,0.079121837,0.117725317,0.110661484,-0.530178078,-0.159819823,0.262352847,0.163587236,-0.010589267,-0.000116949
656,0.079121837,0.117725317,0.110661484,-0.530178078,-0.159819823,0.262352847,0.163587236,-0.010589267,-0.000116949
657,0.079626914,0.117692811,0.111050878,-0.533366609,-0.160019217,0.264051468,0.165420232,-0.010707708,-0.000117648
658,0.079626914,0.117692811,0.111050878,-0.533366609,-0.160019217,0.264051468,0.165420232,-0.010707708,-0.000117648
659,0.079626914,0.117692811,0.111050878,-0.533366609,-0.160019217,0.264051468,0.165420232,-0.010707708,-0.000117648
660,0.079626914,0.117692811,0.111050878,-0.533366609,-0.160019217,0.264051468,0.165420232,-0.010707708,-0.000117648
661,0.079626914,0.117692811,0.111050878,-0.533366609,-0.160019217,0.264051468,0.165420232,-0.010707708,-0.000117648
662,0.080136304,0.117658515,0.111447004,-0.536576774,-0.160221946,0.265774325,0.167277993,-0.010827715,-0.000118348
663,0.080136304,0.117658515,0.111447004,-0.536576774,-0.160221946,0.265774325,0.167277993,-0.010827715,-0.000118348
664,0.080136304,0.117658515,0.111447004,-0.536576774,-0.160221946,0.265774325,0.167277993,-0.010827715,-0.000118348
665,0.080136304,0.117658515,0.111447004,-0.536576774,-0.160221946,0.265774325,0.167277993,-0.010827715,-0.000118348
666,0.080644163,0.117622253,0.111839917,-0.539773768,-0.16040759,0.267484338,0.169133911,-0.010947617,-0.000119048
667,0.080644163,0.117622253,0.111839917,-0.539773768,-0.16040759,0.267484338,0.169133911,-0.010947617,-0.000119048
668,0.080644163,0.117622253,0.111839917,-0.539773768,-0.16040759,0.267484338,0.169133911,-0.010947617,-0.000119048
669,0.080644163,0.117622253,0.111839917,-0.539773768,-0.16040759,0.267484338,0.169133911,-0.010947617,-0.000119048
670,0.081150579,0.117584079,0.112229955,-0.54295809,-0.16057725,0.26918273,0.170988515,-0.01106745,-0.000119748
671,0.081150579,0.117584079,0.112229955,-0.54295809,-0.16057725,0.26918273,0.170988515,-0.01106745,-0.000119748
672,0.081150579,0.117584079,0.112229955,-0.54295809,-0.16057725,0.26918273,0.170988515,-0.01106745,-0.000119748
673,0.081150579,0.117584079,0.112229955,-0.54295809,-0.16057725,0.26918273,0.170988515,-0.01106745,-0.000119748
674,0.081150579,0.117584079,0.112229955,-0.54295809,-0.16057725,0.26918273,0.170988515,-0.01106745,-0.000119748
675,0.08166118,0.117544048,0.112626606,-0.54616337,-0.160749797,0.270904858,0.17286759,-0.011188828,-0.000120448
676,0.08166118,0.117544048,0.112626606,-0.54616337,-0.160749797,0.270904858,0.17286759,-0.011188828,-0.000120448
677,0.08166118,0.117544048,0.112626606,-0.54616337,-0.160749797,0.270904858,0.17286759,-0.011188828,-0.000120448
678,0.08166118,0.117544048,0.112626606,-0.54616337,-0.160749797,0.270904858,0.17286759,-0.011188828,-0.000120448
679,0.082170133,0.117502081,0.113019866,-0.549354925,-0.1609051,0.272613617,0.174744204,-0.011310065,-0.000121149
680,0.082170133,0.117502081,0.113019866,-0.549354925,-0.1609051,0.272613617,0.174744204,-0.011310065,-0.000121149
681,0.082170133,0.117502081,0.113019866,-0.549354925,-0.1609051,0.272613617,0.174744204,-0.011310065,-0.000121149
682,0.082170133,0.117502081,0.113019866,-0.549354925,-0.1609051,0.272613617,0.174744204,-0.011310065,-0.000121149
683,0.082677534,0.117458231,0.113410098,-0.552533296,-0.161044324,0.274310309,0.176618942,-0.011431195,-0.000121849
684,0.082677534,0.117458231,0.113410098,-0.552533296,-0.161044324,0.274310309,0.176618942,-0.011431195,-0.000121849
685,0.082677534,0.117458231,0.113410098,-0.552533296,-0.161044324,0.274310309,0.176618942,-0.011431195,-0.000121849
686,0.082677534,0.117458231,0.113410098,-0.552533296,-0.161044324,0.274310309,0.176618942,-0.011431195,-0.000121849
687,0.082677534,0.117458231,0.113410098,-0.552533296,-0.161044324,0.274310309,0.176618942,-0.011431195,-0.000121849
688,0.083189013,0.117412467,0.113806877,-0.555732074,-0.161186137,0.27603043,0.17851796,-0.011553859,-0.00012255
689,0.083189013,0.117412467,0.113806877,-0.555732074,-0.161186137,0.27603043,0.17851796,-0.011553859,-0.00012255
690,0.083189013,0.117412467,0.113806877,-0.555732074,-0.161186137,0.27603043,0.17851796,-0.011553859,-0.00012255
691,0.083189013,0.117412467,0.113806877,-0.555732074,-0.161186137,0.27603043,0.17851796,-0.011553859,-0.00012255
692,0.083698749,0.117364803,0.114200135,-0.558916693,-0.161310686,0.277736833,0.180414002,-0.011676349,-0.00012325
693,0.083698749,0.117364803,0.114200135,-0.558916693,-0.161310686,0.277736833,0.180414002,-0.011676349,-0.00012325
694,0.083698749,0.117364803,0.114200135,-0.558916693,-0.161310686,0.277736833,0.180414002,-0.011676349,-0.00012325
695,0.083698749,0.117364803,0.114200135,-0.558916693,-0.161310686,0.277736833,0.180414002,-0.011676349,-0.00012325
696,0.084206843,0.117315294,0.114590256,-0.56208773,-0.161419178,0.279430885,0.182307703,-0.011798703,-0.000123951
697,0.084206843,0.117315294,0.114590256,-0.56208773,-0.161419178,0.279430885,0.182307703,-0.011798703,-0.000123951
698,0.084206843,0.117315294,0.114590256,-0.56208773,-0.161419178,0.279430885,0.182307703,-0.011798703,-0.000123951
699,0.084206843,0.117315294,0.114590256,-0.56208773,-0.161419178,0.279430885,0.182307703,-0.011798703,-0.000123951
700,0.084206843,0.117315294,0.114590256,-0.56208773,-0.161419178,0.279430885,0.182307703,-0.011798703,-0.000123951
701,0.084718925,0.117263818,0.114986893,-0.565278723,-0.161530061,0.281148194,0.184225569,-0.011922583,-0.000124652
702,0.084718925,0.117263818,0.114986893,-0.565278723,-0.161530061,0.281148194,0.184225569,-0.011922583,-0.000124652
703,0.084718925,0.117263818,0.114986893,-0.565278723,-0.161530061,0.281148194,0.184225569,-0.011922583,-0.000124652
704,0.084718925,0.117263818,0.114986893,-0.565278723,-0.161530061,0.281148194,0.184225569,-0.011922583,-0.000124652
705,0.085229187,0.117210485,0.115379913,-0.568455224,-0.161623751,0.282851566,0.186140028,-0.012046262,-0.000125353
706,0.085229187,0.117210485,0.115379913,-0.568455224,-0.161623751,0.282851566,0.186140028,-0.012046262,-0.000125353
707,0.085229187,0.117210485,0.115379913,-0.568455224,-0.161623751,0.282851566,0.186140028,-0.012046262,-0.000125353
708,0.085229187,0.117210485,0.115379913,-0.568455224,-0.161623751,0.282851566,0.186140028,-0.012046262,-0.000125353
709,0.085737735,0.117155346,0.115769719,-0.571617839,-0.161701486,0.284542417,0.188051753,-0.012169781,-0.000126054
710,0.085737735,0.117155346,0.115769719,-0.571617839,-0.161701486,0.284542417,0.188051753,-0.012169781,-0.000126054
711,0.085737735,0.117155346,0.115769719,-0.571617839,-0.161701486,0.284542417,0.188051753,-0.012169781,-0.000126054
712,0.085737735,0.117155346,0.115769719,-0.571617839,-0.161701486,0.284542417,0.188051753,-0.012169781,-0.000126054
713,0.085737735,0.117155346,0.115769719,-0.571617839,-0.161701486,0.284542417,0.188051753,-0.012169781,-0.000126054
714,0.086250193,0.117098191,0.116166034,-0.574800042,-0.161781476,0.286256447,0.189987592,-0.012294822,-0.000126756
715,0.086250193,0.117098191,0.116166034,-0.574800042,-0.161781476,0.286256447,0.189987592,-0.012294822,-0.000126756
716,0.086250193,0.117098191,0.116166034,-0.574800042,-0.161781476,0.286256447,0.189987592,-0.012294822,-0.000126756
717,0.086250193,0.117098191,0.116166034,-0.574800042,-0.161781476,0.286256447,0.189987592,-0.012294822,-0.000126756
718,0.086760767,0.117039225,0.116558662,-0.577967503,-0.161844403,0.287956413,0.191919656,-0.012419637,-0.000127457
719,0.086760767,0.117039225,0.116558662,-0.577967503,-0.161844403,0.287956413,0.191919656,-0.012419637,-0.000127457
720,0.086760767,0.117039225,0.116558662,-0.577967503,-0.161844403,0.287956413,0.191919656,-0.012419637,-0.000127457
721,0.086760767,0.117039225,0.116558662,-0.577967503,-0.161844403,0.287956413,0.191919656,-0.012419637,-0.000127457
722,0.087269568,0.116978496,0.11694802,-0.581120853,-0.161891523,0.28964377,0.193848655,-0.012544273,-0.000128159
723,0.087269568,0.116978496,0.11694802,-0.581120853,-0.161891523,0.28964377,0.193848655,-0.012544273,-0.000128159
724,0.087269568,0.116978496,0.11694802,-0.581120853,-0.161891523,0.28964377,0.193848655,-0.012544273,-0.000128159
725,0.087269568,0.116978496,0.11694802,-0.581120853,-0.161891523,0.28964377,0.193848655,-0.012544273,-0.000128159
726,0.087269568,0.116978496,0.11694802,-0.581120853,-0.161891523,0.28964377,0.193848655,-0.012544273,-0.000128159
727,0.087782212,0.116915705,0.117343898,-0.58429349,-0.161940803,0.291354293,0.195801762,-0.01267043,-0.000128861
728,0.087782212,0.116915705,0.117343898,-0.58429349,-0.161940803,0.291354293,0.195801762,-0.01267043,-0.000128861
729,0.087782212,0.116915705,0.117343898,-0.58429349,-0.161940803,0.291354293,0.195801762,-0.01267043,-0.000128861
730,0.087782212,0.116915705,0.117343898,-0.58429349,-0.161940803,0.291354293,0.195801762,-0.01267043,-0.000128861
731,0.088292922,0.116851149,0.117736036,-0.587451208,-0.161973182,0.293050692,0.19775078,-0.012796342,-0.000129563
732,0.088292922,0.116851149,0.117736036,-0.587451208,-0.161973182,0.293050692,0.19775078,-0.012796342,-0.000129563
733,0.088292922,0.116851149,0.117736036,-0.587451208,-0.161973182,0.293050692,0.19775078,-0.012796342,-0.000129563
734,0.088292922,0.116851149,0.117736036,-0.587451208,-0.161973182,0.293050692,0.19775078,-0.012796342,-0.000129563
735,0.088292922,0.116851149,0.117736036,-0.587451208,-0.161973182,0.293050692,0.19775078,-0.012796342,-0.000129563
736,0.088807316,0.116784473,0.11813432,-0.590627396,-0.162006616,0.294768956,0.199723173,-0.012923729,-0.000130265
737,0.088807316,0.116784473,0.11813432,-0.590627396,-0.162006616,0.294768956,0.199723173,-0.012923729,-0.000130265
738,0.088807316,0.116784473,0.11813432,-0.590627396,-0.162006616,0.294768956,0.199723173,-0.012923729,-0.000130265
739,0.088807316,0.116784473,0.11813432,-0.590627396,-0.162006616,0.294768956,0.199723173,-0.012923729,-0.000130265
740,0.089319639,0.116716043,0.118528494,-0.593787971,-0.16202236,0.296471918,0.201690617,-0.013050817,-0.000130968
741,0.089319639,0.116716043,0.118528494,-0.593787971,-0.16202236,0.296471918,0.201690617,-0.013050817,-0.000130968
742,0.089319639,0.116716043,0.118528494,-0.593787971,-0.16202236,0.296471918,0.201690617,-0.013050817,-0.000130968
743,0.089319639,0.116716043,0.118528494,-0.593787971,-0.16202236,0.296471918,0.201690617,-0.013050817,-0.000130968
744,0.089830014,0.116645907,0.118919035,-0.596933627,-0.162021819,0.298161218,0.203653939,-0.013177658,-0.00013167
745,0.089830014,0.116645907,0.118919035,-0.596933627,-0.162021819,0.298161218,0.203653939,-0.013177658,-0.00013167
746,0.089830014,0.116645907,0.118919035,-0.596933627,-0.162021819,0.298161218,0.203653939,-0.013177658,-0.00013167
747,0.089830014,0.116645907,0.118919035,-0.596933627,-0.162021819,0.298161218,0.203653939,-0.013177658,-0.00013167
748,0.089830014,0.116645907,0.118919035,-0.596933627,-0.162021819,0.298161218,0.203653939,-0.013177658,-0.00013167
749,0.090344043,0.116573619,0.119315871,-0.600097657,-0.162022632,0.299872848,0.205640887,-0.01330599,-0.000132373
750,0.090344043,0.116573619,0.119315871,-0.600097657,-0.162022632,0.299872848,0.205640887,-0.01330599,-0.000132373
751,0.090344043,0.116573619,0.119315871,-0.600097657,-0.162022632,0.299872848,0.205640887,-0.01330599,-0.000132373
752,0.090344043,0.116573619,0.119315871,-0.600097657,-0.162022632,0.299872848,0.205640887,-0.01330599,-0.000132373
753,0.09085599,0.116499635,0.119708672,-0.603246093,-0.162006274,0.301569548,0.207622817,-0.013434018,-0.000133077
754,0.09085599,0.116499635,0.119708672,-0.603246093,-0.162006274,0.301569548,0.207622817,-0.013434018,-0.000133077
755,0.09085599,0.116499635,0.119708672,-0.603246093,-0.162006274,0.301569548,0.207622817,-0.013434018,-0.000133077
756,0.09085599,0.116499635,0.119708672,-0.603246093,-0.162006274,0.301569548,0.207622817,-0.013434018,-0.000133077
757,0.091365977,0.116424,0.120097912,-0.606379632,-0.161974115,0.303252942,0.209600564,-0.013561796,-0.00013378
758,0.091365977,0.116424,0.120097912,-0.606379632,-0.161974115,0.303252942,0.209600564,-0.013561796,-0.00013378
759,0.091365977,0.116424,0.120097912,-0.606379632,-0.161974115,0.303252942,0.209600564,-0.013561796,-0.00013378
760,0.091365977,0.116424,0.120097912,-0.606379632,-0.161974115,0.303252942,0.209600564,-0.013561796,-0.00013378
761,0.091365977,0.116424,0.120097912,-0.606379632,-0.161974115,0.303252942,0.209600564,-0.013561796,-0.00013378
762,0.091879587,0.116346174,0.120493564,-0.609531468,-0.161943492,0.304959025,0.211602155,-0.013691077,-0.000134484
763,0.091879587,0.116346174,0.120493564,-0.609531468,-0.161943492,0.304959025,0.211602155,-0.013691077,-0.000134484
764,0.091879587,0.116346174,0.120493564,-0.609531468,-0.161943492,0.304959025,0.211602155,-0.013691077,-0.000134484
765,0.091879587,0.116346174,0.120493564,-0.609531468,-0.161943492,0.304959025,0.211602155,-0.013691077,-0.000134484
766,0.092391105,0.116266707,0.120885229,-0.612667748,-0.16189611,0.306650466,0.21359864,-0.013820049,-0.000135188
767,0.092391105,0.116266707,0.120885229,-0.612667748,-0.16189611,0.306650466,0.21359864,-0.013820049,-0.000135188
768,0.092391105,0.116266707,0.120885229,-0.612667748,-0.16189611,0.306650466,0.21359864,-0.013820049,-0.000135188
769,0.092391105,0.116266707,0.120885229,-0.612667748,-0.16189611,0.306650466,0.21359864,-0.013820049,-0.000135188
770,0.092900654,0.116185639,0.121273381,-0.615789175,-0.16183332,0.308328878,0.215590866,-0.013948766,-0.000135892
771,0.092900654,0.116185639,0.121273381,-0.615789175,-0.16183332,0.308328878,0.215590866,-0.013948766,-0.000135892
772,0.092900654,0.116185639,0.121273381,-0.615789175,-0.16183332,0.308328878,0.215590866,-0.013948766,-0.000135892
773,0.092900654,0.116185639,0.121273381,-0.615789175,-0.16183332,0.308328878,0.215590866,-0.013948766,-0.000135892
774,0.092900654,0.116185639,0.121273381,-0.615789175,-0.16183332,0.308328878,0.215590866,-0.013948766,-0.000135892
775,0.093413795,0.11610234,0.121668037,-0.618928834,-0.161772159,0.310030265,0.217607131,-0.014078999,-0.000136596
776,0.093413795,0.11610234,0.121668037,-0.618928834,-0.161772159,0.310030265,0.217607131,-0.014078999,-0.000136596
777,0.093413795,0.11610234,0.121668037,-0.618928834,-0.161772159,0.310030265,0.217607131,-0.014078999,-0.000136596
778,0.093413795,0.11610234,0.121668037,-0.618928834,-0.161772159,0.310030265,0.217607131,-0.014078999,-0.000136596
779,0.093924838,0.116017451,0.122058735,-0.622052997,-0.161694577,0.311717239,0.219618192,-0.014208916,-0.000137301
780,0.093924838,0.116017451,0.122058735,-0.622052997,-0.161694577,0.311717239,0.219618192,-0.014208916,-0.000137301
781,0.093924838,0.116017451,0.122058735,-0.622052997,-0.161694577,0.311717239,0.219618192,-0.014208916,-0.000137301
782,0.093924838,0.116017451,0.122058735,-0.622052997,-0.161694577,0.311717239,0.219618192,-0.014208916,-0.000137301
783,0.094433905,0.11593101,0.122445952,-0.625162368,-0.16160191,0.31339141,0.22162491,-0.014338572,-0.000138006
784,0.094433905,0.11593101,0.122445952,-0.625162368,-0.16160191,0.31339141,0.22162491,-0.014338572,-0.000138006
785,0.094433905,0.11593101,0.122445952,-0.625162368,-0.16160191,0.31339141,0.22162491,-0.014338572,-0.000138006
786,0.094433905,0.11593101,0.122445952,-0.625162368,-0.16160191,0.31339141,0.22162491,-0.014338572,-0.000138006
787,0.094433905,0.11593101,0.122445952,-0.625162368,-0.16160191,0.31339141,0.22162491,-0.014338572,-0.000138006
788,0.094946534,0.115842293,0.122839747,-0.628289918,-0.161510901,0.315088787,0.223655847,-0.014469755,-0.000138711
789,0.094946534,0.115842293,0.122839747,-0.628289918,-0.161510901,0.315088787,0.223655847,-0.014469755,-0.000138711
790,0.094946534,0.115842293,0.122839747,-0.628289918,-0.161510901,0.315088787,0.223655847,-0.014469755,-0.000138711
791,0.094946534,0.115842293,0.122839747,-0.628289918,-0.161510901,0.315088787,0.223655847,-0.014469755,-0.000138711
792,0.09545706,0.115752037,0.123229601,-0.631402049,-0.161403754,0.31677194,0.225681479,-0.014600616,-0.000139417
793,0.09545706,0.115752037,0.123229601,-0.631402049,-0.161403754,0.31677194,0.225681479,-0.014600616,-0.000139417
794,0.09545706,0.115752037,0.123229601,-0.631402049,-0.161403754,0.31677194,0.225681479,-0.014600616,-0.000139417
795,0.09545706,0.115752037,0.123229601,-0.631402049,-0.161403754,0.31677194,0.225681479,-0.014600616,-0.000139417
796,0.095965606,0.115660273,0.123615992,-0.634499465,-0.161281795,0.31844248,0.227702682,-0.01473121,-0.000140123
797,0.095965606,0.115660273,0.123615992,-0.634499465,-0.161281795,0.31844248,0.227702682,-0.01473121,-0.000140123
798,0.095965606,0.115660273,0.123615992,-0.634499465,-0.161281795,0.31844248,0.227702682,-0.01473121,-0.000140123
799,0.095965606,0.115660273,0.123615992,-0.634499465,-0.161281795,0.31844248,0.227702682,-0.01473121,-0.000140123
800,0.095965606,0.115660273,0.123615992,-0.634499465,-0.161281795,0.31844248,0.227702682,-0.01473121,-0.000140123
801,0.096477684,0.11556619,0.124009024,-0.637615017,-0.161161475,0.320136419,0.229748273,-0.014863342,-0.000140829
802,0.096477684,0.11556619,0.124009024,-0.637615017,-0.161161475,0.320136419,0.229748273,-0.014863342,-0.000140829
803,0.096477684,0.11556619,0.124009024,-0.637615017,-0.161161475,0.320136419,0.229748273,-0.014863342,-0.000140829
804,0.096477684,0.11556619,0.124009024,-0.637615017,-0.161161475,0.320136419,0.229748273,-0.014863342,-0.000140829
805,0.096987658,0.115470615,0.124398121,-0.640715241,-0.161025258,0.321816297,0.23178846,-0.014995146,-0.000141536
806,0.096987658,0.115470615,0.124398121,-0.640715241,-0.161025258,0.321816297,0.23178846,-0.014995146,-0.000141536
807,0.096987658,0.115470615,0.124398121,-0.640715241,-0.161025258,0.321816297,0.23178846,-0.014995146,-0.000141536
808,0.096987658,0.115470615,0.124398121,-0.640715241,-0.161025258,0.321816297,0.23178846,-0.014995146,-0.000141536
809,0.097495651,0.115373577,0.124783768,-0.643800839,-0.160874464,0.323483726,0.233824133,-0.015126677,-0.000142242
810,0.097495651,0.115373577,0.124783768,-0.643800839,-0.160874464,0.323483726,0.233824133,-0.015126677,-0.000142242
811,0.097495651,0.115373577,0.124783768,-0.643800839,-0.160874464,0.323483726,0.233824133,-0.015126677,-0.000142242
812,0.097495651,0.115373577,0.124783768,-0.643800839,-0.160874464,0.323483726,0.233824133,-0.015126677,-0.000142242
813,0.097495651,0.115373577,0.124783768,-0.643800839,-0.160874464,0.323483726,0.233824133,-0.015126677,-0.000142242
814,0.098007146,0.115274174,0.125176106,-0.64690454,-0.160725255,0.32517472,0.235884358,-0.015259755,-0.00014295
815,0.098007146,0.115274174,0.125176106,-0.64690454,-0.160725255,0.32517472,0.235884358,-0.015259755,-0.00014295
816,0.098007146,0.115274174,0.125176106,-0.64690454,-0.160725255,0.32517472,0.235884358,-0.015259755,-0.00014295
817,0.098007146,0.115274174,0.125176106,-0.64690454,-0.160725255,0.32517472,0.235884358,-0.015259755,-0.00014295
818,0.098516539,0.115173325,0.125564511,-0.649993013,-0.160560359,0.326851796,0.237939083,-0.0153925,-0.000143657
819,0.098516539,0.115173325,0.125564511,-0.649993013,-0.160560359,0.326851796,0.237939083,-0.0153925,-0.000143657
820,0.098516539,0.115173325,0.125564511,-0.649993013,-0.160560359,0.326851796,0.237939083,-0.0153925,-0.000143657
821,0.098516539,0.115173325,0.125564511,-0.649993013,-0.160560359,0.326851796,0.237939083,-0.0153925,-0.000143657
822,0.099023951,0.115071056,0.125949471,-0.653066963,-0.160381092,0.328516574,0.239989212,-0.015524967,-0.000144365
823,0.099023951,0.115071056,0.125949471,-0.653066963,-0.160381092,0.328516574,0.239989212,-0.015524967,-0.000144365
824,0.099023951,0.115071056,0.125949471,-0.653066963,-0.160381092,0.328516574,0.239989212,-0.015524967,-0.000144365
825,0.099023951,0.115071056,0.125949471,-0.653066963,-0.160381092,0.328516574,0.239989212,-0.015524967,-0.000144365
826,0.099023951,0.115071056,0.125949471,-0.653066963,-0.160381092,0.328516574,0.239989212,-0.015524967,-0.000144365
827,0.099534836,0.114966377,0.126341168,-0.656158985,-0.160203327,0.330205061,0.242064054,-0.01565899,-0.000145073
828,0.099534836,0.114966377,0.126341168,-0.656158985,-0.160203327,0.330205061,0.242064054,-0.01565899,-0.000145073
829,0.099534836,0.114966377,0.126341168,-0.656158985,-0.160203327,0.330205061,0.242064054,-0.01565899,-0.000145073
830,0.099534836,0.114966377,0.126341168,-0.656158985,-0.160203327,0.330205061,0.242064054,-0.01565899,-0.000145073
831,0.100043623,0.114860297,0.126728928,-0.659235893,-0.160010062,0.331879762,0.244133304,-0.015792674,-0.000145782
832,0.100043623,0.114860297,0.126728928,-0.659235893,-0.160010062,0.331879762,0.244133304,-0.015792674,-0.000145782
833,0.100043623,0.114860297,0.126728928,-0.659235893,-0.160010062,0.331879762,0.244133304,-0.015792674,-0.000145782
834,0.100043623,0.114860297,0.126728928,-0.659235893,-0.160010062,0.331879762,0.244133304,-0.015792674,-0.000145782
835,0.100550433,0.114752838,0.127113247,-0.662298386,-0.159802613,0.333542303,0.246197885,-0.015926075,-0.000146491
836,0.100550433,0.114752838,0.127113247,-0.662298386,-0.159802613,0.333542303,0.246197885,-0.015926075,-0.000146491
837,0.100550433,0.114752838,0.127113247,-0.662298386,-0.159802613,0.333542303,0.246197885,-0.015926075,-0.000146491
838,0.100550433,0.114752838,0.127113247,-0.662298386,-0.159802613,0.333542303,0.246197885,-0.015926075,-0.000146491
839,0.100550433,0.114752838,0.127113247,-0.662298386,-0.159802613,0.333542303,0.246197885,-0.015926075,-0.000146491
840,0.101060685,0.114642923,0.127504339,-0.665378926,-0.159596558,0.335228682,0.248287334,-0.016061043,-0.0001472
841,0.101060685,0.114642923,0.127504339,-0.665378926,-0.159596558,0.335228682,0.248287334,-0.016061043,-0.0001472
842,0.101060685,0.114642923,0.127504339,-0.665378926,-0.159596558,0.335228682,0.248287334,-0.016061043,-0.0001472
843,0.101060685,0.114642923,0.127504339,-0.665378926,-0.159596558,0.335228682,0.248287334,-0.016061043,-0.0001472
844,0.101568846,0.114531652,0.12789149,-0.668444472,-0.159375174,0.3369014,0.250371108,-0.016195665,-0.00014791
845,0.101568846,0.114531652,0.12789149,-0.668444472,-0.159375174,0.3369014,0.250371108,-0.016195665,-0.00014791
846,0.101568846,0.114531652,0.12789149,-0.668444472,-0.159375174,0.3369014,0.250371108,-0.016195665,-0.00014791
847,0.101568846,0.114531652,0.12789149,-0.668444472,-0.159375174,0.3369014,0.250371108,-0.016195665,-0.00014791
848,0.102075034,0.114419042,0.128275199,-0.67149572,-0.159139773,0.338562091,0.252450144,-0.016330001,-0.00014862
849,0.102075034,0.114419042,0.128275199,-0.67149572,-0.159139773,0.338562091,0.252450144,-0.016330001,-0.00014862
850,0.102075034,0.114419042,0.128275199,-0.67149572,-0.159139773,0.338562091,0.252450144,-0.016330001,-0.00014862
851,0.102075034,0.114419042,0.128275199,-0.67149572,-0.159139773,0.338562091,0.252450144,-0.016330001,-0.00014862
852,0.102075034,0.114419042,0.128275199,-0.67149572,-0.159139773,0.338562091,0.252450144,-0.016330001,-0.00014862
853,0.102584636,0.11430393,0.128665715,-0.674564991,-0.158905642,0.340246735,0.254554201,-0.016465912,-0.000149331
854,0.102584636,0.11430393,0.128665715,-0.674564991,-0.158905642,0.340246735,0.254554201,-0.016465912,-0.000149331
855,0.102584636,0.11430393,0.128665715,-0.674564991,-0.158905642,0.340246735,0.254554201,-0.016465912,-0.000149331
856,0.102584636,0.11430393,0.128665715,-0.674564991,-0.158905642,0.340246735,0.254554201,-0.016465912,-0.000149331
857,0.103092155,0.114187506,0.129052284,-0.677619394,-0.158656338,0.34191784,0.256652508,-0.016601472,-0.000150042
858,0.103092155,0.114187506,0.129052284,-0.677619394,-0.158656338,0.34191784,0.256652508,-0.016601472,-0.000150042
859,0.103092155,0.114187506,0.129052284,-0.677619394,-0.158656338,0.34191784,0.256652508,-0.016601472,-0.000150042
860,0.103092155,0.114187506,0.129052284,-0.677619394,-0.158656338,0.34191784,0.256652508,-0.016601472,-0.000150042
861,0.103597708,0.114069782,0.129435409,-0.680659619,-0.158393171,0.343577045,0.258746016,-0.016736743,-0.000150753
862,0.103597708,0.114069782,0.129435409,-0.680659619,-0.158393171,0.343577045,0.258746016,-0.016736743,-0.000150753
863,0.103597708,0.114069782,0.129435409,-0.680659619,-0.158393171,0.343577045,0.258746016,-0.016736743,-0.000150753
864,0.103597708,0.114069782,0.129435409,-0.680659619,-0.158393171,0.343577045,0.258746016,-0.016736743,-0.000150753
865,0.103597708,0.114069782,0.129435409,-0.680659619,-0.158393171,0.343577045,0.258746016,-0.016736743,-0.000150753
866,0.104106645,0.11394951,0.12982537,-0.683717845,-0.158131137,0.34526031,0.260864696,-0.016873597,-0.000151465
867,0.104106645,0.11394951,0.12982537,-0.683717845,-0.158131137,0.34526031,0.260864696,-0.016873597,-0.000151465
868,0.104106645,0.11394951,0.12982537,-0.683717845,-0.158131137,0.34526031,0.260864696,-0.016873597,-0.000151465
869,0.104106645,0.11394951,0.12982537,-0.683717845,-0.158131137,0.34526031,0.260864696,-0.016873597,-0.000151465
870,0.104613509,0.113827968,0.130211376,-0.686761334,-0.157854072,0.346930155,0.262977557,-0.017010097,-0.000152177
871,0.104613509,0.113827968,0.130211376,-0.686761334,-0.157854072,0.346930155,0.262977557,-0.017010097,-0.000152177
872,0.104613509,0.113827968,0.130211376,-0.686761334,-0.157854072,0.346930155,0.262977557,-0.017010097,-0.000152177
873,0.104613509,0.113827968,0.130211376,-0.686761334,-0.157854072,0.346930155,0.262977557,-0.017010097,-0.000152177
874,0.105118416,0.113705166,0.130593937,-0.68979077,-0.157563289,0.348588224,0.265085564,-0.017146303,-0.000152889
875,0.105118416,0.113705166,0.130593937,-0.68979077,-0.157563289,0.348588224,0.265085564,-0.017146303,-0.000152889
876,0.105118416,0.113705166,0.130593937,-0.68979077,-0.157563289,0.348588224,0.265085564,-0.017146303,-0.000152889
877,0.105118416,0.113705166,0.130593937,-0.68979077,-0.157563289,0.348588224,0.265085564,-0.017146303,-0.000152889
878,0.105621473,0.11358111,0.130973494,-0.692806801,-0.157259911,0.350235961,0.267189575,-0.017282269,-0.000153603
879,0.105621473,0.11358111,0.130973494,-0.692806801,-0.157259911,0.350235961,0.267189575,-0.017282269,-0.000153603
880,0.105621473,0.11358111,0.130973494,-0.692806801,-0.157259911,0.350235961,0.267189575,-0.017282269,-0.000153603
881,0.105621473,0.11358111,0.130973494,-0.692806801,-0.157259911,0.350235961,0.267189575,-0.017282269,-0.000153603
882,0.105621473,0.11358111,0.130973494,-0.692806801,-0.157259911,0.350235961,0.267189575,-0.017282269,-0.000153603
883,0.106127968,0.113454439,0.131360307,-0.695841365,-0.156958374,0.351909108,0.269319739,-0.017419881,-0.000154316
884,0.106127968,0.113454439,0.131360307,-0.695841365,-0.156958374,0.351909108,0.269319739,-0.017419881,-0.000154316
885,0.106127968,0.113454439,0.131360307,-0.695841365,-0.156958374,0.351909108,0.269319739,-0.017419881,-0.000154316
886,0.106127968,0.113454439,0.131360307,-0.695841365,-0.156958374,0.351909108,0.269319739,-0.017419881,-0.000154316
887,0.106632497,0.113326543,0.131743487,-0.698861904,-0.156642756,0.353570054,0.271444699,-0.017557176,-0.00015503
888,0.106632497,0.113326543,0.131743487,-0.698861904,-0.156642756,0.353570054,0.271444699,-0.017557176,-0.00015503
889,0.106632497,0.113326543,0.131743487,-0.698861904,-0.156642756,0.353570054,0.271444699,-0.017557176,-0.00015503
890,0.106632497,0.113326543,0.131743487,-0.698861904,-0.156642756,0.353570054,0.271444699,-0.017557176,-0.00015503
891,0.107135166,0.113197429,0.132123507,-0.701869064,-0.156314247,0.355220316,0.273565362,-0.017694212,-0.000155744
892,0.107135166,0.113197429,0.132123507,-0.701869064,-0.156314247,0.355220316,0.273565362,-0.017694212,-0.000155744
893,0.107135166,0.113197429,0.132123507,-0.701869064,-0.156314247,0.355220316,0.273565362,-0.017694212,-0.000155744
894,0.107135166,0.113197429,0.132123507,-0.701869064,-0.156314247,0.355220316,0.273565362,-0.017694212,-0.000155744
895,0.107135166,0.113197429,0.132123507,-0.701869064,-0.156314247,0.355220316,0.273565362,-0.017694212,-0.000155744
896,0.107641224,0.113065652,0.13251067,-0.704894636,-0.15598705,0.356895665,0.275712099,-0.017832888,-0.000156459
897,0.107641224,0.113065652,0.13251067,-0.704894636,-0.15598705,0.356895665,0.275712099,-0.017832888,-0.000156459
898,0.107641224,0.113065652,0.13251067,-0.704894636,-0.15598705,0.356895665,0.275712099,-0.017832888,-0.000156459
899,0.107641224,0.113065652,0.13251067,-0.704894636,-0.15598705,0.356895665,0.275712099,-0.017832888,-0.000156459
900,0.108145314,0.112932689,0.132894075,-0.707906232,-0.155645579,0.358558571,0.277853382,-0.017971232,-0.000157175
901,0.108145314,0.112932689,0.132894075,-0.707906232,-0.155645579,0.358558571,0.277853382,-0.017971232,-0.000157175
902,0.108145314,0.112932689,0.132894075,-0.707906232,-0.155645579,0.358558571,0.277853382,-0.017971232,-0.000157175
903,0.108145314,0.112932689,0.132894075,-0.707906232,-0.155645579,0.358558571,0.277853382,-0.017971232,-0.000157175
904,0.10864754,0.112798544,0.133274215,-0.710904495,-0.15529107,0.360210604,0.279990153,-0.018109304,-0.00015789
905,0.10864754,0.112798544,0.133274215,-0.710904495,-0.15529107,0.360210604,0.279990153,-0.018109304,-0.00015789
906,0.10864754,0.112798544,0.133274215,-0.710904495,-0.15529107,0.360210604,0.279990153,-0.018109304,-0.00015789
907,0.10864754,0.112798544,0.133274215,-0.710904495,-0.15529107,0.360210604,0.279990153,-0.018109304,-0.00015789
908,0.109148001,0.112663215,0.133651518,-0.713890036,-0.154924573,0.361853137,0.282123252,-0.018247155,-0.000158607
909,0.109148001,0.112663215,0.133651518,-0.713890036,-0.154924573,0.361853137,0.282123252,-0.018247155,-0.000158607
910,0.109148001,0.112663215,0.133651518,-0.713890036,-0.154924573,0.361853137,0.282123252,-0.018247155,-0.000158607
911,0.109148001,0.112663215,0.133651518,-0.713890036,-0.154924573,0.361853137,0.282123252,-0.018247155,-0.000158607
912,0.109148001,0.112663215,0.133651518,-0.713890036,-0.154924573,0.361853137,0.282123252,-0.018247155,-0.000158607
913,0.109651883,0.112525149,0.134036269,-0.716894403,-0.154559777,0.363521751,0.284283218,-0.018386696,-0.000159324
914,0.109651883,0.112525149,0.134036269,-0.716894403,-0.154559777,0.363521751,0.284283218,-0.018386696,-0.000159324
915,0.109651883,0.112525149,0.134036269,-0.716894403,-0.154559777,0.363521751,0.284283218,-0.018386696,-0.000159324
916,0.109651883,0.112525149,0.134036269,-0.716894403,-0.154559777,0.363521751,0.284283218,-0.018386696,-0.000159324
917,0.110153886,0.112385937,0.134417496,-0.719885406,-0.154181381,0.365178848,0.286438208,-0.018525934,-0.000160041
918,0.110153886,0.112385937,0.134417496,-0.719885406,-0.154181381,0.365178848,0.286438208,-0.018525934,-0.000160041
919,0.110153886,0.112385937,0.134417496,-0.719885406,-0.154181381,0.365178848,0.286438208,-0.018525934,-0.000160041
920,0.110153886,0.112385937,0.134417496,-0.719885406,-0.154181381,0.365178848,0.286438208,-0.018525934,-0.000160041
921,0.110654109,0.112245576,0.134795663,-0.722863655,-0.153790531,0.366825906,0.288589122,-0.018664927,-0.000160759
922,0.110654109,0.112245576,0.134795663,-0.722863655,-0.153790531,0.366825906,0.288589122,-0.018664927,-0.000160759
923,0.110654109,0.112245576,0.134795663,-0.722863655,-0.153790531,0.366825906,0.288589122,-0.018664927,-0.000160759
924,0.110654109,0.112245576,0.134795663,-0.722863655,-0.153790531,0.366825906,0.288589122,-0.018664927,-0.000160759
925,0.111152642,0.112104063,0.135171175,-0.725829727,-0.153388201,0.368464212,0.290736761,-0.018803724,-0.000161477
926,0.111152642,0.112104063,0.135171175,-0.725829727,-0.153388201,0.368464212,0.290736761,-0.018803724,-0.000161477
927,0.111152642,0.112104063,0.135171175,-0.725829727,-0.153388201,0.368464212,0.290736761,-0.018803724,-0.000161477
928,0.111152642,0.112104063,0.135171175,-0.725829727,-0.153388201,0.368464212,0.290736761,-0.018803724,-0.000161477
929,0.111649571,0.11196139,0.13554438,-0.728784166,-0.152975215,0.370094891,0.292881838,-0.018942371,-0.000162196
930,0.111649571,0.11196139,0.13554438,-0.728784166,-0.152975215,0.370094891,0.292881838,-0.018942371,-0.000162196
931,0.111649571,0.11196139,0.13554438,-0.728784166,-0.152975215,0.370094891,0.292881838,-0.018942371,-0.000162196
932,0.111649571,0.11196139,0.13554438,-0.728784166,-0.152975215,0.370094891,0.292881838,-0.018942371,-0.000162196
933,0.111649571,0.11196139,0.13554438,-0.728784166,-0.152975215,0.370094891,0.292881838,-0.018942371,-0.000162196
934,0.112149996,0.111815875,0.135925518,-0.731758198,-0.152564572,0.371753224,0.295055049,-0.019082786,-0.000162916
