tc-huang/low_cost_robot/result/circle.csv
,x,y,z,j0,j1,j2,j3,j4,j5

2,0.004987803611124326,0.18560156042240505,0.1329666479245527,0.020145783829279187,0.040735568157514467,0.5002019600043371,0.40405767106066354,-0.025571458569714604,-2.7949648471203123e-07

3,-0.00030350330783932185,0.198628321863211,0.15077999487875215,0.04546362900506488,0.08056152190873314,0.5867387586994666,0.5195941047264719,-0.032924461497914864,-3.967282748464665e-07

4,2.6613883605608804e-06,0.1999967430323436,0.1499939391114582,0.043620996681609896,0.09022983798163507,0.5891123469738789,0.5269196774387467,-0.03339008162256589,-5.430183524616805e-07

5,2.731350627058378e-06,0.1999959894563706,0.1499407467170628,0.04362081608343651,0.09031377300556445,0.5889033709011476,0.5268408844307056,-0.03338845487254846,-7.226422178004485e-07

6,2.745124340056658e-06,0.19999651035739566,0.1498796741977087,0.04362064354706619,0.09041836226679219,0.5886788653817661,0.5267564313786842,-0.03338668690066499,-9.346415576163319e-07

7,2.697331700367983e-06,0.1999984056101565,0.14981120533241798,0.04362048052100857,0.09054338270927208,0.5884403570378772,0.5266673429644042,-0.03338480387203221,-1.1765752436934684e-06

8,2.585431370175084e-06,0.20000172667158836,0.14973575268970227,0.04362032735009112,0.09068848590043735,0.5881890875910718,0.526574369923339,-0.03338282455718472,-1.4459768399401318e-06

9,2.408486635659471e-06,0.20000649333251452,0.1496536771323028,0.0436201839617953,0.09085323305669196,0.5879260699622328,0.5264780820271265,-0.033380763113923,-1.7407054133779458e-06

10,2.16661280487071e-06,0.20001270321736703,0.14956529972499974,0.04362005008284322,0.09103712464601951,0.5876521417104121,0.5263789187017647,-0.033378630439150965,-2.0589593855135904e-06

11,1.8606512869352027e-06,0.20002033825114168,0.14947091013275265,0.04361992532889975,0.09123962274252903,0.5873680068678668,0.5262772230617954,-0.03337643503314731,-2.3992181591253737e-06

12,1.4919479301746252e-06,0.20002936932199833,0.14937077281684324,0.043619809253510174,0.09146016742748715,0.5870742673952242,0.5261732664478552,-0.0333741836129956,-2.7601813738581803e-06

13,1.062194173132025e-06,0.20003975969306761,0.14926513167481958,0.043619701379289784,0.0916981886879526,0.586771446626915,0.5260672664645406,-0.03337188156155754,-3.1407195753067477e-06

14,5.733114341009704e-07,0.20005146750593047,0.149154213541512,0.043619601218893786,0.09195311497744099,0.5864600067321595,0.5259594003131258,-0.033369533258923896,-3.539836517365648e-06

15,2.7366726199420932e-08,0.20006444761620373,0.14903823084828044,0.04361950828917112,0.09222437931584809,0.5861403617389239,0.5258498146660765,-0.03336714232779541,-3.956640815241161e-06

16,1.3765440862179013e-07,0.19999687180226655,0.15000045597776432,0.04363358293762162,0.09017915857173188,0.5883843459458005,0.5274456579606355,-0.033472866811415626,-4.390472395981816e-06

17,-5.458294550014439e-07,0.20001293897541908,0.14987486261276908,0.04363350171772325,0.09048109432244694,0.5880493078876736,0.527332584070701,-0.03347039041693342,-4.840500910362112e-06

18,-1.2798419938000669e-06,0.20003013627166277,0.14974478434943608,0.043633426310592506,0.09079758050242223,0.5877070605936633,0.5272180386904902,-0.03346787744189362,-5.3060511220767e-06

19,-2.0624187806201483e-06,0.20004841949916816,0.14961039600732673,0.04363335639584934,0.0911281173682679,0.5873579208031731,0.5271021261083058,-0.03346533051575982,-5.78647326720718e-06

20,-2.8915291365111742e-06,0.20006774359970378,0.14947186293471368,0.043633291627567405,0.09147221793823346,0.5870021830392953,0.5269849336475758,-0.03346275180336658,-6.2811451323781914e-06

21,-3.7651411705016957e-06,0.2000880636063852,0.14932934236251552,0.04363323166812748,0.09182940870618955,0.5866401218583556,0.5268665375266531,-0.03346014318513122,-6.789480037343778e-06

22,-4.681248059128229e-06,0.20010933508961382,0.14918298423285378,0.0436331761974132,0.09219923034786366,0.5862719946346351,0.5267470056302136,-0.03345750633338046,-7.310926328315155e-06

23,-5.63788170168146e-06,0.2001315144273709,0.14903293182103977,0.04363312491507555,0.09258123814465737,0.5858980438972567,0.5266263992815973,-0.03345484275784128,-7.84496394912084e-06

24,1.4329876255048113e-07,0.19999671908984262,0.15000020463166455,0.04363355323676139,0.09011381168088971,0.5879351999252043,0.5277913125771356,-0.033533617651681294,-8.39128183063622e-06

25,-9.26918381816827e-07,0.2000214674443433,0.1498431296061875,0.043633508188645184,0.09051852560417488,0.5875501385851,0.5276682916276907,-0.03353089519717075,-8.94933866507821e-06

26,-2.0316429067725184e-06,0.2000469910760697,0.14968276494122332,0.043633466472763546,0.09093401212585793,0.5871598497110323,0.5275442670624694,-0.03352814768593851,-9.518682500924922e-06

27,-3.169375703590549e-06,0.20007325563802025,0.14951923607710524,0.04363342794714221,0.09135990532642412,0.5867645556748958,0.5274193102555099,-0.033525376931287786,-1.0098864553353887e-05

28,-4.338571737374022e-06,0.20010022637994698,0.14935266179898884,0.04363339243643259,0.09179584946449428,0.5863644647124435,0.5272934807315692,-0.03352258441223974,-1.068944711891324e-05

29,-5.5376930344673905e-06,0.20012786886806755,0.14918315522896683,0.04363335976318931,0.09224149916842803,0.5859597718104379,0.5271668307010372,-0.03351977141795337,-1.1290013925812938e-05

30,1.1100673144234796e-07,0.19999745786999965,0.1500000902641383,0.043633513538790865,0.09005504245975213,0.5876198323078063,0.5280501662510927,-0.03358092702705378,-1.1900339564400276e-05

31,-1.181074521092694e-06,0.2000272084035304,0.14982501737248016,0.04363348488690814,0.0905187580868997,0.5872063363762354,0.5279216262082961,-0.03357806797245175,-1.2519991158656836e-05

32,-2.4981136168625295e-06,0.20005752049101064,0.1496473306920746,0.043633458526455345,0.09099105785152777,0.5867887031713337,0.5277923165615367,-0.03357518963080487,-1.3148605830647718e-05

33,-3.838953964075201e-06,0.20008836735827296,0.14946712938379686,0.043633434387169635,0.0914716582386261,0.5863671116816734,0.5276622975416925,-0.03357229353459544,-1.3785823406901345e-05

34,-5.202390225439793e-06,0.20011972170831785,0.14928450710503927,0.043633412364255386,0.09196028291029082,0.5859417285785786,0.5275316187082063,-0.033569380916593866,-1.4431293446417054e-05

35,-6.587215692044693e-06,0.2001515563726814,0.14909955288944227,0.04363339234627394,0.092456663030471,0.5855127091512842,0.5274003230215537,-0.0335664528384762,-1.5084683925901198e-05

36,1.3376854444187986e-07,0.19999693626306825,0.15000005962973123,0.04363346756358509,0.08997870348738592,0.5873129159990029,0.5282964992114969,-0.033628582568231064,-1.574587184399068e-05

37,-1.335028474084947e-06,0.20003068084691958,0.14981068048846402,0.0436334499731206,0.09048942918028412,0.5868768884223812,0.5281636518546667,-0.033625616894065506,-1.641449936224324e-05

38,-2.8209822276921426e-06,0.20006481166025974,0.14961922126531554,0.04363343400755741,0.09100698614989382,0.586437571414262,0.528030204420069,-0.033622636101266895,-1.7090274580993655e-05

39,-4.323259368240948e-06,0.20009930900195572,0.1494257612518483,0.043633419651090084,0.091531158865061,0.585995113681319,0.5278962126671032,-0.03361964161735598,-1.777290398129956e-05

40,-5.840957356098055e-06,0.20013415226159126,0.14923037483810284,0.04363340684515452,0.09206173606013915,0.585549652275592,0.5277617210952456,-0.03361663455220512,-1.8462100778546976e-05

41,-7.373156832324659e-06,0.20016932064126786,0.14903313243149785,0.04363339551941314,0.09259851122850982,0.5851013135491093,0.5276267673803274,-0.033613615838201064,-1.9157594623568286e-05

42,1.5341158707965485e-07,0.19999648610226697,0.150000034199025,0.0436334170284486,0.08989505477742527,0.5870161548636669,0.52853960767816,-0.03367692825151067,-1.9859340329591078e-05

43,-1.455912903476804e-06,0.20003341256537535,0.14979927334566007,0.04363340710068039,0.09044320802216808,0.5865622238543139,0.5284033605027314,-0.03367387841142263,-2.056703545102803e-05

44,-3.076121669853306e-06,0.2000705837310615,0.14959685611239704,0.04363339837374258,0.09099679500894252,0.586105673406834,0.5282666445028112,-0.03367081668116855,-2.1280442304502878e-05

45,-4.706648574505021e-06,0.20010798579787875,0.14939284617591436,0.043633390865832455,0.09155565471877376,0.5856466289739999,0.5281295125483221,-0.033667744421484944,-2.1999318649584062e-05

46,-6.346840123992031e-06,0.20014560370447163,0.1491873027482123,0.043633384546370106,0.09211962798614504,0.5851852047035512,0.5279920056159453,-0.03366466265685196,-2.272342692036213e-05

47,1.1724941655511661e-07,0.19999731426401718,0.1500000113869027,0.04363337181835848,0.08982781816264222,0.5867787918577967,0.5287478201565179,-0.033718128832951035,-2.3452729524020432e-05

48,-1.5864157401294238e-06,0.20003637956828657,0.14979156657970635,0.04363336655680357,0.09040118450913658,0.5863127491506029,0.5286092516736106,-0.03371502151145885,-2.4186962324728935e-05

49,-3.2968132083737584e-06,0.20007559538566327,0.14958175323777984,0.04363336228131408,0.09097904890476946,0.5858445497049581,0.5284703127169017,-0.03371190473350805,-2.4925920531498164e-05

50,-5.013525377055121e-06,0.20011495137400548,0.1493706238292399,0.04363335901505163,0.09156128536454775,0.5853743005293618,0.5283310510174988,-0.033708779726809066,-2.566939749256278e-05

51,-6.736049530787699e-06,0.2001544359036172,0.14915822688986421,0.04363335673676327,0.0921477685017235,0.5849020980591999,0.5281915032063123,-0.03370564740739024,-2.6417192146715468e-05

52,1.2545982542438994e-07,0.19999712611033868,0.1499999952857744,0.04363332565635723,0.08975082602796823,0.5865425615374782,0.5289477821512896,-0.033759214066021066,-2.716930985304937e-05

53,-1.6563487700658325e-06,0.2000379640276404,0.14978520389564098,0.043633324025721426,0.09034505129679858,0.586066534676092,0.5288073228956135,-0.033756059942795694,-2.7925520942055567e-05

54,-3.441377053458629e-06,0.2000788728528525,0.1495692803322127,0.043633323209832896,0.09094299640448827,0.585588725907764,0.5286665674943266,-0.033752898193931714,-2.8685652368010765e-05

55,-5.229354398172091e-06,0.20011984553204107,0.14935226825966053,0.04363332324333194,0.09154456535045936,0.5851092286730751,0.5285255615229468,-0.03374972999577664,-2.9449527206038376e-05

56,-7.019916464898364e-06,0.2001608735528171,0.14913420769044985,0.0436333241143029,0.0921496614955362,0.5846281262041331,0.5283843392831026,-0.033746556207454544,-3.0216972752176874e-05

57,1.3247869555185754e-07,0.1999969652567936,0.14999998454599048,0.043633278286995696,0.08967106925909184,0.5863101445246595,0.5291465561101292,-0.033800557791532106,-3.098802887217292e-05

58,-1.7139256362399408e-06,0.2000392692993039,0.14977994708496764,0.04363327949429126,0.09028253952474688,0.5858258686814578,0.5290045414177279,-0.03379736517736862,-3.176249137730822e-05

59,-3.56062383060924e-06,0.2000815778717854,0.14955897246573968,0.04363328138874271,0.09089708515817896,0.5853401188709388,0.5288622905010225,-0.03379416641343089,-3.254021220960288e-05

60,-5.407470900203187e-06,0.20012388673469736,0.14933709716409965,0.04363328401365843,0.09151463517748787,0.5848529777416025,0.5287198475002999,-0.03379096264236948,-3.3321038136942357e-05

61,-7.254220054280294e-06,0.20016619002867597,0.14911435421372737,0.04363328736388903,0.0921351168834069,0.5843645179362299,0.5285772450445054,-0.03378775468255276,-3.410481920796947e-05

62,1.38424931342071e-07,0.1999968289848097,0.1499999752185144,0.04363322997185535,0.08958903904495244,0.58608086731358,0.5293443554495005,-0.033842114691199576,-3.489162342513179e-05

63,-1.76134997097524e-06,0.20004034490328895,0.14977560041023372,0.043633233422449624,0.09021476292094893,0.5855897706399971,0.5292010575412286,-0.03383889033436674,-3.5681267243450425e-05

64,-3.658989658997247e-06,0.20008381019352234,0.14955044953890084,0.043633237464288155,0.09084302899090027,0.5850974539556462,0.52905757246253,-0.033835661036149295,-3.6473622942303896e-05

65,-5.5544544560358e-06,0.20012722297949334,0.14932455316328774,0.04363324214701578,0.0914737870118613,0.5846039910996504,0.5289139432523418,-0.03383242791344273,-3.7268556628573816e-05

66,-7.4475959551002086e-06,0.20017057962652246,0.14909793856803955,0.04363324747029299,0.09210698411889312,0.5841094460488194,0.5287702012224103,-0.033829191752530345,-3.806593696887349e-05

67,1.4344024141122597e-07,0.19999671404668967,0.14999996721215786,0.04363318090577874,0.08950512999517295,0.5858541764986274,0.5295413673948369,-0.03388384864380608,-3.886585524084636e-05

68,-1.800421757689255e-06,0.200041231370241,0.1497720059876489,0.04363318614792907,0.09014263304407258,0.5853574374644522,0.5293970095537283,-0.03388059808082181,-3.966814481471841e-05

69,-3.740134217547139e-06,0.20008565229380615,0.1495434018271649,0.04363319190804688,0.09078223731943555,0.584859688106337,0.529252504887523,-0.033877343570466616,-4.0472694674402625e-05

70,-5.675745246460154e-06,0.2001299769144831,0.14931418040763927,0.043633198240457555,0.09142390973915841,0.5843609950169598,0.5291078955511328,-0.033874086208991926,-4.1279386829423524e-05

71,-7.607188404252889e-06,0.20017420345379539,0.1490843642691332,0.04363320514828068,0.09206761384851438,0.5838614150392946,0.5289632117887774,-0.03387082675667211,-4.208810527054008e-05

72,1.4765490918659807e-07,0.19999661745657604,0.14999996039828453,0.04363313123313006,0.08941966628694187,0.5856296123325068,0.5297377481990614,-0.03392573014147527,-4.289896063567896e-05

73,-1.8326193813120867e-06,0.20004196206034353,0.14976903344912482,0.043633137918114163,0.09006690209141237,0.5851282041861916,0.5295925141800872,-0.033922457929667055,-4.371180018907418e-05

74,-3.807074717112474e-06,0.20008717231036086,0.14953757359664321,0.04363314506418597,0.09071587445075921,0.5846259589277528,0.5294471665762386,-0.03391918258955208,-4.4526526665380226e-05

75,-5.775832222570769e-06,0.20013224994669035,0.1493056024868023,0.0436331527291893,0.09136656447608238,0.5841229371749465,0.5293017468223967,-0.03391590520057588,-4.534303517630384e-05

76,-7.738893616182976e-06,0.20017719473607531,0.14907313874150818,0.04363316091877919,0.0920189492847194,0.5836191898872254,0.5291562842895199,-0.033912626501729735,-4.616122234604757e-05

77,1.5118637656900968e-07,0.19999653652298463,0.1499999546376646,0.04363308106256323,0.08933291436458538,0.5854067931714391,0.5299336271041325,-0.033967734928489174,-4.69812149673549e-05

78,-1.8591554497007431e-06,0.20004256438156642,0.1497665750570084,0.04363308891719667,0.0899881906099119,0.5849015199514818,0.5297876683375642,-0.03396444482412041,-4.780287171455324e-05

79,-3.86229529789929e-06,0.20008842643175387,0.14953275352606268,0.04363309718815511,0.09064490184664012,0.5843955527333765,0.5296416233959118,-0.03396115226691174,-4.862610664336187e-05

80,-5.858414951193276e-06,0.20013412577960632,0.14929850836119807,0.04363310593597484,0.091303040923001,0.5838889472040599,0.529495533124293,-0.03395785832254526,-4.945082566394831e-05

81,-7.8475727417213e-06,0.2001796634764081,0.14906385494766106,0.0436331151682068,0.0919625961798368,0.5833817494671251,0.5293494261767041,-0.033954563712532054,-5.027693581953641e-05

82,1.5413844168133545e-07,0.19999646886716937,0.14999994979357983,0.043633030477302014,0.0892450934297205,0.5851854024405236,0.530129110806719,-0.03400984302397154,-5.1104577419322924e-05

83,-1.881025475022717e-06,0.20004306086284296,0.14976454175270063,0.04363303928491139,0.0899070106797459,0.5846769285193641,0.5299825521778184,-0.03400653812525742,-5.193361849706563e-05

84,-3.907842000333214e-06,0.20008946099220143,0.14952876694826456,0.043633048473221005,0.09057011355110092,0.5841678788635359,0.5298359299883448,-0.034003231331044194,-5.2763982424187306e-05

85,-5.926543267341551e-06,0.20013567349579736,0.14929264094580186,0.04363305810486051,0.09123440459763722,0.5836583050890572,0.529689284598916,-0.03399992369570623,-5.3595584008729124e-05

86,-7.937234594258477e-06,0.20018170049165906,0.14905617645635677,0.043633068188825,0.0918998814411655,0.5831482492903142,0.5295426440737303,-0.03399661592636922,-5.4428338886099705e-05

87,1.5660151430306468e-07,0.19999641241724223,0.14999994573842218,0.043632979542124715,0.0891563839742036,0.5849651776985968,0.5303242873659499,-0.03405203795201354,-5.526239870609053e-05

88,-1.8990476896244696e-06,0.20004347003816664,0.14976285991093274,0.04363298912913742,0.08982378501087393,0.5844540521145806,0.5301772319215653,-0.034048720815653355,-5.609763916682232e-05

89,-3.945401114034339e-06,0.2000903142126089,0.14952546947651302,0.04363299906824558,0.09049216546279645,0.5839424485347697,0.5300301315824805,-0.034045402243849325,-5.693399129845626e-05

90,-5.98273265653166e-06,0.20013695012254118,0.14928778772765358,0.043633009423728206,0.09116153590938524,0.5834304152132873,0.5298830263104484,-0.034042083281664304,-5.7771377237266435e-05

91,-8.011186605481543e-06,0.2001833807711476,0.1490498251656078,0.04363302020569804,0.09183190164693263,0.5829179909335298,0.5297359436837998,-0.034038764624368625,-5.860971970233377e-05

92,1.5865348552707853e-07,0.19999636538822096,0.1499999423567792,0.04363292830814468,0.08906693472625907,0.5847459014895987,0.5305192294672099,-0.034094306118393605,-5.944917988788082e-05

93,-1.913895326386035e-06,0.20004380716740394,0.1497614686622372,0.04363293853442541,0.08973886264291471,0.5842325780139274,0.5303717622687483,-0.034090978855015976,-6.0289639754694314e-05

94,-3.976363268778059e-06,0.2000910176328955,0.14952274174758484,0.04363294908967621,0.09041159946416001,0.5837188573258552,0.5302242655873415,-0.0340876505360656,-6.113103662199845e-05

95,-6.029058862463792e-06,0.2001380027473245,0.1492837730268556,0.0436329600394895,0.091085162405641,0.5832047849025919,0.5300767790557914,-0.03408432219892254,-6.197329865735705e-05

96,-8.072158699760391e-06,0.20018476624786471,0.14904457117507744,0.043632971394854475,0.09175956310962567,0.5826903967926732,0.5299293298517131,-0.034080994529075107,-6.281635441726626e-05

97,1.6036090367751998e-07,0.19999632625507036,0.14999993954647511,0.04363287681614146,0.08897686831651816,0.5845273937053169,0.5307139971177293,-0.034136636301436665,-6.366037315675605e-05

98,-1.926122806091002e-06,0.200044084823578,0.1497603176813606,0.04363288756786887,0.08965253185641947,0.5840122474021686,0.5305661884030357,-0.034133300653957574,-6.450524194000868e-05

99,-4.001875849136277e-06,0.20009159728842235,0.14952048508069288,0.04363289862977443,0.09032886330856883,0.5834967706606398,0.5304183629337206,-0.03412996426464847,-6.535090324288641e-05

100,-6.067235435369342e-06,0.20013887025919844,0.14928045160598358,0.04363291006850522,0.09100588537596058,0.5829810066638718,0.5302705600708494,-0.03412662816453882,-6.619729019232186e-05

101,-8.12240492250628e-06,0.20018590808138284,0.14904022442289508,0.04363292189574487,0.09168361494823983,0.5824649892011151,0.5301228066612093,-0.03412329303103689,-6.7044336152325e-05

102,1.61780260047803e-07,0.1999962937232275,0.14999993721842275,0.043632825098936026,0.08888628590967011,0.5843095052210745,0.5309086398675503,-0.03417901923461791,-6.789221721272587e-05

103,-1.9361870382539337e-06,0.2000443133721205,0.14975936535975867,0.043632836283238656,0.08956503079890919,0.5837928461191618,0.5307605476495713,-0.034175676642662856,-6.874082458227706e-05

104,-4.022885926774876e-06,0.20009207467668716,0.14951861789109586,0.04363284776239108,0.09024432701768598,0.5832759117761517,0.5306124491913474,-0.0341723335680578,-6.959010495710186e-05

105,-6.0986773774279746e-06,0.20013958478242577,0.1492777033907039,0.043632859603892626,0.09092420180630773,0.5827587434797873,0.5304643836291183,-0.03416899103657339,-7.043999553739844e-05

106,-8.163786915408103e-06,0.2001868485387158,0.14903662777668072,0.04363287181998151,0.09160467639333432,0.582241373152727,0.5303163775362799,-0.03416564971893679,-7.129043364340309e-05

107,1.629592667248131e-07,0.19999626669931744,0.14999993529582062,0.043632773183122815,0.08879527099775417,0.5840921125998261,0.5311031986391554,-0.03422144726372045,-7.214160118628219e-05

108,-1.944464795158342e-06,0.20004450136272636,0.14975857729519243,0.04363278472396241,0.08947655623689052,0.5835741969825419,0.5309548708440966,-0.03421809891664494,-7.299339272630698e-05

109,-4.040175485707856e-06,0.20009246755237753,0.14951707272654935,0.04363279654711481,0.09015829640756222,0.5830560517538766,0.5308065454958106,-0.03421475030106178,-7.384575840553712e-05

110,-6.1245534507736385e-06,0.20014017285748392,0.14927542910742636,0.04363280872077119,0.09084052250179545,0.5825377166354305,0.5306582615442306,-0.03421140243837894,-7.469863876484296e-05

111,-8.197842568446155e-06,0.20018762254468084,0.14903365132469495,0.04363282125761518,0.09152325933584186,0.5820192220076051,0.5305100453366173,-0.03420805599379358,-7.555197437692938e-05

112,1.639380597029047e-07,0.19999624426357857,0.14999993371302353,0.04363272109036239,0.08870389251187662,0.5838751136904611,0.5312977072352231,-0.0342639140648567,-7.640595213630727e-05

113,-1.9512669173207473e-06,0.20004465585032344,0.14975792504326552,0.04363273292532302,0.08938727076921826,0.5833561534215876,0.5311491834633804,-0.03426056094541964,-7.726046929882699e-05

114,-4.054390367202836e-06,0.2000927905818211,0.14951579381809,0.04363274503232352,0.090071024250865,0.582837001263245,0.5310006693165353,-0.03425720773442973,-7.811547881214065e-05

115,-6.145829219719734e-06,0.2001406564145302,0.14927354667817783,0.04363275748011854,0.09075518705095331,0.5823176956428752,0.5308522035899852,-0.03425385544966883,-7.897092395205431e-05

116,-8.22584254295787e-06,0.2001882589604752,0.14903118765796602,0.04363277028175083,0.0914397869522354,0.5817982656665549,0.5307038124437707,-0.03425050475175213,-7.982674796187733e-05

117,1.6475029403738295e-07,0.19999622564476693,0.14999993241429269,0.04363266883836477,0.0886122073783214,0.583658423972851,0.5314921935816677,-0.034306414412311304,-8.068314202642052e-05

118,-1.9568499518346147e-06,0.20004478265839093,0.1497573850853991,0.04363268091611476,0.08929730877570866,0.5831385942010878,0.5313435065585793,-0.0343030573326738,-8.154000555458542e-05

119,-4.066064082948635e-06,0.20009305588210657,0.14951473505567983,0.043632693257477005,0.08998271949159546,0.582618603725313,0.5311948350925997,-0.03429970030772427,-8.23972937700552e-05

120,-6.163302503237739e-06,0.20014105357622286,0.14927198824093751,0.043632705931666106,0.09066847618507173,0.5820984899035256,0.5310462178504554,-0.03429634435222452,-8.325495218269158e-05

121,-8.248836849438466e-06,0.20018878163857975,0.14902914797094888,0.04363271895201493,0.0913546090917287,0.581578280788852,0.5308976808370384,-0.03429299012298907,-8.41129262252839e-05

122,1.6542411783882632e-07,0.19999621019783487,0.14999993135254527,0.043632616441651485,0.08852026262065907,0.5834419735253343,0.5316866807528092,-0.03434894398724194,-8.497141079967619e-05

123,-1.961425703319794e-06,0.2000448865952644,0.1497569379756683,0.0436326287199155,0.08920678132507985,0.5829214190504547,0.5315378575259203,-0.0343455836186571,-8.583030701910362e-05

124,-4.075637425449315e-06,0.2000932734654795,0.14951385831487474,0.04363264125487378,0.0898935548542963,0.5824007296537783,0.5313890547588432,-0.034342223425628086,-8.668957194532932e-05

125,-6.177632598743793e-06,0.20014137932010734,0.14927069768670478,0.04363265411611679,0.09058062198818449,0.5818799418095492,0.5312403110112061,-0.03433886442039578,-8.754915290807297e-05

126,-8.267693256938137e-06,0.20018921029344142,0.14902745883842358,0.043632667317211986,0.09126801499043367,0.5813590827008749,0.531091652159199,-0.03433550725661838,-8.840899713175169e-05

127,1.6598302449676028e-07,0.1999961973844015,0.14999993048817303,0.04363256391215458,0.08842809709015287,0.5832257045102766,0.531881187817141,-0.03439149921993945,-8.926930276099229e-05

128,-1.965169082673683e-06,0.20004497163201737,0.14975656763547063,0.04363257635607974,0.0891157802258803,0.5827045450440699,0.531732250743103,-0.034388136117250306,-9.012997224223758e-05

129,-4.083474630213815e-06,0.20009345160585038,0.1495131320735576,0.04363258905101952,0.08980367312900782,0.5821832719715719,0.5315833381810288,-0.0343847732900203,-9.099096411313977e-05

130,-6.189364386542835e-06,0.20014164602533396,0.14926962862354862,0.04363260206687174,0.09049181633292534,0.5816619210367278,0.531434488601148,-0.034381411748380726,-9.185222718074992e-05

131,-8.28312898387782e-06,0.20018956122032863,0.14902605955116796,0.04363261541739337,0.09118024377820973,0.5811405187038087,0.5312857277727695,-0.034378052143365125,-9.271371013210322e-05

132,1.6644658935600215e-07,0.19999618675587208,0.14999992978796473,0.043632511259692884,0.08833574289132586,0.5830095690903061,0.5320757305352743,-0.03443407715968555,-9.357561396223076e-05

133,-1.9682245640771645e-06,0.20004504104887938,0.14975626077038698,0.04363252384052365,0.08902438137114559,0.5824879036046331,0.5319266980948497,-0.03443071178154704,-9.443784214383767e-05

134,-4.089876704168119e-06,0.20009359714120198,0.1495125302683965,0.04363253666770734,0.08971319236347122,0.5819661421355261,0.5317776935156586,-0.034427346761446244,-9.530035439092799e-05

135,-6.198948221184525e-06,0.2001418639240474,0.14926874269351934,0.043632549811393015,0.09040221785151945,0.5814443198234635,0.5316287551931327,-0.03442398310774417,-9.616310070461805e-05

136,-8.295736856739865e-06,0.20018984788898908,0.14902489991341006,0.043632563285490485,0.091091493162348,0.5809224625388346,0.5314799088077108,-0.034420621469288516,-9.702603096247224e-05

137,1.6683110077696933e-07,0.1999961779389769,0.149999929224146,0.04363245849235466,0.08824322655716646,0.5827935277022169,0.5322703219360148,-0.03447667536732851,-9.788934868526019e-05

138,-1.970711501932468e-06,0.20004509755584926,0.1497560063880527,0.043632471186352884,0.08893264750066024,0.5822714380228863,0.5321212094069193,-0.034473308092905074,-9.875295811808641e-05

139,-4.0950924228748756e-06,0.2000937157231929,0.149512031349439,0.04363248412288035,0.0896222101532735,0.5817492669301554,0.5319721275074013,-0.03446994124477937,-9.96168199035864e-05

140,-6.206756352693937e-06,0.20014204147416076,0.14926800818120353,0.04363249737229135,0.09031195769694128,0.581227049065871,0.5318231145701432,-0.03446657582982204,-0.00010048088500267961

141,-8.306006909798713e-06,0.20019008143401404,0.1490239384219371,0.04363251094861853,0.0910019266050744,0.5807048098098254,0.5316741962015858,-0.03446321249505727,-0.00010134510425843783

142,1.6715009680534632e-07,0.19999617062347172,0.14999992877353907,0.043632405616807354,0.08815057001847407,0.5825775476276682,0.5324649727919413,-0.03451929182657663,-0.00010220968344871458

143,-1.9727285122872126e-06,0.20004514339211246,0.14975579539953238,0.04363241840436881,0.08884063048274067,0.5820551014051557,0.532315792804549,-0.03451592296933349,-0.00010307452738105455

144,-4.099327407812263e-06,0.20009381202324247,0.1495116174984886,0.04363243143132652,0.08953080718712754,0.5815325858153527,0.5321666457348964,-0.03451255459481284,-0.00010393959742185765

145,-6.213096487087122e-06,0.20014218566727235,0.14926739886334425,0.04363244476820217,0.09022114430465669,0.5810100350881332,0.5320175698628643,-0.034509187708626037,-0.00010480484529810935

146,-8.314344225221829e-06,0.20019027105995577,0.14902314076067613,0.043632458429126615,0.09091167925653984,0.5804874741980706,0.5318685907331794,-0.034505822956273066,-0.00010567022263228924

147,1.6741481928365942e-07,0.19999616455173302,0.14999992841683463,0.043632352638549136,0.08805779140378106,0.5823616018100031,0.5326596920120791,-0.034561924870724424,-0.00010653593723701777

148,-1.974357085479314e-06,0.20004518040803382,0.14975562028972897,0.043632365503478786,0.08874837319947142,0.5818388549752032,0.5325104550084888,-0.034558554689820865,-0.00010740189430863016

149,-4.102751621323092e-06,0.200093889902728,0.14951127398287012,0.043632378605241426,0.08943905017694767,0.5813160487325254,0.5323612528138575,-0.03455518503828109,-0.0001082680557678664

150,-6.218222987242061e-06,0.2001423022830538,0.14926689305773383,0.04363239201449497,0.09012986732863813,0.5807932169715089,0.5322121236634798,-0.03455181692064801,-0.0001091343739475545

151,-8.321083670948144e-06,0.20019042437606396,0.14902247855604953,0.04363240574544829,0.09082086285938151,0.5802703843320877,0.5320630930505161,-0.03454845098114465,-0.00011000080109566873

152,1.6763459624417887e-07,0.1999961595099947,0.14999992813796928,0.04363229956211497,0.08796490569969666,0.5821456678750461,0.5328544869661485,-0.034604573122109884,-0.00011086754687561957

153,-1.9756645664109965e-06,0.20004521013280602,0.14975547484486798,0.04363231249103122,0.08865591110452777,0.581622666669416,0.5327052015794924,-0.03460120183181315,-0.00011173451672891431

154,-4.105505556747414e-06,0.2000939525535678,0.14951098862112092,0.04363232565468743,0.08934699427967815,0.5810996142900828,0.5325559525648574,-0.034597831109433604,-0.00011260167299051912

155,-6.222346126644879e-06,0.2001423960994423,0.14926647283684302,0.043632339123852046,0.09003820089502851,0.5805765443454732,0.5324067781197387,-0.03459446195860333,-0.0001134689684665968

156,-8.326502078032268e-06,0.20019054767290073,0.14902192834791167,0.04363235291279535,0.09072956980329763,0.5800534811992305,0.532257703694116,-0.03459109502247269,-0.00011433635590332364

157,1.6781716292556953e-07,0.19999615532099116,0.1499999279235953,0.04363224639124526,0.0878719252962106,0.5819297273208877,0.5330493637523492,-0.03464723544208037,-0.00011520404666264818

158,-1.9767066141576986e-06,0.20004523383028605,0.14975535392717157,0.04363225937308944,0.08856327351061928,0.5814065099748094,0.5329000371202497,-0.03464386321954531,-0.00011607194631246449

159,-4.107705351853036e-06,0.2000940026143676,0.1495107513412179,0.04363227258796883,0.08925468509919486,0.5808832482627948,0.5327507481519266,-0.03464049159679427,-0.00011694001748609375

160,-6.225639735478461e-06,0.20014247106633778,0.14926612337764164,0.04363228610674126,0.08994620629189683,0.5803599755611194,0.5326015350126831,-0.03463712157667874,-0.00011780821335344828

161,-8.330828303455308e-06,0.20019064615094856,0.14902147073870958,0.04363229994372467,0.09063787647708264,0.5798367160053737,0.5324524231162487,-0.03463375380144527,-0.00011867648705362853

162,1.679689304624754e-07,0.19999615183780048,0.1499999277626315,0.043632193129024416,0.08777886043711164,0.5817137648476008,0.5332443274185277,-0.03468991088963524,-0.00011954505152112132

163,-1.977529232498332e-06,0.2000452525450949,0.14975525328854755,0.04363220615465653,0.08847048465358681,0.5811903629679568,0.5330949654421687,-0.03468653788133413,-0.00012041381235196198

164,-4.109447013657397e-06,0.20009404226638816,0.1495105538153052,0.04363221941193983,0.0891621603411891,0.5806669223507949,0.5329456421970254,-0.0346831654991556,-0.00012128273238200306

165,-6.2282475193544545e-06,0.20014253044915414,0.1492658324240152,0.043632232971804026,0.08985393419290794,0.5801434761807177,0.5327963958208437,-0.034679794745278145,-0.00012215176505427859

166,-8.334251546605193e-06,0.2001907241095583,0.14902108968999098,0.043632246848603444,0.09054584603993396,0.5796200484051444,0.5326472516968305,-0.03467642626118405,-0.00012302086381374243

167,1.6809521031883878e-07,0.19999614893870193,0.14999992764588582,0.043632139777994974,0.08768571959210791,0.5814977678028055,0.5334393821448518,-0.03473259868723551,-0.0001238902430631482

168,-1.9781704466790423e-06,0.2000452671406881,0.14975516941653905,0.04363215283986019,0.08837756457196934,0.5809742075201763,0.5332899897031244,-0.034729225014272835,-0.00012475980834540974

169,-4.110809909405044e-06,0.20009407331285028,0.1495103891576762,0.04363216613225755,0.08906945118125079,0.5804506131533613,0.533140636874581,-0.034725851989200494,-0.00012562952261966807

170,-6.230288281409459e-06,0.20014257694746623,0.14926558984227511,0.04363217972617422,0.08976142649572848,0.5799270177287564,0.5329913617732404,-0.034722480613612924,-0.00012649933952712971

171,-8.336928223011755e-06,0.20019078510312563,0.14902077194073576,0.043632193635991565,0.09045353071269165,0.5794034450385814,0.5328421897565221,-0.03471911152834351,-0.00012736921274659162

172,1.682004013734903e-07,0.19999614652288727,0.14999992756573824,0.04363208634025182,0.08759250976431059,0.581281725723109,0.5336345313946971,-0.034775298192534686,-0.0001282393580627819

173,-1.9786616883730665e-06,0.20004527833080057,0.1497550994069467,0.04363209943210518,0.0882845298340868,0.5807580286402522,0.5334851125212245,-0.03477192395504057,-0.00012910968089827453

174,-4.111859651625277e-06,0.2000940972444748,0.149510251675052,0.043632112753590614,0.08897658339589644,0.580234301320336,0.5333357339895469,-0.03476855038342527,-0.0001299801442699709

175,-6.23186023858413e-06,0.20014261279307716,0.14926538725363742,0.043632126375740814,0.08966871784195524,0.5797105766592185,0.5331864338931217,-0.03476517847877269,-0.0001308507019552668

176,-8.338987645979852e-06,0.20019083207018787,0.14902050652641252,0.043632140312956494,0.09036097367220476,0.5791868783211814,0.5330372375674958,-0.03476180888136265,-0.000131721307807246

177,1.6828814565147954e-07,0.19999614450689282,0.14999992751587465,0.04363203281751975,0.08749923674435917,0.5810656299548862,0.5338297780392949,-0.03481800887500382,-0.00013259217892120132

178,-1.979028939849692e-06,0.2000452867054269,0.14975504085850583,0.04363204593419886,0.08819139413912111,0.5805418139309293,0.5336803360687834,-0.0348146341557661,-0.00013346322054376417

179,-4.112650482544257e-06,0.20009411529365334,0.14951013666010055,0.043632059279790955,0.08888357829766134,0.5800179708504637,0.5335309350418698,-0.0348112601172708,-0.00013433439569540586

180,-6.2330445893985995e-06,0.20014263983108446,0.14926521773034065,0.04363207292536439,0.08957583687377764,0.5794941335016859,0.5333816130340684,-0.034807887760152055,-0.00013520565823845469

181,-8.340536723166689e-06,0.20019086744014236,0.14902028438131265,0.04363208688533287,0.0902682106176051,0.5789703254434786,0.5332323953622892,-0.03480451772421495,-0.000136076962151026

182,1.6836145784633605e-07,0.19999614282163158,0.14999992749106575,0.04363197921121739,0.08740590532045688,0.5808494733406937,0.5340251244606948,-0.034860730296601,-0.00013694852577988455

183,-1.9792936792259463e-06,0.2000452927522849,0.14975499178579932,0.04363199234845465,0.08809816881403754,0.5803255531395043,0.5338756621499304,-0.034857355164068037,-0.00013782025414971967

184,-4.113227244867922e-06,0.20009412847922295,0.14951004022070824,0.043632005714035374,0.08879045350820292,0.5798016085112273,0.5337262412797109,-0.034853980724557254,-0.00013869211023976224

185,-6.233908463049165e-06,0.20014265958689018,0.14926507554438306,0.04363201937905545,0.08948280727297571,0.579277672155312,0.5335768999097712,-0.03485060797830324,-0.0001395640479548841

186,-8.341663838970156e-06,0.20019089322146583,0.14902009800974428,0.04363203335793631,0.09017527106531059,0.5787537675438772,0.5334276633410597,-0.034847237564701546,-0.00014043602135749766

187,1.6842283288333315e-07,0.1999961414099277,0.14999992748698215,0.04363192552251043,0.08731251945198658,0.5806332499599762,0.534220572636819,-0.0349034620957847,-0.00014130824999694178

188,-1.979473661675897e-06,0.20004529687455333,0.14975495054725013,0.043631938676777865,0.08800486322441473,0.5801092377862387,0.5340710922647095,-0.03490008660654804,-0.00014218063863790533

189,-4.113627010880749e-06,0.20009413764347578,0.1495099591388148,0.04363195205894289,0.08869722359749384,0.5795852033591572,0.5339216537433861,-0.03489671182047681,-0.00014305315018132427

190,-6.234507357422495e-06,0.20014267332159597,0.14926495595976652,0.043631965740122174,0.08938964861996956,0.5790611793050718,0.5337722951185929,-0.03489333873744758,-0.00014392573853956253

191,-8.342442064068235e-06,0.20019091107464515,0.14901994121416043,0.043631979734740575,0.09008217941975408,0.5785371890247453,0.5336230416775294,-0.034889967996500224,-0.00014479835782564123

192,1.684743351866233e-07,0.19999614022447088,0.14999992750004043,0.043631871752355215,0.08721908241304215,0.5804169549146817,0.5344161242117312,-0.034946203974292066,-0.00014567122875101303

193,-1.979583564941205e-06,0.20004529940553065,0.14975491578558006,0.04363188492073624,0.08791148511411685,0.5798928608571302,0.5342666276620245,-0.03494282817513914,-0.0001465442557888746

194,-4.1138804289884284e-06,0.20009414348275464,0.1495098907536888,0.04363189831667119,0.08860390061231609,0.5793687463432217,0.5341171733016465,-0.034939453087528265,-0.0001474174017312271

195,-6.234887154445319e-06,0.20014268207779884,0.14926485506071377,0.043631912011291976,0.08929637710410147,0.5788446439391168,0.53396779916383,-0.0349360797110123,-0.00014829062046894153

196,-8.342931808722788e-06,0.20019092237247,0.14901980887036148,0.04363192601902324,0.08998895585869153,0.578320576986961,0.533818530523854,-0.03493270868432,-0.00014916386613778737

197,1.6851767271983814e-07,0.1999961392261199,0.14999992752727545,0.04363181790153495,0.08712559691108576,0.580200584152013,0.5346117805536867,-0.03498895568620324,-0.0001500373605778553

198,-1.9796355228869633e-06,0.2000453006207496,0.14975488637857923,0.04363183108161844,0.08781804088612893,0.579676416549903,0.5344622693833667,-0.034985579615814666,-0.00015091100794478878

199,-4.114012836969709e-06,0.20009414657274302,0.14950983286541633,0.04363184448899667,0.08851049451322246,0.579152229976919,0.5343128006816293,-0.03498220426388392,-0.0001517847708963192

200,-6.2350857862299505e-06,0.2001426867174502,0.14926476960963148,0.04363185819481219,0.0892030061109072,0.5786280569497326,0.5341634124704184,-0.034978830629668556,-0.00015265860327785604

201,-8.343183016320047e-06,0.20019092824987803,0.14901969674162358,0.0436318722134865,0.08989561706519231,0.5781039207624049,0.5340141300146048,-0.03497545935162302,-0.00015353245922487883

202,1.6855425839183008e-07,0.19999613838249475,0.1499999275662342,0.04363176397068969,0.08703206518504947,0.579984134317889,0.5348075428030844,-0.03503171702889596,-0.00015440656167842062

203,-1.9796395664640684e-06,0.20004530074799093,0.14975486139839905,0.043631777160482346,0.08772453583475323,0.5794599000640007,0.5346580182989277,-0.03502834071924886,-0.0001552808144550003

204,-4.114045182153532e-06,0.20009414738937292,0.1495097836551001,0.04363179057738042,0.08841701353582385,0.5789356480671697,0.5345085364935798,-0.03502496513376744,-0.00015615518005713026

205,-6.235134612492428e-06,0.20014268795315396,0.1492646969296664,0.04363180429253328,0.0891095467076849,0.5784114108034172,0.5343591353987064,-0.03502159127143738,-0.00015702961226494208

206,-8.343236976805432e-06,0.2001909296451639,0.1490196013250112,0.04363181832035683,0.08980217683286654,0.5778872115274283,0.5342098402700205,-0.03501821977046927,-0.00015790406519457267

207,1.6858526093350978e-07,0.1999961376668126,0.14999992761488756,0.04363170996034081,0.08693848908645391,0.5797676026358025,0.5350034119120923,-0.03507448783556417,-0.0001587787628650873

208,-1.9796039882075817e-06,0.20004529997556067,0.14975484007789355,0.04363172315819475,0.08763097433760203,0.5792433074269696,0.5348538751374335,-0.03507111131309263,-0.00015965360873602114

209,-4.1139947821820094e-06,0.20009414632610953,0.14950974161887615,0.04363173658302254,0.08832346448951832,0.5787189954901816,0.5347043812512674,-0.035067735519495775,-0.000160528565137347

210,-6.235059559231947e-06,0.20014268637404342,0.14926463480759844,0.043631750305977206,0.08901600804498384,0.5781946992681172,0.5345549682558169,-0.03506436145350679,-0.00016140358576753307

211,-8.343127825934799e-06,0.20019092733404859,0.14901951972430189,0.04363176434146703,0.0897086465662909,0.5776704419832859,0.5344056613986704,-0.03506098975311758,-0.0001622786247076186

212,1.686116469640231e-07,0.19999613705692046,0.14999992767155715,0.04363165587091195,0.08684487014646795,0.5795509868066688,0.5351993886773678,-0.035117267969028754,-0.00016315390703575158

213,-1.9795356435590647e-06,0.20004529845913072,0.14975482178278948,0.04363166907546488,0.08753736001433074,0.5790266353509181,0.5350498405107716,-0.035113891255583354,-0.0001640293358396941

214,-4.113875953962176e-06,0.20009414370823986,0.14950970551335677,0.04363168250690781,0.08822985300447651,0.5785022680061392,0.5349003353888258,-0.035110515274895684,-0.0001649048732625584

215,-6.234882060265033e-06,0.20014268246717187,0.14926458141354862,0.04363169623639487,0.08892239768855402,0.5779779171877105,0.5347509113050012,-0.035107141025462474,-0.0001657804729076031

216,-8.342883784798541e-06,0.2001909219578448,0.14901944954491467,0.04363171027832502,0.08961503569476156,0.577453606091919,0.534601593499616,-0.03510376914507774,-0.00016665608880774352

217,1.686342159393575e-07,0.1999961365344974,0.14999992773485543,0.043631601702745514,0.08675120963137002,0.5793342849260423,0.5353954737671076,-0.03516005731661903,-0.00016753194708453827

218,-1.9794401999156247e-06,0.20004529632739587,0.14975480598867538,0.04363161491287122,0.08744369585789673,0.5788098811138607,0.5352459149343464,-0.03515668043026024,-0.00016840795044172438

219,-4.113700533587769e-06,0.20009413980468566,0.14950967431052062,0.043631628349842556,0.08813618373586907,0.5782854621060121,0.5350963992746691,-0.03515330427985926,-0.0001692840608237146

220,-6.234619835468469e-06,0.20014267663520013,0.14926453523459082,0.04363164208481258,0.0888287218938234,0.5777610602955702,0.5349469647733656,-0.035149929863689575,-0.00017016023172735888

221,-8.342528184561784e-06,0.20019091404674477,0.14901938880703458,0.04363165613216957,0.08952135201440792,0.5772366988575215,0.5347976366641898,-0.03514655781936452,-0.00017103641712667633

222,1.6865362900599784e-07,0.19999613608439193,0.14999992780363475,0.04363154745611684,0.0866575085884012,0.5791174954156767,0.5355916677433814,-0.03520285578593781,-0.00017191284417367866

223,-1.9793223425233764e-06,0.20004529368674823,0.14975479226197427,0.043631560670884285,0.08734998434308298,0.578593042461616,0.5354420988438789,-0.03519947874159208,-0.00017278941517792596

224,-4.113478306160337e-06,0.20009413483777044,0.14950964716041304,0.04363157411248562,0.08804246053272181,0.5780685748848977,0.5352925732229681,-0.035196102435839476,-0.00017366609187534246

225,-6.234287534277565e-06,0.20014266921101795,0.1492644950198585,0.04363158785207106,0.08873498583283669,0.5775441250604209,0.5351431288582287,-0.0351927278667412,-0.00017454282764711303

226,-8.342080313672104e-06,0.20019090403907225,0.14901933587377872,0.043631601904017055,0.08942760197105386,0.5770197161459413,0.5349937909774347,-0.03518935567174408,-0.00017541957639945484

227,1.686704329123545e-07,0.19999613569407412,0.1499999278769462,0.04363149313124571,0.08656376788368164,0.5789006169669557,0.5357879710805888,-0.03524566330135869,-0.00017629656630411994

228,-1.979185944680703e-06,0.20004529062514242,0.1497547802442126,0.04363150634988522,0.08725622751623106,0.5783761175267135,0.5356383926092871,-0.03524228611136096,-0.000177173699268074

229,-4.113217361200253e-06,0.2000941289912927,0.1495096233603074,0.04363151979537386,0.08794868657753131,0.5778516039373178,0.5354888575031262,-0.03523890966212469,-0.00017805093681066202

230,-6.233897267673809e-06,0.20014266046983206,0.14926445973515856,0.04363153353885753,0.0886411937818947,0.5773271085589081,0.5353394037323655,-0.03523553495150779,-0.00017892823218975193

231,-8.34155611828969e-06,0.20019089229719922,0.14901928939180356,0.04363154759469989,0.08933379089409432,0.576802654535374,0.5351900565192813,-0.03523216261680236,-0.00017980553923639632

232,1.686850797646619e-07,0.199996135353183,0.14999992795400557,0.04363143872830608,0.0864699882335647,0.5786836484941313,0.5359843841807066,-0.03528847980112853,-0.00018068308713323488

233,-1.9790342084442802e-06,0.20004528721529086,0.14975476963901255,0.043631451950181366,0.0871624270694374,0.5781591047613531,0.535834796546149,-0.03528510247567084,-0.0001815607773776555

234,-4.112924386423869e-06,0.20009412241720156,0.14950960232920496,0.04363146539894334,0.0878548645017042,0.577634547270657,0.5356852523476036,-0.03528172589275678,-0.0001824385712657363

235,-6.233459048021403e-06,0.20014265063916117,0.14926442852544408,0.04363147914573236,0.08854734927669985,0.5771100083702457,0.5355357895483313,-0.03527835105004842,-0.00018331642192570408

236,-8.34096878139963e-06,0.20019087912070566,0.14901924824219653,0.04363149320489852,0.08923992318986973,0.5765855111929248,0.535386433365509,-0.03527497858469284,-0.00018419428310736106

237,1.6869794341057426e-07,0.19999613505315064,0.1499999280341641,0.043631384247433874,0.08637617023056299,0.5784665890956675,0.5361809073858833,-0.03533130523497042,-0.00018507238499692002

238,-1.9788697809639683e-06,0.20004528351730447,0.14975476020133635,0.043631397472018954,0.08706858440190113,0.5779420028819845,0.5360313109251669,-0.035327927782472866,-0.00018595062867639484

239,-4.1126049106499085e-06,0.20009411524111473,0.14950958358675184,0.04363141092354671,0.08776099648100467,0.5774174032336012,0.5358817579583698,-0.035324551073981775,-0.00018682897521306828

240,-6.23298115267918e-06,0.20014263990709782,0.1492644006837859,0.04363142467315097,0.08845345524063282,0.576892822489118,0.5357322864420196,-0.03532117610696957,-0.0001877073776003018

241,-8.340329201576499e-06,0.2001908647572586,0.14901921149987218,0.043631438735167616,0.08914600250154994,0.5763682837725561,0.5355829215885234,-0.035317803518446274,-0.0001885857895016161

242,1.6870933299689694e-07,0.1999961347868931,0.14999992811688576,0.04363132968873341,0.08628231436479082,0.5782494380222947,0.53637754098885,-0.035374139562101246,-0.00018946444210075612

243,-1.9786948505969015e-06,0.20004527958087753,0.1497547517285951,0.043631342915593445,0.08697470067065319,0.5777248108234977,0.5362279359799917,-0.0353707619895187,-0.00019034323605954552

244,-4.112263504553806e-06,0.20009410756688256,0.1495095667358068,0.04363135636946741,0.08766708431447702,0.577200170456983,0.5360783745122387,-0.03536738516214141,-0.00019122213221190362

245,-6.232470424597826e-06,0.2001426284291411,0.1492643756257179,0.04363137012148176,0.08835951409081752,0.5766755492536783,0.5359288945356045,-0.03536401007725721,-0.00019210108341200996

246,-8.339646388749386e-06,0.20019084941160792,0.14901917840000017,0.04363138418595761,0.08905203184133222,0.5761509703307219,0.5357795212579983,-0.035360637371745704,-0.00019298004323294545

247,1.6871950410824593e-07,0.1999961345485525,0.1499999282017276,0.04363127505228328,0.0861884210416857,0.578032194650595,0.5365742852415101,-0.035416982749591035,-0.00019385924385100078

248,-1.978511226493132e-06,0.20004527544709155,0.14975474405329556,0.043631288281058826,0.08688077683249151,0.5775075277013477,0.5364246719136715,-0.0354136050626668,-0.0001947385855038046

249,-4.1119039467856985e-06,0.20009409948035736,0.14950955144802833,0.043631301736932165,0.08757312948969065,0.5769828478048721,0.5362751021652584,-0.03541022812192829,-0.0001956180287881381

250,-6.231932520917027e-06,0.2001426163338424,0.14926435286802534,0.04363131549102168,0.08826552782580761,0.5764581872860182,0.5361256139399512,-0.035406852924482896,-0.00019649752641543307

251,-0.0001568197054872874,0.19999747116070915,0.1499997103284272,0.044415875900827864,0.08612208075782901,0.5778622366987355,0.5367404613927601,-0.03545282429377316,-0.00019737726028674975

252,-0.00015900479869192415,0.20004659514819337,0.14975452233845515,0.044415889129671766,0.08681433821786652,0.5773375081345005,0.5365908027983519,-0.03544944554146826,-0.00019825712136759487

253,-0.00016117592812966118,0.20009540469278808,0.14950932818484208,0.044415902612826116,0.08750660190395482,0.5768127792270925,0.536441199527773,-0.03544606784051597,-0.00019913706351755444

254,-0.00016333353471511495,0.20014390879567037,0.14926412956295937,0.04441591640514819,0.08819891866636873,0.5762880792304906,0.5362916858506727,-0.03544269208597384,-0.00020001703998678716

255,-0.0007846463703824443,0.19999659771766148,0.14999378231051497,0.04755486596758854,0.08606032891181883,0.5776744246839484,0.5368896028457211,-0.035490595432293666,-0.00020089726677669946

256,-0.0007869848981602329,0.20004569848244833,0.1497485975077354,0.047554879273221856,0.08675251573797672,0.5771496681105613,0.5367399318884079,-0.03548721644011557,-0.00020177761537500715

257,-0.0007893085161038878,0.200094485682396,0.1495034069549975,0.04755489283207399,0.08744471286796981,0.5766249149754129,0.5365903196842076,-0.03548383858535992,-0.00020265803735976652

258,-0.0007916176828375665,0.20014296812633944,0.14925821213670376,0.047554906696748944,0.08813696643126247,0.5761001934150533,0.536440799537937,-0.03548046273834917,-0.00020353848716621526

259,-0.0014128090697608153,0.19999663767217443,0.1499799717665936,0.050694823608153416,0.08602943130964562,0.5774754444830109,0.5370412778637147,-0.03552853513194423,-0.00020441918347132871

260,-0.0014153005948416607,0.20004570761634227,0.14973478924595043,0.050694836983862686,0.0867215640635681,0.5769506717296241,0.5368916063455574,-0.03552515618572062,-0.0002052999968388373

261,-0.0014177762541162263,0.20009446461707317,0.14948960078349458,0.05069485060880736,0.08741371075386829,0.5764259038154312,0.536741995280916,-0.035521778419217345,-0.0002061808799423857

262,-0.0014202365282439374,0.200142917375595,0.14924440776871595,0.05069486453519031,0.08810591706143367,0.5759011682853902,0.536592477478244,-0.03551840269033418,-0.00020706178836380236

263,-0.0020407465560057843,0.19999667961952636,0.14995826547929486,0.053833084248254455,0.08602380972072059,0.5772622172369587,0.5371894783309299,-0.035566257355429856,-0.00020794294125704786

264,-0.0020433903971155626,0.2000457103693724,0.14971308331917954,0.05383309768509685,0.08671590377730035,0.5767374325754949,0.5370398137199273,-0.03556287863132563,-0.0002088242094454559

265,-0.0020460174166711,0.2000944287233108,0.14946789475658878,0.05383311136737519,0.087408015418293,0.5762126531604311,0.5368902106459433,-0.03555950111416666,-0.00020970554613670885

266,-0.002048628118023566,0.200142843300611,0.14922270112668384,0.05383312534694788,0.0881001899772625,0.5756879061656976,0.5367407015637555,-0.03555612565277417,-0.000210586907503858

267,-0.0026683620930992523,0.19999672148874756,0.1499286702250967,0.05696910394979418,0.08604343857395375,0.5770347605063595,0.5373341871115186,-0.03560375917995609,-0.00021146851272669663

268,-0.0026711574581275064,0.20004570452437972,0.14968348560517394,0.0569691174400203,0.08673550984666402,0.5765099653051999,0.5371845351426437,-0.03560038081145382,-0.00021235023266136835

269,-0.002673935049544352,0.20009437570805114,0.1494382939705596,0.05696913117233539,0.08742760261265946,0.5759851753448166,0.5370349455804054,-0.03559700367180416,-0.00021323202083938024

270,-0.0026766953933050975,0.20014274358460052,0.1491930966180121,0.05696914519827362,0.08811976187872723,0.575460417497892,0.5368854505753472,-0.035593628601973425,-0.0002141138338617024

271,-0.0032955565755491342,0.19999676327875524,0.14989119068165233,0.06010232708669588,0.08608830613082559,0.5767930923600737,0.5374753973476429,-0.03564103850581157,-0.00021499589076300798

272,-0.003298502570896653,0.20004569012559043,0.14964600022273555,0.06010234062443958,0.08678037165687703,0.576268286667518,0.5373257631406265,-0.03563766061113767,-0.00021587806238965507

273,-0.0033014298454854115,0.200094305678902,0.14940080203237657,0.06010235440137317,0.0874724628821401,0.5757434859857552,0.5371761921260388,-0.035634283965130506,-0.00021676030252549484

274,-0.0033043389474819687,0.20014261841064093,0.14915559737639641,0.06010236846868501,0.08816462448528177,0.5752187169129542,0.5370267161670336,-0.03563090940131732,-0.0002176425681387877

275,-0.00392223095307524,0.199996804971034,0.14984583276388558,0.0632321990672377,0.08615839604763377,0.5765372332510056,0.5376131035292129,-0.03567809338715371,-0.00021852507802636031

276,-0.003925326587509022,0.20004566724888104,0.14960063267409898,0.06323221264829663,0.08685047402371951,0.5760124163322327,0.5374634919432799,-0.03567471607807624,-0.0002194077030370127

277,-0.0039284025593423234,0.2000942188081063,0.1493554240551903,0.0632322264659951,0.08754258218117672,0.575487604041399,0.5373139442935889,-0.03567134003642315,-0.00022029039717802966

278,-0.003931459438464825,0.20014246804767077,0.1491102081466314,0.0632322405711507,0.08823476486387995,0.5749628227154857,0.5371644921629167,-0.03566796608845485,-0.00022117311775641

279,-0.004548286257089095,0.19999684654973354,0.1497926036303353,0.0663581665626373,0.08625368746603783,0.5762672060780342,0.5377473009516345,-0.03571492196043656,-0.0002220560832638604

280,-0.004551530443447345,0.20004563597822803,0.1495473897859558,0.06635818018406461,0.08694579713881852,0.5757423766329487,0.5375977167021557,-0.035711545345157275,-0.0002229391645810816

281,-0.004554754030795175,0.20009411527706514,0.1493021665491331,0.06635819403983388,0.0876379417177428,0.5752175513144621,0.5374481971057522,-0.035708170015374456,-0.0002238223159238749

282,-0.0045579576102293745,0.2001422927717497,0.14905693513642204,0.06635820818037219,0.08833016520468742,0.574692756207234,0.5372987734688486,-0.03570479679018006,-0.0002247054949202255

283,-0.005173623616615263,0.19999688800067789,0.1497315116824839,0.06947967768734964,0.08637415502081856,0.5759830361562333,0.537877985510545,-0.03575152241898194,-0.00022558891969883126

284,-0.005177015172826373,0.20004559639295907,0.14948627968426575,0.06947969134709919,0.08706631655011797,0.5754581924339274,0.5377284332128628,-0.035748146603221995,-0.00022647246120749043

285,-0.005180385199083157,0.20009399525528418,0.14924103737632313,0.06947970523907226,0.08775851791917522,0.5749333522398986,0.5375789462647229,-0.03574477209050816,-0.0002273560738608099

286,-0.00518373430716711,0.20014209283923867,0.14899578595512808,0.06947971941329148,0.08845080278142498,0.5744085414136365,0.5374295556992928,-0.03574139969283943,-0.00022823971559421865

287,-0.005798144274007845,0.19999692931093577,0.14966256656358243,0.0725961821768536,0.08651976886180175,0.5756847511893152,0.5380051536453825,-0.03578789300463951,-0.0002291236041198735

288,-0.005801681923896776,0.20004554856494572,0.1494173117814921,0.07259619587351539,0.08721200318958071,0.5751598910649096,0.5378556378355657,-0.035784518092153134,-0.00023000761048997415

289,-0.005805197118353119,0.20009385889616907,0.14917204572808038,0.07259620980040882,0.08790428246892695,0.5746350337896173,0.5377061880552023,-0.03578114449983381,-0.00023089168931061637

290,-0.005808690489321202,0.20014186848190868,0.1489267695821734,0.07259622400714276,0.08859664999941472,0.5741102049640685,0.5375568350669915,-0.035777773032655655,-0.00023177579881320282

291,-0.006421749600575369,0.1999969704685973,0.14958577915716836,0.0757071315633365,0.0866904946799739,0.5753723812444618,0.5381288023269803,-0.035824032004709724,-0.0002326601562424974

292,-0.006425431974612069,0.20004549255865417,0.1493404967680025,0.07570714529594923,0.0873828234130265,0.5748475022789808,0.5379793274745991,-0.03582065809760021,-0.00023354463279327687

293,-0.006429090973187357,0.20009370633759987,0.149095202109816,0.07570715925689174,0.08807520236066149,0.574322625415846,0.5378299193177482,-0.035817285527416816,-0.0002344291832572207

294,-0.006432727247889505,0.20014161990820645,0.14884989634592097,0.07570717349535318,0.08876767446417343,0.5737977760226052,0.537680608351333,-0.03581391509217418,-0.00023531376615153855

295,-0.0070443411121644504,0.19999701146262555,0.1495011615853511,0.07881197934938139,0.08688629373483929,0.5750459587292799,0.5382489290577775,-0.03585993775055928,-0.0002361985982047886

296,-0.007048166748207084,0.2000454284319299,0.14925584660509386,0.07881199311730203,0.08757873904190139,0.5745210582195572,0.5380994995753742,-0.03585656494951317,-0.0002370835507928848

297,-0.007051968094183624,0.20009353770368302,0.14901051832909462,0.07881200711171539,0.08827123995421056,0.5739961590090689,0.5379501374429252,-0.03585319350184389,-0.00023796857888818993

298,-0.007055745820811178,0.20014134730598793,0.14876517790703042,0.07881202138138733,0.08896383905126246,0.5734712862376552,0.5378008728901655,-0.035849824198670895,-0.00023885364128451822

299,-0.007665820484714993,0.19999705228274206,0.1494087272068944,0.08191018117956879,0.08710712288228104,0.5747055183705555,0.5383655318753138,-0.03589560861684239,-0.00023973895414714647

300,-0.007669787828768113,0.20004535623689587,0.14916337451881037,0.08191019498238199,0.08779970740430526,0.5741805933919557,0.5382161521260984,-0.03589223702131972,-0.00024062438907182702

301,-0.007673729973542847,0.20009335310663928,0.14891800748537679,0.08191020900989837,0.08849235302937163,0.5736556688628461,0.538066840371445,-0.03588886679536128,-0.00024150990120749445

302,-0.007677647608374368,0.20014105084536604,0.14867262724429944,0.08191022331045852,0.08918510197244958,0.5731307697004033,0.5379176265785118,-0.03588549872325502,-0.00024239544961614432

303,-0.008286089569789509,0.19999709291933404,0.1493084906151011,0.08500119500985273,0.08735293460285765,0.5743510971944853,0.5384786093562918,-0.035931043020987895,-0.00024328124985424564

304,-0.008290196976786462,0.20004527602079356,0.1490630949942408,0.08500120884730793,0.08804568137483468,0.5738261446378687,0.5383292836606324,-0.03592767272938264,-0.0002441671737760825

305,-0.008294278280648399,0.20009315264854216,0.14881768396087058,0.0850012229077123,0.08873849483689521,0.5733011916427952,0.5381800265959008,-0.03592430382330435,-0.0002450531767036971

306,-0.008298334188822396,0.20014073068131166,0.14857225864220466,0.08500123723898037,0.08943141683744736,0.5727762629085401,0.538030867869253,-0.03592093708027276,-0.0002459392179594917

307,-0.008905050410075072,0.1999971333633749,0.14920046763550215,0.0880844812745534,0.08762367703061343,0.5739827345081074,0.5385881606204475,-0.035966239422838185,-0.0002468255124470173

308,-0.008909296144690186,0.20004518782672792,0.1489550237701477,0.0880844951465207,0.08831660941338376,0.5734577511119707,0.5384388932614192,-0.03596287053261546,-0.00024771193231766444

309,-0.008913514877628526,0.20009293642285123,0.14870956341221703,0.08808450923971038,0.08900961414691305,0.5729327663585676,0.5382896951628034,-0.03595950304369109,-0.00024859843306365893

310,-0.008917707333947787,0.20014038695593875,0.14846408767975317,0.08808452360161101,0.08970273271161736,0.5724078047337923,0.538140595774315,-0.03595613772687971,-0.0002494849742605852

311,-0.009522605254855755,0.19999717360635802,0.14908467532335307,0.09115950305080696,0.08791929398252328,0.5736004718816857,0.5386941853340611,-0.03600119632439521,-0.0002503717701162753

312,-0.009526987492350175,0.20004509169431567,0.14883917783383957,0.09115951695724595,0.0886124356031947,0.5730754542601944,0.5385449805622157,-0.035997828932209125,-0.00025125869311759595

313,-0.009531341834896786,0.20009270451574254,0.1485936627628357,0.09115953108320203,0.08930565529527713,0.572550434338173,0.5383958456745652,-0.035994462956930345,-0.0002521456989244868

314,-0.009535669024667683,0.20014001980048624,0.14834813122039575,0.09115954547573837,0.08999899417029211,0.572025436392446,0.5382468098659351,-0.03599109916273138,-0.00025303274735895823

315,-0.010138656575453299,0.19999721364023978,0.14896113196093444,0.094225726220318,0.08823972498867985,0.573204353131837,0.538796683713095,-0.036035912269650874,-0.0002539200518915445

316,-0.01014317340255741,0.20004498766024545,0.14871557541621772,0.0942257401612555,0.08893309968844744,0.5726792977993355,0.538647545750567,-0.036032546471446,-0.00025480748538268165

317,-0.010147661446666428,0.20009245700725736,0.1484700001958001,0.09422575432002224,0.08962655822827804,0.5721542392041948,0.5384984782913386,-0.03602918210562004,-0.00025569500365793416

318,-0.010152121466575976,0.20013962933702933,0.14822440740281134,0.09422576874325705,0.09032014135035886,0.5716292014182989,0.5383495102778908,-0.03602581992976629,-0.0002565825667793855

319,-0.010753107080633132,0.19999725345739094,0.14882985705466145,0.09728261962826106,0.08858490532331334,0.5727944243052304,0.538895656526003,-0.03607038584448755,-0.0002574703874398402

320,-0.010757756496467853,0.2000448757587611,0.14858423598694573,0.09728263360377497,0.08927853711164505,0.572269327697727,0.5387465895700486,-0.03606702173558635,-0.0002583583389110622

321,-0.01076237624643471,0.200092193972294,0.14833859514714012,0.09728264779544486,0.08997225854616052,0.5717442268515509,0.5385975937327114,-0.03606365907442014,-0.0002592463771824726

322,-0.010766967105467415,0.2001392156799548,0.14809293563241047,0.09728266224948663,0.09066610999967879,0.571219145637616,0.5384486977066694,-0.03606029861206593,-0.0002601344625502198

323,-0.01136585973197378,0.19999729305055475,0.14869087133199851,0.10032965523918658,0.08895476603671798,0.5723707336627029,0.5389911050962488,-0.03610461567663746,-0.00026102280689003083

324,-0.01137063964901255,0.20004475602207902,0.1484451802496967,0.10032966924939402,0.08964867905101477,0.5718455921567525,0.538842113322297,-0.03610125335181565,-0.00026191128392237414

325,-0.011375389022433926,0.20009191548146166,0.1481994682994811,0.10032968347409676,0.09034268754579676,0.5713204454264996,0.5386931932792683,-0.03609789248998835,-0.0002627998497990274

326,-0.011380108642830074,0.20013877893723261,0.1479537365734248,0.1003296979590894,0.09103683152483835,0.5707953171457213,0.5385443734125778,-0.03609453383577926,-0.00026368846504449135

327,-0.011976817759196397,0.1999973324128123,0.14854419673818303,0.10336630828978725,0.08934923398814115,0.5719333316636701,0.5390830313045791,-0.036138600435691746,-0.00026457734067910157

328,-0.011981726004269094,0.20004462848074703,0.14829843013743899,0.10336632233483567,0.09004345245810672,0.5714081415930163,0.5389341188688623,-0.036135239989243235,-0.0002654663509089805

329,-0.011986602833045288,0.2000916216018172,0.14805264157594525,0.1033663365927299,0.0907377722628212,0.5708829453066533,0.5387852787740395,-0.03613188102096875,-0.0002663554520469877

330,-0.011991449051301811,0.20013831921151234,0.14780683214147522,0.10336635110884504,0.09143223303765331,0.5703577662849335,0.5386365392208028,-0.03612852426910178,-0.0002672446048405205

331,-0.012585884675452727,0.19999737153755115,0.14838985643275596,0.10639205743839321,0.08976823187967119,0.5714822709507164,0.539171437591075,-0.036172338833150866,-0.0002681340194171929

332,-0.012590918990792465,0.20004449316395492,0.1481440088077284,0.10639207151845367,0.09046278009573479,0.5709570286210043,0.5390226086328973,-0.03616898035894376,-0.00026902357050527395

333,-0.012595921022172881,0.20009131239749922,0.14789813813424973,0.10639208580972062,0.09115743551347572,0.5704317790817791,0.5388738526238399,-0.036165623378024654,-0.0002699132145776164

334,-0.012600891590087756,0.20013783660106702,0.1476522454965189,0.10639210035715166,0.09185223740077514,0.5699065456235757,0.5387251975224143,-0.03616226862229999,-0.0002708029125992786

335,-0.013192964292568183,0.19999741041843908,0.1482278747859009,0.10940638589392994,0.09021167828899508,0.5710176063329716,0.539256326947494,-0.036205829595262085,-0.00027169259060901826

336,-0.013198122533415024,0.20004435008595065,0.14798194063709164,0.10940640192328209,0.09090658056968011,0.5704923080307687,0.5391075855782751,-0.03620247315959359,-0.00027258240688023225

337,-0.013203247813971461,0.2000909878898112,0.14773598235884772,0.10940641897450068,0.09160159592341038,0.5699670015237829,0.538958917764246,-0.03619911823544654,-0.000273472352224243

338,-0.013208340945337817,0.20013733112254745,0.14749000103269838,0.10940643698629754,0.09229676325239523,0.5694417099171427,0.5388103512252486,-0.036195765548279406,-0.0002743623858688145

339,-0.01379796073792769,0.1999974490546706,0.14805827737462865,0.11240878086941075,0.09067948774608252,0.5705393947999213,0.5393377029824268,-0.03623907147013821,-0.00027525266250724245

340,-0.013803240931520428,0.20004419926070718,0.14781225121939873,0.11240879988424174,0.09137476842227604,0.5700140368121029,0.5391890533248486,-0.03623571720123838,-0.0002761431191932591

341,-0.013808487250001843,0.20009064813617483,0.14756619986328523,0.11240881964028222,0.0920701680465443,0.5694886696317943,0.5390404778308115,-0.03623236445891209,-0.000277033706981844

342,-0.013813700519755327,0.2001368029017775,0.14732012438533504,0.1124088400991612,0.09276572515577697,0.5689633161807107,0.5388920039821576,-0.0362290139617996,-0.0002779243787179822

343,-0.014400778464926087,0.19999748743641718,0.1478810909786008,0.11539872883716332,0.09117157067096392,0.5700476954299636,0.5394155698132599,-0.03627206338670811,-0.0002788152878731966

344,-0.014406177895569722,0.20004404075558885,0.14763496735787443,0.11539874985934662,0.09186725406269894,0.5695222740564352,0.5392670159709899,-0.03626871137560674,-0.00027970637216287957

345,-0.014411542556258598,0.20009029326284494,0.14738881747466812,0.11539877143125914,0.09256306227148217,0.5689968425066315,0.5391185368982868,-0.036265360905498346,-0.0002805975834172004

346,-0.014416873290808492,0.20013625210751795,0.1471426424062693,0.11539879353259934,0.09325903347071417,0.5684714235225483,0.5389701598423139,-0.03626201268893928,-0.00028148887530660426

347,-0.015001322271304124,0.19999752555458242,0.14769634357606667,0.11837572389057588,0.09168783347334131,0.5695425694329516,0.5394899320986791,-0.03630480421845019,-0.0002823804011720591

348,-0.015006838208602297,0.20004387458930153,0.14745011705961325,0.11837574626216212,0.09238394386219187,0.5690170809849026,0.5393414781603855,-0.0363014545557585,-0.00028327209943350634

349,-0.015012318499762447,0.20008992331602157,0.14720386323065351,0.1183757690550486,0.09308018492708088,0.5684915813840905,0.5391930995973047,-0.036298106448632204,-0.00028416392252509395

350,-0.015017764004270465,0.20013567881335703,0.14695758316527255,0.11837579226096422,0.0937765944797847,0.5679660931962531,0.5390448234246036,-0.03629476060359385,-0.0002850558247519928

351,-0.015023175354115206,0.20018114640734408,0.14671127622012836,0.11837581584881084,0.0944732051790567,0.5674406322861395,0.5388966676598577,-0.036291417474373276,-0.00028594776718880515

352,-0.015748282610003897,0.19999620196481105,0.14745482543827682,0.12207695387365858,0.09235857950268991,0.5688878331394237,0.5395687829293672,-0.03634478028233173,-0.00028683995899848793

353,-0.015753941545342643,0.2000422958538873,0.1472084602901937,0.12207697730793438,0.09305532524476934,0.5683622819525384,0.5394204941460401,-0.03634143455184806,-0.00028773234432355834

354,-0.0157595634799344,0.20008808783930274,0.14696206464595812,0.12207700105047599,0.09375220015112899,0.5678367072563627,0.5392722711111751,-0.03633809012664863,-0.00028862487675045237

355,-0.0157651493719941,0.20013358551964486,0.1467156402632488,0.12207702511117734,0.09444924336326638,0.5673111341663276,0.5391241437690849,-0.03633474779446944,-0.000289517507989853

356,-0.015770699916524855,0.20017879454159146,0.1464691869623917,0.1220770494703633,0.09514648856793761,0.5667855807038341,0.5389761319340433,-0.03633140805537006,-0.000290410195118929

357,-0.016491743342667026,0.19999627285448277,0.14720160095865847,0.12575727878351572,0.09307544179006301,0.5682171493352038,0.539651378714934,-0.03638494172100744,-0.00029130314436602334

358,-0.01649754016884504,0.2000420936432164,0.14695508306198868,0.12575730285388642,0.09377283115658841,0.567691497569118,0.5395032313069347,-0.03638159930588463,-0.00029219629464591356

359,-0.016503298864019442,0.20008761261779423,0.1467085333153461,0.12575732717236712,0.09447035434454609,0.5671658192440888,0.5393551486147504,-0.036378258169892645,-0.0002930895975236252

360,-0.016509020418097643,0.2001328373937346,0.1464619535810205,0.12575735175457844,0.09516805045622742,0.5666401398680967,0.5392071608007997,-0.036374919105993796,-0.0002939830036143664

361,-0.01651470554929197,0.20017777362525102,0.14621534377261536,0.1257573765861693,0.09586595310399476,0.5661144777745637,0.5390592878543754,-0.036371582618533994,-0.00029487646927653876

362,-0.01723113042820061,0.19999634528543503,0.14693672496087742,0.1294146242718314,0.09382953636061453,0.5675258432373055,0.5397285134835386,-0.03642470386026915,-0.00029577019869055874

363,-0.017237060435505,0.2000418798430402,0.146690046511586,0.12941464873928707,0.09452759617718706,0.5670000804272742,0.5395805082806229,-0.03642136476622144,-0.00029666413070453767

364,-0.01724295123406446,0.2000871129859202,0.14644333519101704,0.1294146734185847,0.09522579582618224,0.5664742899349624,0.5394325683339266,-0.03641802696453381,-0.00029755821671986055

365,-0.017248803834010888,0.20013205226402933,0.14619659286871795,0.12941469832841584,0.09592417406880756,0.5659484971578801,0.5392847235997529,-0.03641469124258035,-0.00029845240743180254

366,-0.017254618968445327,0.20017670327972603,0.14594981948194585,0.12941472345753113,0.096622764214849,0.5654227203615003,0.5391369939412907,-0.03641135810146528,-0.00029934665935574695

367,-0.017966266215092137,0.1999964169992957,0.1466602679666138,0.13304806607513803,0.09462062679188993,0.5668140590775353,0.5398002141391027,-0.03646406633031754,-0.0003002411752306951

368,-0.017972324691323927,0.20004165328432766,0.14641342206151328,0.1330480907972031,0.09531938824398424,0.566288180426082,0.5396523565864774,-0.03646073067815752,-0.0003011358943748352

369,-0.01797834290182583,0.20008658861714382,0.14616654231513998,0.13304811570867928,0.09601829594819107,0.5657622733547629,0.5395045651624377,-0.036457396339816345,-0.00030203076837263397

370,-0.01798432187368482,0.20013123046479317,0.1459196305854296,0.1330481408299639,0.0967173882538527,0.5652363630413276,0.5393568695316058,-0.03645406409495822,-0.00030292574824070356

371,-0.017990262352368603,0.20017558436472602,0.14567268681977713,0.13304816615168577,0.09741669811435923,0.5647104676031518,0.5392092893677387,-0.03645073443987361,-0.0003038207908202667

372,-0.018696969298197072,0.1999964880363795,0.14637229817478214,0.1366566661363606,0.09544848721089072,0.566081939357313,0.539866500161587,-0.03650302775014684,-0.0003047160974728994

373,-0.018703151434484262,0.2000414143494097,0.1461252780055346,0.13665669102740166,0.09614798292119338,0.5655559411165815,0.539718796660489,-0.036499695684526476,-0.0003056116081375786

374,-0.018709292260669072,0.20008604017874973,0.1458782230230687,0.13665671609370433,0.09684763147112142,0.5650299137693141,0.5395711602243101,-0.03649636495575802,-0.0003065072746376556

375,-0.018715392819363425,0.20013037290505142,0.14563113507128134,0.13665674135657385,0.09754747078119443,0.5645038822550668,0.5394236202106285,-0.036493036335414404,-0.00030740304833904087

376,-0.018721453867267087,0.20017441799812336,0.14538401410626486,0.1366567668077971,0.09824753343476805,0.5639778645300919,0.5392761960924441,-0.03648971031468996,-0.00030829888642261097

377,-0.01942305935735237,0.19999655838082575,0.14607288663184065,0.14023949812704062,0.09631288200063777,0.5653296315063634,0.5399273895680591,-0.0365415865571598,-0.00030919498882317356

378,-0.019429360226446906,0.20004116319073176,0.145825685347959,0.140239523135556,0.09701314524123096,0.5648035100037132,0.5397798466773618,-0.03653825822672386,-0.0003100912961726576

379,-0.019435618751106647,0.2000854679762379,0.14557844827223806,0.14023954831018492,0.09771356799880973,0.5642773586950154,0.5396323717939268,-0.036534931256301514,-0.00031098776053161185

380,-0.019441835988524805,0.2001294800313236,0.14533117723553676,0.14023957367266435,0.09841418776108607,0.5637512022831633,0.5394849939686074,-0.03653160640938243,-0.0003118843336024228

381,-0.019448012705873877,0.2001732047578412,0.14508387220365948,0.1402395992155078,0.09911503673762012,0.5632250585649164,0.539337732473912,-0.0365282841720705,-0.0003127809728910816

382,-0.020144357212937187,0.19999662801502927,0.14576210721020885,0.1437956477881365,0.09721356644780825,0.5645572879478973,0.5399829011694528,-0.03657974124235743,-0.000313677876837823

383,-0.020150771764884945,0.2000408999124485,0.1455147179235019,0.14379567288325526,0.09791463085141855,0.5640310394202027,0.539835525435835,-0.036576416795496336,-0.0003145749868265607

384,-0.02015714294701642,0.20008487223004864,0.14526729186464676,0.1437956981383738,0.09861586150149794,0.5635047603692319,0.5396882186465256,-0.0365730937316529,-0.00031547225514528377

385,-0.02016347183031949,0.2001285521756782,0.14501983085302575,0.14379572357537418,0.09931729545264949,0.5629784752669093,0.5395410095494656,-0.03656977280632876,-0.00031636963381531083

386,-0.020169759191806146,0.2001719450835535,0.14477233486551463,0.1437957491872363,0.10001896453983106,0.5624522017551069,0.5393939172194976,-0.036566454500607005,-0.0003172670806508894

387,-0.02086068486880058,0.19999669692217026,0.14544003658812038,0.14732421322100137,0.09815028695262765,0.5637650660184456,0.5400330550169593,-0.03661749039810015,-0.0003181647925306134

388,-0.020867207931490647,0.20004062460292504,0.14519245240340783,0.14732423838436245,0.09885218635318874,0.5632386866190795,0.5398858529441788,-0.03661416998216488,-0.00031906271164892593

389,-0.020873686607313684,0.20008425313079223,0.1449448304707665,0.14732426370345625,0.0995542587562538,0.5627122759683133,0.5397387207463052,-0.036610850972061376,-0.00031996079051271767

390,-0.02088012198033573,0.20012758962829774,0.14469717259961656,0.1473242892001374,0.10025654078449704,0.5621858583134707,0.5395916868729517,-0.03660753411541812,-0.00032085898144645154

391,-0.020886514836834326,0.20017063936256219,0.14444947877917175,0.14732431486769448,0.10095906389875443,0.5616594511465521,0.5394447702046654,-0.036604219888380876,-0.000321757242557837

392,-0.021571865555917124,0.1999967650866032,0.14510675423028915,0.1508243051654059,0.09912278119855061,0.5629531278930624,0.5400778725075357,-0.03665483272828541,-0.000322655769100528

393,-0.02157849183733466,0.2000403373430769,0.14485896827753558,0.15082433038624937,0.09982554951530737,0.5624266137306239,0.5399308505555459,-0.03665151648955134,-0.0003235545041391299

394,-0.021585072722736135,0.20008361085386503,0.1446111436113094,0.15082435575968653,0.10052849759690793,0.5619000675859706,0.5397838994035,-0.036648201679292766,-0.00032445340039309264

395,-0.02159160930859328,0.2001265926571088,0.14436328203242926,0.15082438130744066,0.10123166163616397,0.5613735134881297,0.5396370472074331,-0.03664488903738433,-0.0003253524104764497

396,-0.02159810238991254,0.20016928795349082,0.14411538354354844,0.15082440702301328,0.1019350727210865,0.5608469687841229,0.5394903126570679,-0.03664157903512069,-0.0003262514927777173

397,-0.022277723775937047,0.19999683249381567,0.14476234236819166,0.15429504726033796,0.10013077831325701,0.5621216405135154,0.540117376412043,-0.03669176705026088,-0.00032715084086595473

398,-0.022284447867207208,0.2000400382091444,0.1445143478312499,0.1542950725325311,0.10083444945672122,0.5615949876919073,0.5399705410017122,-0.03668845513403631,-0.0003280503987362318

399,-0.022291125560885746,0.20008294556461498,0.14426631363047338,0.15429509795487126,0.10153830711678179,0.5610683021620647,0.5398237773119426,-0.036685144668787396,-0.00032895011931593636

400,-0.022297757965211065,0.20012556151501343,0.14401824155928475,0.1542951235488879,0.10224238705912275,0.5605416077408276,0.5396771132099759,-0.0366818363867554,-0.0003298499554967903

401,-0.02230434588341093,0.20016789119532494,0.1437701316347215,0.1542951493082372,0.10294672000085736,0.560014921634923,0.5395305671981847,-0.0366785307544703,-0.00033074986593705576

402,-0.022978085344468397,0.199996899130313,0.14440688597973342,0.1577355762871018,0.10117399902790385,0.5612707755185031,0.5401515908850455,-0.03672829229499628,-0.00033165004246464233

403,-0.022984901723369935,0.20003972727406483,0.1441586761212394,0.15773560160733432,0.10187860682075206,0.5607439801725185,0.5400049484032252,-0.036724984845743214,-0.0003325504300654794

404,-0.022991670710412603,0.2000822574210723,0.1439104256679639,0.15773562707569494,0.10258340785701699,0.5602171514035418,0.5398583785591979,-0.03672167886984707,-0.00033345098187144813

405,-0.022998393424991097,0.20012449644386718,0.14366213640700326,0.15773565271348217,0.10328843747853957,0.55969031282214,0.5397119089362019,-0.036718375092036556,-0.0003343516510412584

406,-0.023005070678071383,0.20016644941254727,0.1434138083705871,0.15773567851447107,0.10399372603398398,0.559163481499231,0.5395655578527216,-0.03671507397416321,-0.0003352523964929645

407,-0.02367277743404656,0.19999696498350303,0.1440404727682546,0.1611450423948075,0.10225215583624407,0.56040070917537,0.540180541469617,-0.03676440750694786,-0.0003361534082594162

408,-0.023679680468851407,0.20003940460840966,0.14379204095108228,0.1611450677614943,0.10295773394591543,0.5598737675012749,0.5400340982735361,-0.03676110466838827,-0.0003370546323774615

409,-0.02368653512461728,0.20008154657587507,0.14354356763122222,0.16114509327455723,0.10366351198861186,0.5593467917062174,0.5398877286299625,-0.03675780332546895,-0.0003379560221808054

410,-0.0236933425313107,0.20012339767734,0.14329505459039854,0.1611451189550419,0.10436952488608017,0.5588198052002343,0.5397414598429252,-0.03675450419552713,-0.00033885753108525615

411,-0.02370010350717478,0.20016496291888333,0.14304650187672413,0.16114514479682038,0.10507580262142555,0.5582928249227473,0.5395953100504683,-0.03675120773582186,-0.00033975911825947423

412,-0.024361628616772824,0.1999970300415948,0.14366319314086823,0.16452260930842383,0.10336495315395751,0.559511622312929,0.5402042551002076,-0.03680011184391269,-0.00034066097188965513

413,-0.024368612570333795,0.20003907028111612,0.14341453284665862,0.1645226347210365,0.10407153503482629,0.5589845305945905,0.5400580175210806,-0.03679681375911678,-0.00034156303912300645

414,-0.024375547164574966,0.20008081317779589,0.14316583016800938,0.1645226602784424,0.10477832349054442,0.558457404078823,0.539911854407373,-0.03679351719216393,-0.00034246527349288895

415,-0.02438243353947417,0.2001222654431995,0.14291708688212804,0.16452268600142145,0.10548535302691037,0.5579302659807306,0.5397657927887017,-0.03679022285312123,-0.00034336762866288143

416,-0.02438927252011107,0.2001634320203066,0.14266830305360306,0.16452271188392906,0.10619265326473734,0.5574031331124044,0.5396198506261075,-0.036786931194741,-0.00034427006404360314

417,-0.025044468906609114,0.19999709429351153,0.14327514018613274,0.1678674545195602,0.10451208747825284,0.5586037002550964,0.5402227601043248,-0.036835404576920534,-0.00034517276592508885

418,-0.02505152794064905,0.20003872436008885,0.1430262450313599,0.1678674799782188,0.10521970632174371,0.5580764548863234,0.5400767344502564,-0.036832111388378386,-0.00034607568262355

419,-0.02505853664182595,0.20008005737299903,0.14277730663923546,0.16786750558019678,0.10592753832497394,0.5575491740691946,0.5399307841732985,-0.03682881973981579,-0.00034697876787015197

420,-0.025065496159591583,0.2001210999651959,0.14252832678322402,0.1678675313460015,0.10663561758228055,0.5570218808293551,0.5397849360334593,-0.03682553033415128,-0.00034788197556731153

421,-0.02507240732544105,0.20016185701752337,0.14227930554489762,0.167867557269663,0.10734397335577552,0.5564945918556071,0.5396392078182037,-0.036822243619716,-0.00034878526535934463

422,-0.025721129801317678,0.19999715772881743,0.14287640965106538,0.1711787690695653,0.10569324754852884,0.5576771327556682,0.540236086207148,-0.036870285101414504,-0.00034968893508025017

423,-0.025728257902823473,0.20003836692311125,0.14262727340139641,0.17117879381473528,0.10640193624164195,0.5571497302610477,0.5400902787707232,-0.036866996962307504,-0.00035059282067280374

424,-0.025735334630598516,0.20007927933661576,0.14237809309277077,0.1711788183787603,0.10711084461516629,0.5566222916970143,0.539944547622735,-0.03686371038397334,-0.00035149686277861263

425,-0.025742361152279094,0.2001199015236978,0.14212887049551734,0.1711788428228689,0.10782000635650127,0.5560948399047583,0.539798919258004,-0.036860426062388374,-0.0003524010163936823

426,-0.025749338313531895,0.20016023830296645,0.14187960570857877,0.17117886717554529,0.10852945037273679,0.5555673914534444,0.5396534112936566,-0.03685714444173167,-0.0003533052433417938

427,-0.026391444322973606,0.19999722033435963,0.14246709991747786,0.17445575775348873,0.1069081144823245,0.5567321139162568,0.540244264497088,-0.03690475294250408,-0.00035420974844136647

428,-0.026398635240470522,0.20003799805389527,0.14221771649908882,0.17445578116758442,0.1076179055662503,0.5562045509643498,0.5400986815415694,-0.03690146997925043,-0.0003551144552577046

429,-0.026405773850486383,0.20007847922589506,0.14196828823300012,0.17445580452873005,0.10832792277802099,0.5556769513521138,0.539953175784142,-0.036898188598840274,-0.0003560193204420716

430,-0.02641286132819817,0.2001186703289174,0.1417188168872218,0.17445582788692635,0.10903819940356511,0.5551493377421782,0.5398077734600347,-0.03689490949060025,-0.00035692430183767074

431,-0.02641989852273445,0.20015857612177856,0.14146930257853754,0.17445585125959934,0.10974876399940113,0.5546217265884277,0.5396624920198542,-0.03689163309448257,-0.00035782936167849287

432,-0.0270552470621687,0.19999728210347179,0.14204731197776777,0.17769764204968416,0.10815636199734906,0.555768842166476,0.5402473274927533,-0.03693880766194392,-0.0003587347023524711

433,-0.02706249479883456,0.20003761777800538,0.14179767548843952,0.1776976646754939,0.10886728763429765,0.5552411155828058,0.5401019752668186,-0.03693553001679664,-0.00035964024869857957

434,-0.02706968929152739,0.20007765711270986,0.1415479933978346,0.17769768732676328,0.1095784457691045,0.554713351783328,0.5399567011494407,-0.03693225397673954,-0.0003605459572871706

435,-0.02707683172170593,0.2001174065117629,0.14129826747216623,0.17769771004547913,0.11028986929136061,0.5541855732571376,0.539811531120736,-0.0369289802242938,-0.0003614517859082916

436,-0.027083922942224843,0.2001568706751481,0.14104849784633858,0.17769773284216833,0.11100158641122215,0.5536577963464241,0.5396664824680173,-0.036925709195225524,-0.00036235769677092877

437,-0.027712374216694344,0.19999734302954664,0.14161714940987494,0.1809036558630972,0.10943765653052165,0.5547875201641879,0.5402453091141685,-0.03697244898778365,-0.0003632638898093633

438,-0.027719672648669997,0.20003722617119496,0.14136725412923623,0.18090367803134114,0.11014974847828801,0.5542596269490724,0.5401001938520457,-0.03696917680240276,-0.00036417029129157813

439,-0.027726916899541654,0.2000768131545725,0.14111731253030063,0.18090370027200095,0.11086207921063121,0.5537316959996383,0.5399551576091758,-0.03696590624423241,-0.0003650768578100377

440,-0.027734108157258058,0.20011611031078752,0.14086732637802143,0.18090372262205734,0.11157468122622435,0.5532037496365311,0.5398102261153567,-0.03696263798911915,-0.0003659835471899459

441,-0.02774124727864801,0.2001551222820066,0.1406172958256909,0.1809037450878555,0.11228758239334347,0.5526758040939073,0.5396654164979922,-0.036959372468735756,-0.00036689032169531457

442,-0.02836266363122324,0.1999974031035375,0.14117671835174864,0.1840730476441689,0.11075165738044934,0.5537883547260092,0.5402382446441278,-0.03700567675821606,-0.000367797378843884

443,-0.028370006528424356,0.20003682330505168,0.1409265587492652,0.184073069555505,0.11146494696511039,0.5532602920629722,0.5400933725642443,-0.03700241017346546,-0.00036870464645767165

444,-0.02837729430940892,0.2000759475032041,0.14067635214937588,0.18407309156716556,0.11217848153283293,0.5527321911858468,0.5399485804145843,-0.03699914523795837,-0.00036961208121526765

445,-0.02838452816858606,0.20011478195740784,0.1404261003162806,0.18407311371294865,0.1128922931969938,0.5522040742519096,0.5398038936794682,-0.03699588262099524,-0.00037051964102786895

446,-0.028391708966789962,0.20015333125308704,0.14017580342189345,0.18407313599666375,0.11360640948865587,0.5516759573909262,0.5396593293298017,-0.03699262275024581,-0.0003714272882602523

447,-0.02900595483832142,0.19999746231704119,0.14072612747516602,0.18720508045967854,0.11209801688653466,0.5527715567739372,0.5402261707504847,-0.03703849092337664,-0.0003723352180229319

448,-0.029013335880855747,0.20003640925105196,0.1404756982175861,0.1872051022359712,0.11281253497904724,0.5522433220385594,0.540081548055575,-0.037035230079486135,-0.00037324335978618434

449,-0.029020660875678398,0.20007506030967603,0.1402252213226264,0.18720512412896312,0.1135273041605265,0.5517150486497311,0.5399370062022315,-0.037031970906810256,-0.00037415167035285794

450,-0.02902793102349261,0.20011342168205015,0.13997469855420866,0.18720514617037592,0.11424235616483423,0.5511867586064056,0.5397925704341553,-0.037028714068230224,-0.00037506010774790476

451,-0.02903514718904391,0.20015149789796896,0.1397241301030679,0.18720516836248044,0.11495771819063615,0.5506584679375581,0.53964825756917,-0.03702545998750122,-0.0003759686344617992

452,-0.02964208909799555,0.19999752066218462,0.14026548795889018,0.1902990320459719,0.11347638058684462,0.5517373412702139,0.5402091254822455,-0.03707089154559879,-0.0003768774431908509

453,-0.029649501888219118,0.20003598408119688,0.1400147839169579,0.19029905376134337,0.11419215758227985,0.5512089320382126,0.5400647583595269,-0.037067636582266014,-0.0003777864651288078

454,-0.02965685770381502,0.20007415172572415,0.13976403163790346,0.19029907560280646,0.114908191676113,0.5506804837552846,0.5399204729901594,-0.037064383312072985,-0.00037869565722520597

455,-0.02966415775153947,0.20011202971607836,0.13951323288581546,0.1902990976006779,0.1156245142286097,0.5501520182670678,0.5397762943820938,-0.03706113239160764,-0.00037960497763254254

456,-0.02967140289988609,0.20014962252756935,0.1392623878704179,0.19029911975629393,0.11634115211098407,0.5496235515053086,0.5396322392034909,-0.03705788424079794,-0.00038051438897933164

457,-0.03027090943683433,0.19999757813153635,0.13979491346122247,0.1933541948558037,0.11488638737517647,0.5506859271523394,0.5401871482642374,-0.037102878799421465,-0.0003814240815313643

458,-0.030278347508794615,0.20003554786841085,0.1395439297157041,0.19335421655544222,0.11560345317404211,0.550157341206695,0.5400430428854277,-0.037099629855872375,-0.00038233398826919006

459,-0.030285727684371384,0.20007322190459617,0.1392928971745334,0.19335423838633903,0.11632078198074321,0.5496287158558273,0.5398990201722264,-0.03709638262735164,-0.00038324406630190394

460,-0.030293051176095234,0.20011060629305716,0.13904181760238538,0.19335426037781453,0.11703840478799069,0.5491000727970349,0.5397551049017143,-0.03709313776427937,-0.0003841542739148707

461,-0.030300318856009322,0.2001477054557882,0.13879069122811344,0.1933542825306365,0.11775634814460782,0.5485714278683611,0.5396113135958102,-0.03708989568284302,-0.00038506457387936174

462,-0.030307531392488908,0.20018452280496207,0.13853951736269143,0.1933543048373316,0.11847463488272685,0.5480427917464797,0.5394676580065872,-0.037086656674731454,-0.00038597493818185157

463,-0.03101530267520568,0.19999660325049184,0.13921731468896564,0.19696767995317832,0.1166131390882358,0.5493983541942855,0.5401472562014674,-0.03714025840316368,-0.0003868856043993931

464,-0.03102276431095452,0.2000339765889252,0.13896598703229315,0.19696770165317226,0.11733185019147675,0.5488695790121543,0.5400035044990177,-0.03713701765510141,-0.0003877965082812565

465,-0.03103016654150454,0.20007105226479616,0.13871460832462884,0.1969677234759953,0.11805082333220861,0.5483407538525386,0.539859827310818,-0.037133778410319694,-0.0003887076063726596

466,-0.03103751070138888,0.20010783680218464,0.13846318091120777,0.1969677454582282,0.11877009067817411,0.5478119027646883,0.5397162519404606,-0.03713054138849131,-0.0003896188538420946

467,-0.031044797740053597,0.20014433492012645,0.13821170542689454,0.19696776760301468,0.11948967967563273,0.5472830435541234,0.5395727964971831,-0.03712730704647896,-0.00039053020941234526

468,-0.031052028380447176,0.20018055023755532,0.13796018149064934,0.1969677899038631,0.12020961379651993,0.5467541884221095,0.5394294738637736,-0.037124075704198484,-0.0003914416414373276

469,-0.03174900623019207,0.19999669742717568,0.13862574583061102,0.2005237276666202,0.1183910567279656,0.5480904731409514,0.540107515116376,-0.03717749282340099,-0.0003923533826083565

470,-0.031756480693833584,0.20003345345388868,0.13837406285121867,0.20052374937622425,0.11911142510499347,0.5475614745402577,0.5399640969940941,-0.037174259743729406,-0.00039326536707701246

471,-0.03176389458401985,0.20006991148445719,0.13812232829104476,0.20052377121176715,0.1198320603751792,0.5470324245110187,0.5398207533184569,-0.037171028164584854,-0.0003941775499597264

472,-0.03177124925808296,0.20010607803801603,0.13787054455931635,0.20052379320920488,0.12055299455869559,0.5465033473314719,0.5396775114549123,-0.03716779880677139,-0.00039508988553265875

473,-0.03177854568128751,0.2001419578261003,0.13761871235717674,0.20052381537140695,0.12127425494497776,0.5459742609973245,0.5395343895819171,-0.03716457212874657,-0.00039600233192030576

474,-0.03178578458772567,0.20017755445685856,0.13736683136843889,0.20052383769171492,0.12199586484566909,0.545445177876721,0.5393914006441507,-0.037161348451905545,-0.00039691485701440384

475,-0.032471425411320254,0.1999967913750465,0.1380204495609719,0.20402059512414483,0.12021270741181214,0.5467589368232132,0.54006086299696,-0.0372141329928329,-0.0003978276893790109

476,-0.03247890287518,0.2000329144888167,0.13776840611201072,0.20402061686897693,0.12093476409782195,0.5462297098612535,0.5399177834062959,-0.037210907684230965,-0.0003987407656252541

477,-0.03248631865613859,0.20006873948842951,0.1375163108097607,0.20402063874143894,0.12165709344436595,0.5457004314358506,0.5397747793188673,-0.03720768390145859,-0.00039965404085516077

478,-0.03249367412135065,0.2001042728280165,0.13726416606088465,0.2040206607766584,0.12237972711202977,0.5451711256994726,0.5396318778634063,-0.037204462358832964,-0.00040056746934509377

479,-0.03250097024260771,0.20013951916846906,0.13701197258507822,0.20402068297720014,0.12310269207255127,0.5446418105682646,0.5394890970757897,-0.03720124351111904,-0.00040148100929857095

480,-0.03250820775826329,0.20017448207529123,0.13675973009613926,0.2040207053362762,0.12382601135622158,0.544112498375905,0.5393464498071049,-0.03719802767733551,-0.00040239462866028516

481,-0.03318230715655068,0.1999968834466337,0.1374016446933814,0.20745719386233066,0.12207740670459692,0.5454041572050466,0.5400073895041373,-0.03725018123527004,-0.0004033085522231503

482,-0.03318977789335905,0.2000323590528355,0.13714923648571997,0.20745721565850747,0.12280118578006254,0.5448747015066049,0.5398646569240733,-0.03724696388804903,-0.00040422271941611005

483,-0.033197185857493525,0.20006753644416925,0.1368967762043754,0.20745723758263745,0.12352524344550922,0.5443451945374483,0.5397220010747122,-0.03724374809613341,-0.00040513708554185937

484,-0.033204532423373845,0.20010242200149594,0.1366442662448123,0.20745725966912712,0.12424961096792457,0.5438156602711576,0.5395794488076981,-0.03724053456636207,-0.00040605160502628894

485,-0.033211818567400055,0.20013702032886418,0.13639170733903083,0.20745728192033636,0.12497431497548199,0.5432861165052872,0.539437017986052,-0.03723732374906042,-0.0004069662362599068

486,-0.03321904503072088,0.20017133494451358,0.13613909922636547,0.20745730432944232,0.12569937819728194,0.5427565755103384,0.5392947213447372,-0.03723411596031418,-0.0004078809473198105

487,-0.03388139886166327,0.19999697366235755,0.13676955108397332,0.21083244676270527,0.1239844714190611,0.5440265486707012,0.5399471784619921,-0.037285639100062745,-0.00040879595925134317

488,-0.033888853128641004,0.20003178752306366,0.13651677406749946,0.21083246861944024,0.12471000745229341,0.5434968645962696,0.5398048018668656,-0.03728242991678595,-0.00040971121442034026

489,-0.03389624354595881,0.20006630305001355,0.13626394478478715,0.2108324906036369,0.12543582800630376,0.5429671294826267,0.5396625032459671,-0.03727922231863707,-0.00041062666836214735

490,-0.03390357149445695,0.2001005265509424,0.1360110656204498,0.21083251274906387,0.1261619639525603,0.54243736712396,0.5395203091738612,-0.03727601700498343,-0.00041154227566480076

491,-0.03391083795450815,0.20013446257316445,0.13575813731911693,0.21083253505794672,0.1268884415740008,0.5419075951991505,0.5393782373404652,-0.03727281442170663,-0.0004124579949121373

492,-0.033918043669551694,0.20016811458776984,0.1355051596459935,0.21083255752349034,0.12761528329701755,0.5413778259156177,0.5392363003643914,-0.03726961488195449,-0.0004133737943175696

493,-0.03456845210767508,0.19999706200272388,0.13612439331858983,0.21414530668321946,0.12593320619485943,0.5426265330679662,0.5398803145390457,-0.037320508203133006,-0.00041429006441133075

494,-0.03457588001754549,0.20003120013889492,0.1358712436335425,0.21414532745240947,0.12666053362948004,0.5420966211459831,0.5397383029113492,-0.037317307404239594,-0.0004152065783148681

495,-0.03458324289958598,0.20006503981615964,0.1356180415215491,0.21414534785465697,0.12738815146413512,0.5415666584362692,0.5395963704936874,-0.03731410821803265,-0.0004161232706517496

496,-0.03459054215431888,0.2000985872682927,0.13536478935780807,0.2141453679849179,0.12811609017893946,0.5410366685610863,0.5394545435897712,-0.03731091133669336,-0.0004170400972328153

497,-0.034597778778007224,0.20013184698495828,0.13511148790066133,0.21414538789718932,0.1288443757147234,0.5405066690863365,0.5393128397209304,-0.03730771720206754,-0.0004179570197701197

498,-0.03460495352640279,0.20016482238928687,0.1348581369420144,0.21414540762879203,0.12957303019750002,0.5399766721606507,0.5391712713927753,-0.03730452612468962,-0.00041887400903603046

499,-0.03524322275409648,0.19999714844173802,0.13546640062663515,0.21739475608430195,0.1279229041947476,0.5412045395659734,0.5398068847189466,-0.03735479040621048,-0.0004197913132820473

500,-0.03525061411330579,0.20003059713592458,0.13521287463749032,0.21739477454057693,0.12865205709360136,0.540674400455732,0.5396652469498693,-0.03735159816759126,-0.0004207088377733128

501,-0.03525793943620134,0.20006374718954947,0.1349592960987286,0.21739479285168647,0.12938150618640054,0.5401442108307911,0.5395236896134525,-0.03734840757100821,-0.00042162654181722914

502,-0.03526520012706368,0.20009660476739713,0.1347056673779764,0.21739481109319794,0.1301112815690765,0.539613994151667,0.5393822387517991,-0.03734521930197179,-0.00042254438553521

503,-0.035272397181721454,0.20012917430597288,0.13445198924852161,0.21739482929995646,0.13084140884596543,0.5390837678790125,0.5392409117239392,-0.03734203379818422,-0.00042346233110642086

504,-0.03527953135388119,0.20016145918423772,0.1341982615298159,0.21739484749172455,0.13157190984706352,0.5385535441083383,0.5390997209269731,-0.03733885136739871,-0.0004243803490194372

505,-0.035905471030889605,0.19999723296769115,0.13479580679838596,0.220579812346171,0.1299528476379079,0.5397610045484367,0.5397269786503882,-0.037388487647888984,-0.00042529868293509303

506,-0.035912816273780776,0.20002997859210198,0.13454190113531939,0.22057982956079455,0.13068385952233733,0.5392306390844626,0.5395857235564142,-0.037385304171023995,-0.00042621724112671506

507,-0.0359200944639747,0.200062425367748,0.1342879428451331,0.22057984675316258,0.1314151732898854,0.5387002234134892,0.5394445501087619,-0.037382122365540824,-0.00042713598269648976

508,-0.03592730700824119,0.20009457939269604,0.13403393428915023,0.22057986398628826,0.13214681865955918,0.538169780843097,0.5393034840955154,-0.03737894291002881,-0.0004280548674699923

509,-0.03593445490305837,0.20012644505172109,0.13377987625642018,0.22057988128413944,0.13287882090499242,0.5376393287351438,0.5391625427188337,-0.03737576623811788,-0.00042897385741229706

510,-0.035941538901518105,0.20015802568067903,0.13352576859444765,0.22057989865681088,0.1336112015648309,0.5371088791366553,0.539021738271272,-0.03737259265488573,-0.00042989292279150556

511,-0.036554961618766084,0.1999973155692084,0.13411285010142157,0.22369951926120304,0.13202230807895032,0.5382963713519059,0.5396406885930213,-0.03742160220115911,-0.0004308123028356575

512,-0.036562251078921734,0.2000293447097447,0.133858561696453,0.223699535823888,0.13275521181274777,0.5377657806027369,0.5394998249189127,-0.0374184276849726,-0.00043173190910032565

513,-0.03656947246840597,0.2000610747647891,0.1336042206368491,0.22369955243102096,0.13348842299534497,0.5372351399949242,0.5393590440952024,-0.037415254869051305,-0.0004326517006699266

514,-0.03657662719734686,0.20009251176776968,0.13334982927882202,0.22369956913843458,0.13422197097697786,0.5367044726919883,0.5392183716641143,-0.03741208442528884,-0.0004335716372337881

515,-0.03658371626372091,0.20012366005333493,0.1330953884278829,0.22369958596407286,0.1349558807072097,0.5361737959635146,0.5390778246766639,-0.03740891678340145,-0.0004344916806866837

516,-0.036590740420798816,0.20015452291551894,0.13284089795996323,0.2236996029127501,0.13569017343877054,0.5356431218126848,0.5389374153250049,-0.03740575224590823,-0.00043541180120801434

517,-0.037191463731188805,0.19999739623006565,0.1334177731959869,0.22675295074332524,0.13413054672712102,0.5368110900741387,0.5395481093254219,-0.03745413655787938,-0.00043633223369082206

518,-0.03719868769647688,0.2000286956763896,0.13316309931025447,0.22675296697725775,0.13486537441551408,0.5362802753783142,0.5394076457446118,-0.037450971198726556,-0.0004372528931506966

519,-0.037205842577139873,0.20005969577068416,0.13290837279644555,0.22675298329153493,0.13560051498030323,0.5357494112185289,0.5392672662091853,-0.037447807568353836,-0.0004381737387550616

520,-0.037212929787046496,0.20009040248398155,0.13265359600671478,0.22675299973776122,0.13633599741170677,0.5352185206230111,0.5391269960237216,-0.0374446463321783,-0.0004390947301383729

521,-0.03721995032607706,0.20012082010255683,0.13239876976359605,0.22675301633051956,0.13707184634241,0.534687620775463,0.5389868520938467,-0.037441487916155015,-0.0004400158291982167

522,-0.03722690494807163,0.2001509518800404,0.13214389397168405,0.22675303307174946,0.13780808274518755,0.5341567236397122,0.5388468465154659,-0.03743833262035536,-0.00044093700609318913

523,-0.03781475119846859,0.19999747493596537,0.13271082304877674,0.22973921016945417,0.13627681483155588,0.5353056174243573,0.5394493381740412,-0.03748609344097552,-0.00044185859168664184

524,-0.03782189988132019,0.200028031689585,0.1324557612951569,0.22973922558436202,0.13701359774290167,0.5347745804236844,0.5393092832962417,-0.03748293744371031,-0.0004427804057485255

525,-0.03782897840735986,0.20005828880682522,0.132200646997526,0.22973924081095634,0.13775069880901034,0.53424349440551,0.5391693136505212,-0.0374797832022629,-0.0004437023946786804

526,-0.03783598820216364,0.20008825219709625,0.13194548250482593,0.22973925593400338,0.1384881466690634,0.5337123822710673,0.5390294543116679,-0.037476631375830446,-0.00044462451848552564

527,-0.0378429302748116,0.2001179260987488,0.13169026865700842,0.22973927099633498,0.1392259656463202,0.5331812611241569,0.5388897220454938,-0.03747348238692082,-0.0004455467407702361

528,-0.03784980538589981,0.2001473137253472,0.13143500538742384,0.2297392860239584,0.13996417643984982,0.5326501428934127,0.5387501288557012,-0.037470336533405035,-0.00044646903311624327

529,-0.03842460254675109,0.19999755167051622,0.13199225084509586,0.2326574298958006,0.13846035398242776,0.5337804165324719,0.539344474939547,-0.03751747581505866,-0.00044739164157602305

530,-0.038431666010223096,0.20002735296220905,0.13173679920498105,0.23265744386829573,0.13919912248047558,0.5332491591940629,0.5392048372977931,-0.037514329357339754,-0.0004483144642694501

