tc-huang/low_cost_robot/result/circle.csv
,x,y,z,j0,j1,j2,j3,j4,j5
0,0.008728,0.105265,0.053893999999999984,2.0490962801440652e-07,1.948842015734718e-05,-6.923242613085934e-05,3.018465238817793e-05,-8.329169537214389e-07,-6.934196320654644e-08
1,0.008166575153518114,0.11414299329467806,0.06229888818206089,0.00491964634428323,-0.028812863873501293,0.05227535955996994,0.028930104153373118,-0.0018330928211861208,-2.4406471582122765e-07
2,0.007570732963509846,0.12193230282620553,0.07104320469205004,0.009493818579672008,-0.05445861636354041,0.10029220731042181,0.058094140457560055,-0.0036827777368582115,-4.82540274382209e-07
3,0.006964658427411275,0.12861569267389644,0.07976495795033024,0.013714977956566385,-0.07654902873433232,0.1437223450282527,0.08678966687242644,-0.005503509952756919,-7.600831842889522e-07
4,0.0063677997949971085,0.13426291919690625,0.08815740311416029,0.01758583819106154,-0.09495733349615383,0.18252676317810657,0.11445169981219412,-0.0072594433024671425,-1.065774523297555e-06
5,0.005794006485683983,0.13899903547923012,0.09599464027700667,0.021116812046172374,-0.10976208832254826,0.21685303078073154,0.1406932353501812,-0.008925978133169697,-1.3949662478755126e-06
6,0.005251895892686093,0.14297272584975976,0.1031361010795114,0.02432349238670488,-0.12119282084839936,0.2469856982421044,0.1652900402326887,-0.010488819804734132,-1.7454859020941345e-06
7,0.004745893673916643,0.1463319701676251,0.10951631174300624,0.027224591507825493,-0.1295734076563404,0.2732942716757455,0.18815044256870023,-0.011942073907588273,-2.116060145480585e-06
8,0.004277447086991895,0.14920923138503153,0.11512769273905504,0.029840386378353446,-0.13527333814979153,0.2961879517920641,0.20928042968049412,-0.013286039378689005,-2.5057046672542493e-06
9,0.0038461020164041234,0.15171490053163225,0.12000241920064718,0.032191622317104304,-0.13867112500274945,0.31608122727467725,0.22875115801968,-0.014525152253615245,-2.913502015212604e-06
10,0.003450319978156603,0.15393639468906736,0.12419673782986973,0.03429878767529285,-0.14012990987495214,0.3333706432231152,0.24667239834452026,-0.01566630418667326,-3.3385324649400815e-06
11,0.0030880313782537363,0.15594039091062992,0.127778978492062,0.03618166550272302,-0.13998318100607726,0.34842104404878693,0.2631727803952764,-0.01671759093288803,-3.7798648646937196e-06
12,0.002756975819354413,0.15777635393261594,0.13082120242712453,0.03785907890568451,-0.13852792103789113,0.3615589248081752,0.2783862053782386,-0.017687451062469876,-4.2365694929697774e-06
13,0.0024548921589146373,0.15948024119381152,0.13339385363959627,0.03934876431617305,-0.13602273043787533,0.37307063685424946,0.2924431946935938,-0.018584117099441994,-4.707736677931122e-06
14,0.002179612615052863,0.16107782429237863,0.13556264684337802,0.04066732488849112,-0.1326890048280133,0.38320362848994044,0.30546587429363575,-0.019415296843582477,-5.192494131645664e-06
15,0.0019291007674846882,0.16258741889904402,0.1373870036526082,0.041830231579861876,-0.12871379951145337,0.3921693927156583,0.3175654711441073,-0.020188013804559268,-5.690020243088828e-06
16,0.0017014597224857715,0.1640220078324357,0.1389194972992229,0.042851851133275734,-0.12425347525682107,0.4001472214029857,0.3288414493826614,-0.020908551547115548,-6.1995526928035275e-06
17,0.0014949263392338846,0.16539083008912497,0.14020591533614699,0.043745488334265094,-0.11943756065555967,0.40728819274485356,0.33938165388716013,-0.021582461929313592,-6.7203927727630375e-06
18,0.0013078603711589613,0.16670053698495746,0.14128567302463566,0.044523435239607695,-0.11437250171726122,0.4137190512252002,0.34926302585463254,-0.022214609669166257,-7.251906215587479e-06
19,0.00113873298130549,0.1679560149978074,0.14219240240247952,0.04519702335237747,-0.10914512351245743,0.4195457953221371,0.358552603332591,-0.02280923505972352,-7.793521430943001e-06
20,0.0009861165461105808,0.16916096087233762,0.14295460714398514,0.04577667661987115,-0.10382572531571811,0.42485688805624255,0.3673086254249602,-0.023370023346200593,-8.344725975904602e-06
21,0.0008486763029984983,0.17031827726255339,0.14359631740001153,0.04627196417013138,-0.09847078865383257,0.4297260665429007,0.3755816313341553,-0.02390017386348856,-8.905061946229266e-06
22,0.0007251637473468702,0.17143034093279783,0.14413770769519868,0.04669165223251109,-0.09312531052588893,0.43421476192994446,0.3834154933665387,-0.02440246506896381,-9.474120820492357e-06
23,0.000614411431131669,0.1724991819201454,0.14459565934884155,0.04704375493572189,-0.08782479114791024,0.4383741597376769,0.39084835378759447,-0.02487931355343886,-1.0051538145853802e-05
24,0.0005153287669125359,0.17352660136420994,0.14498426023246397,0.0473355837810276,-0.08259691303809504,0.4422469389517717,0.3979134544536709,-0.025332826319472552,-1.0636988333983645e-05
25,0.00042689848553119705,0.17451424764349657,0.1453152414083539,0.04757379562716623,-0.07746295006139606,0.44586873039676794,0.40463985941322506,-0.02576484633057619,-1.1230179740789702e-05
26,0.00034817347341419,0.17546366454180726,0.1455983539612164,0.04776443903867766,-0.07243894369062322,0.4492693336062488,0.4110530769032643,-0.026176991730528454,-1.1830850132114474e-05
27,0.00027827379533703483,0.17637632091751487,0.14584169124007834,0.04791299886030254,-0.06753668075621819,0.45247372828035687,0.41717559022410655,-0.02657068932660626,-1.2438762585865894e-05
28,0.00021638377763587464,0.1772536283413002,0.1460519624905666,0.048024438894738335,-0.06276450327668781,0.4555029125057877,0.42302730809141276,-0.026947203002124612,-1.305370184508284e-05
29,0.00016174908095451662,0.1780969510668089,0.14623472394431392,0.04810324258094042,-0.058127977128078614,0.45837459581197126,0.4286259450425495,-0.027307657723134753,-1.3675471112529019e-05
30,0.00011367373095364387,0.17890761124605042,0.14639457313898002,0.04815345159428861,-0.05363044262470369,0.46110377118831897,0.433987341828337,-0.02765305976397177,-1.4303889262415012e-05
31,7.151710212519209e-05,0.1796868913065414,0.1465353117548682,0.04817870231635612,-0.04927346669791748,0.46370318656479376,0.439125734771924,-0.02798431371688482,-1.4938788436272308e-05
32,3.469086661543781e-05,0.18043603473208417,0.14666008168611444,0.04818226014877663,-0.04505721333981514,0.4661837330352894,0.4440539820185142,-0.028302236784553285,-1.5580011985919788e-05
33,2.6559293139216678e-06,0.1811562460351873,0.14677147848351013,0.048167051671233606,-0.040980746337497063,0.46855476429548926,0.4487837535461683,-0.02860757078806852,-1.6227412725406974e-05
34,-2.5080625422612378e-05,0.18184869040712223,0.14687164575038536,0.04813569466679321,-0.03704227604556081,0.47082435935653444,0.45332569082060525,-0.028900992260856916,-1.688085145475112e-05
35,-4.89685494534306e-05,0.18251449333306172,0.14696235356246412,0.048090526058009744,-0.03323935999980665,0.4729995385490128,0.4576895410854732,-0.029183120942923125,-1.754019572041614e-05
36,-6.941738462263106e-05,0.18315474033118112,0.1470450635256983,0.048033627814150374,-0.029569065527704597,0.47508644110768894,0.46188427049432296,-0.029454526940366182,-1.820531878030333e-05
37,-8.6799333210116e-05,0.18377047689297124,0.1471209826845747,0.047966850903482024,-0.02602810112374357,0.47709047118410086,0.4659181596106817,-0.029715736772322563,-1.8876098744149617e-05
38,-0.00010145202720060389,0.1843627086515912,0.1471911081451585,0.047891837374989255,-0.022612922194686552,0.4790164179316517,0.469798884221337,-0.029967238490891317,-1.955241786342136e-05
39,-0.00011368118222199707,0.18493240177519427,0.1472562639780874,0.047810040661413776,-0.01931981580827015,0.48086855430966924,0.47353358391547207,-0.03020948602858753,-2.0234161947893975e-05
40,-0.0001237631256109156,0.18548048356556568,0.1473171317118149,0.047722744200452846,-0.016144968269824835,0.48265071842677904,0.4771289204679486,-0.03044290290177882,-2.0921219889019897e-05
41,-0.00013194719138981056,0.1860078432343016,0.1473742755103898,0.047631078473676494,-0.013084518679105693,0.4843663805617588,0.4805911277182308,-0.030667885376720782,-2.1613483272867577e-05
42,-0.00013845797789483437,0.18651533282590493,0.14742816294783392,0.0475360365635747,-0.010134601062269029,0.48601869843776674,0.48392605434733404,-0.030884805186600247,-2.2310846067820687e-05
43,-0.00014349746634075965,0.18700376825747086,0.14747918213804104,0.047438488328456076,-0.007291377212556457,0.48761056286305665,0.48713920071488165,-0.03109401187286183,-2.301320437438122e-05
44,-0.00014724700074599667,0.18747393044669625,0.14752765585079722,0.04733919329299457,-0.004551061991874052,0.4891446354708492,0.4902357507190842,-0.03129583481154294,-2.3720456226308342e-05
45,-0.00014986913138804233,0.18792656650290218,0.1475738531372658,0.04723881234933004,-0.0019099425305992076,0.4906233799785648,0.4932205994774818,-0.03149058497495169,-2.4432501433976222e-05
46,-0.0001515093253499425,0.18836239095905172,0.14761799889880692,0.04713791836000962,0.0006356074967052436,0.49204908813017983,0.49609837748987723,-0.03167855647042936,-2.5149241462265776e-05
47,-0.00015229754879070908,0.18878208702604352,0.14766028175849802,0.047037005749910675,0.0030891175559031123,0.4934239012751309,0.4988734718321801,-0.031860027890839,-2.5870579336536763e-05
48,-0.00015234972636813445,0.18918630785367757,0.147700860532765,0.0469364991697845,0.005454013110525669,0.49474982836475595,0.5015500448368108,-0.03203526350555791,-2.6596419571282215e-05
49,-0.00015176908380087114,0.18957567778552692,0.14773986954908205,0.04683676130934269,0.007733611008735817,0.4960287610059452,0.5041320506384658,-0.03220451431590917,-2.7326668116964967e-05
50,-0.0001506473799159835,0.1899507935974545,0.1477774230130104,0.0467380999329916,0.00993111687608055,0.4972624860959081,0.5066232499006056,-0.032368018994969085,-2.806123232130411e-05
51,-0.0001490660347228329,0.19031222571169853,0.14781361859246356,0.04664077420649617,0.012049624087765512,0.49845269646714324,0.5090272229856271,-0.032526004728384204,-2.8800020901920377e-05
52,-0.00015049413998029313,0.1903429080145187,0.14762025035295362,0.04664075933014654,0.012569974310454077,0.4979795045052476,0.5088885234678242,-0.032522890831747406,-2.9542502763666778e-05
53,-0.00015193112940065177,0.19037377171172698,0.14742570959317258,0.04664074676507415,0.013094723059877246,0.49750460442274946,0.508749734552487,-0.03251977428769793,-3.0288720876053467e-05
54,-0.00015337605140285527,0.19040479596647292,0.14723003221108807,0.0466407363713416,0.013623696719549895,0.4970280160059566,0.5086108447282681,-0.032516654924037214,-3.103867860425678e-05
55,-0.00015047482716723862,0.19074011024330031,0.14736543096659907,0.04654328149725466,0.01539986222325664,0.4984038447467648,0.5110457234207312,-0.03267660983414185,-3.179279944637225e-05
56,-0.00015194763984313804,0.19077178575965947,0.14716730423467259,0.046543273613247546,0.015936987168731466,0.49792420458044157,0.5109063644482128,-0.03267347900514342,-3.2550411603724125e-05
57,-0.00015342599335337916,0.19080357393105707,0.14696813753938515,0.046543267393118315,0.016477935838917213,0.4974430061898253,0.5107668898076342,-0.032670344911280305,-3.331145174669786e-05
58,-0.00015490920816498693,0.19083545968221027,0.14676796522866392,0.04654326276085859,0.017022570251506584,0.4969602857005397,0.5106273036936549,-0.032667207748367164,-3.407587206424432e-05
59,-0.00015639658385786705,0.19086742828229714,0.146566820317433,0.0465432595943812,0.01757076156515,0.49647608571477414,0.5104876076786358,-0.03266406757560074,-3.484359293597451e-05
60,-0.00015788745315748788,0.19089946590186818,0.14636473497108143,0.04654325777088949,0.018122388133843436,0.49599045111799844,0.5103478045821846,-0.03266092446720984,-3.561451981477816e-05
61,-0.0001593811900432781,0.19093155960034197,0.14616174051383365,0.04654325717764785,0.018677334571504656,0.4955034276158688,0.5102078987190362,-0.03265777853110075,-3.638855329289274e-05
62,-0.00016087720724519347,0.1909636972280105,0.14595786737438507,0.046543257713245405,0.019235491121656612,0.49501506098284426,0.5100678955640338,-0.032654629903185454,-3.7165593160662976e-05
63,-0.00016237495208392804,0.19099586733154622,0.14575314504199793,0.04654325928666634,0.01979675316810955,0.4945253965808933,0.5099278014005433,-0.03265147873922371,-3.794554011566778e-05
64,-0.00015680395313546688,0.19128635883243678,0.14614851725457945,0.046443192638677494,0.020802489686480005,0.49644783796647685,0.5125736186650048,-0.03282481879796866,-3.872886044816387e-05
65,-0.0001583322083960866,0.19131925211037626,0.14594187727357294,0.04644319440655318,0.021369738092100885,0.4959558819735301,0.5124330025775552,-0.03282165524434183,-3.951482430480352e-05
66,-0.0001598606136993929,0.19135214640256928,0.14573446323170855,0.04644319700301125,0.02193981017676486,0.4954627517800344,0.5122922966782412,-0.03281848905382788,-4.0303365597928576e-05
67,-0.00016138886809414534,0.19138503404500892,0.14552630239914666,0.04644320046203528,0.022512617883819228,0.4949684855287172,0.5121515187556757,-0.032815320773572125,-4.109444190629999e-05
68,-0.00016291658570463836,0.19141790659059899,0.14531742004438855,0.046443204744901496,0.023088077978067157,0.4944731238864087,0.5120106791395083,-0.032812150682514474,-4.1887982473462036e-05
69,-0.0001644433718801146,0.19145075570422618,0.14510784025135393,0.04644320979725826,0.02366611073960053,0.493976706639755,0.5118697863633455,-0.0328089789966534,-4.268390608119168e-05
70,-0.00016596884200501677,0.19148357333152105,0.14489758611520553,0.04644321556448521,0.024246639616043685,0.4934792720981711,0.5117288483090929,-0.03280580591199975,-4.348213071140389e-05
71,-0.0001588382602426405,0.1917438262312215,0.1454456719481614,0.04634272702820112,0.024767912421310746,0.4957045293237732,0.5144631426727684,-0.03298476642654223,-4.428318471468494e-05
72,-0.00016039716752002178,0.1917774365561053,0.14523382124916268,0.046342732227665745,0.025353224278570438,0.4952053066047933,0.5143217059848796,-0.03298158174910503,-4.508633891732855e-05
73,-0.00016195338639358754,0.19181098797897525,0.14502135315900994,0.046342738003003384,0.02594079883786161,0.49470515213658234,0.5141802107486433,-0.0329783952038709,-4.5891541550396634e-05
74,-0.0001635067857022705,0.19184447622197232,0.14480828983143534,0.04634274442242379,0.02653057362872539,0.4942040997276781,0.5140386783473473,-0.032975207434617314,-4.669876403032996e-05
75,-0.0001650571239284939,0.19187789579052317,0.1445946512999771,0.046342751471121345,0.027122489285367094,0.4937021847803704,0.5138971210215225,-0.03297201876905207,-4.7507948723464926e-05
76,-0.0001666041349452996,0.19191124100438253,0.14438045641622785,0.04634275911379369,0.027716488425011752,0.4931994410277767,0.5137555482559164,-0.03296882944681833,-4.8319028106879104e-05
77,-0.00016814755087255114,0.19194450623084183,0.14416572310388656,0.0463427673118399,0.028312515494325653,0.49269590018325865,0.513613968235272,-0.032965639671256264,-4.9131934659203055e-05
78,-0.00015973571719190942,0.19217792232024128,0.14484532964960212,0.04624244483692222,0.028407063415504898,0.49517529388430703,0.5164129035637983,-0.03314870477670675,-4.994724626818637e-05
79,-0.0001613158953460564,0.1922120564598826,0.14462924951801917,0.046242452019360406,0.029006940999068694,0.4946703535233551,0.516270841252209,-0.03314550400018899,-5.07642391036072e-05
80,-0.00016289121438988266,0.19224608537384966,0.14441267347400957,0.046242459646183266,0.02960864670416611,0.4941646687206006,0.5161287442473222,-0.03314230194248327,-5.158287272925384e-05
81,-0.0001644616738326046,0.19228000742103085,0.14419561972213446,0.04624246780611161,0.030212137950041927,0.49365827006640006,0.5159866368223016,-0.033139099324965796,-5.240312890284792e-05
82,-0.0001660271427973859,0.19231381939983744,0.14397810424965257,0.04624247649735205,0.030817373913480044,0.4931511889964039,0.5158445327728503,-0.033135896514975796,-5.3224959741602784e-05
83,-0.0001675874534347267,0.1923475176875333,0.14376014186060376,0.04624248569436262,0.031424314553750186,0.49264345464185244,0.5157024423775336,-0.03313269377186118,-5.404830797987751e-05
84,-0.00016914242697619025,0.19238109852473562,0.1435417464758702,0.04624249536643239,0.03203292061280634,0.49213509367523345,0.5155603740997948,-0.03312949130570873,-5.4873117040371475e-05
85,-0.00015968166176337853,0.19259047906219218,0.14433434512148943,0.04614283352496681,0.03175182069065331,0.494826475686228,0.5184038973637363,-0.03331538653412123,-5.570000255025276e-05
86,-0.00016127676586096245,0.19262500492265952,0.1441147974536347,0.04614284190170876,0.0323635495956522,0.4943170118966754,0.5182613553953148,-0.03331217343779898,-5.6528248550224176e-05
87,-0.00016286532792699447,0.19265938929822246,0.1438948481500621,0.04614285065261245,0.032976767963264667,0.4938069475428615,0.5181187960099017,-0.033308959484835136,-5.7357822675169124e-05
88,-0.00016444745112016365,0.19269363265955802,0.1436745124179058,0.046142859879649493,0.03359144892991833,0.49329631117555256,0.5179762460561005,-0.033305745465060745,-5.818871365413673e-05
89,-0.00016602309184043582,0.19272773363195844,0.1434538031525871,0.04614286958862353,0.03420756627743592,0.49278513149508957,0.5178337207877373,-0.033302531782765155,-5.902088030342346e-05
90,-0.00016759215935823087,0.1927616902232429,0.1432327320511089,0.046142879759250494,0.034825093588669684,0.4922734343184882,0.517691231289001,-0.03329931871726001,-5.9854272655366485e-05
91,-0.0001575821756863256,0.1929531533169592,0.1440836174842666,0.04604495467680781,0.03431770894276129,0.49505510434272976,0.5205216687137197,-0.03348439305391783,-6.068951937650875e-05
92,-0.00015919271473164524,0.19298808585499005,0.1438615313392353,0.046044963480181784,0.034937853756631235,0.4945424979016943,0.5203787130243922,-0.033481169623300354,-6.152591639439612e-05
93,-0.0001607955673057198,0.19302285185212956,0.14363910791566561,0.046044972647748164,0.03555925400295862,0.4940293875826103,0.5202357504137982,-0.03347794559687686,-6.236343394235949e-05
94,-0.00016239090723060498,0.19305745326786083,0.14341636041784278,0.04604498228544549,0.03618189397611973,0.4935158011427335,0.5200928096964904,-0.03347472181426342,-6.320206306222978e-05
95,-0.00016397875165361907,0.19309189002524232,0.1431932996688688,0.04604499240097951,0.03680575774633065,0.49300176579553034,0.5199499073724316,-0.033471498710688254,-6.40417657584034e-05
96,-0.00016555906356349563,0.1931261612855061,0.14296993526999752,0.04604500297498542,0.037430828448035754,0.4924873053603302,0.5198070552820184,-0.03346827658407726,-6.488249621360232e-05
97,-0.00016713178203365056,0.1931602658050554,0.14274627596833442,0.04604501398106451,0.03805708852130651,0.4919724404396631,0.5196642626502206,-0.03346505566310559,-6.572421074667458e-05
98,-0.00015636659924362587,0.19333125057947007,0.14368653040207416,0.045948348964338796,0.03724116728009712,0.4949132651325397,0.5225158941642738,-0.03365147333716202,-6.65675634821427e-05
99,-0.00015798413769956346,0.19336640588201204,0.14346198025684276,0.04594835844268035,0.037869589577971687,0.49439767796237155,0.5223726410945942,-0.03364824231194059,-6.741186337574717e-05
100,-0.00015959293959845206,0.19340137167762114,0.1432371521779634,0.0459483682502929,0.038499055393745936,0.4938816774872206,0.5222293922257729,-0.03364501096371109,-6.825708674778964e-05
101,-0.00016119324273400175,0.1934361512404421,0.1430120574764072,0.045948378500368585,0.039129558851864504,0.4933652901692193,0.5220861779596488,-0.03364178017441293,-6.910322904397505e-05
102,-0.0001627851179381327,0.19347074562937333,0.14278670502483903,0.045948389204441824,0.03976109315775177,0.49284854149582463,0.5219430156883278,-0.0336385504019018,-6.995025638226101e-05
103,-0.00016436857560458637,0.19350515501862758,0.14256110246651235,0.045948400345652056,0.04039364996819798,0.4923314532010355,0.5217999177406863,-0.03363532195620816,-7.079812744700207e-05
104,-0.00015329875546324714,0.19366114213587968,0.14353823796569343,0.0458539745574182,0.0394130526640227,0.4953157535011526,0.5246187233333609,-0.03381966613742652,-7.164749731440221e-05
105,-0.00015492790759236326,0.19369662251874903,0.14331183505112388,0.04585398416574284,0.04004744085154322,0.4947980573642534,0.5244751666440873,-0.033816427674560535,-7.249768801273673e-05
106,-0.00015654757372644303,0.19373189665329482,0.1430851952410607,0.045853994110482,0.04068272033818739,0.49428000749376233,0.5243316190684416,-0.033813189012123705,-7.334867529059489e-05
107,-0.00015815804001566812,0.1937669688589825,0.14285832866237025,0.04585400450576749,0.04131889285128937,0.4937616305905838,0.5241881126951249,-0.03380995107352588,-7.420045389274461e-05
108,-0.0001597594190669155,0.19380184110225807,0.14263124293665308,0.045854015363422464,0.041955958523926896,0.4932429517167358,0.5240446660812965,-0.0338067143452814,-7.505299050702186e-05
109,-0.0001613517579049234,0.19383651435451266,0.1424039444198529,0.045854026666411626,0.04259391538824469,0.492723991712318,0.5239012923239796,-0.03380347915631127,-7.590624547027872e-05
110,-0.0001629350708910269,0.19387098899804808,0.14217643861677903,0.04585403838963503,0.04323275979123519,0.4922047676227644,0.5237580013320464,-0.03380024575204051,-7.676018248519849e-05
111,-0.0001513185983164798,0.19400912968981093,0.14322534271335585,0.04576125954045318,0.04199493620893779,0.4953097739261056,0.5265822198310935,-0.03398493115971226,-7.761547374515684e-05
112,-0.00015295067038938442,0.19404474371242986,0.1429971171623184,0.04576126961876609,0.04263532304688178,0.49479005959235184,0.5264384732183228,-0.03398168790526351,-7.847145676241424e-05
113,-0.00015457258295008876,0.19408013651522418,0.14276869239725004,0.045761280008899674,0.04327646684847728,0.49427004876167,0.5262947426420883,-0.03397844462067532,-7.932811163746785e-05
114,-0.00015618466298493103,0.19411531326345366,0.14254007735721771,0.045761290829714196,0.04391837563558284,0.4937497674388571,0.5261510612635816,-0.03397520225777556,-8.018543560109643e-05
115,-0.0001577870572570016,0.19415027665241055,0.1423112784361923,0.045761302095626184,0.04456105537572156,0.49322923968179294,0.5260074482593231,-0.033971961318734915,-8.104339764718238e-05
116,-0.00015937984287393153,0.19418502830125936,0.14208230075480488,0.04576131379137324,0.04520450953383653,0.492708485075213,0.5258639170770216,-0.03396872214115942,-8.19019607459611e-05
117,-0.0001609630612660947,0.1942195691767986,0.14185314859084996,0.04576132589318637,0.04584873954426386,0.4921875192334228,0.525720477790669,-0.03396548497451142,-8.276109158879592e-05
118,-0.00014891382033687273,0.19434129844319736,0.14296313182636813,0.045670410927173846,0.044384404455380756,0.4953899875153888,0.528540292596182,-0.03414988928612085,-8.36214714791658e-05
119,-0.00015054840944229552,0.19437703714658106,0.1427333237780788,0.04567042130220607,0.04502993837130317,0.4948686130560919,0.5283963921512361,-0.034146642206235055,-8.448245123886079e-05
120,-0.0001521722714113707,0.1944125418757328,0.14250334604098389,0.04567043197402441,0.045676119449905364,0.49434698410248573,0.52825251046483,-0.03414339516240803,-8.534401181557323e-05
121,-0.00015378577238337778,0.19444781861741114,0.14227320677188446,0.0456704430655386,0.04632296132397289,0.4938251271012556,0.5281086822549126,-0.03414014914618037,-8.6206150077839e-05
122,-0.0001553890914334482,0.19448287076099885,0.14204291150951817,0.04567045459342862,0.04697047505834489,0.493303066047056,0.5279649277327142,-0.03413690468550595,-8.706883511230292e-05
123,-0.00015698233347758578,0.19451770052749867,0.14181246448098084,0.04567046654389824,0.04761866878739172,0.4927808200735815,0.527821261034286,-0.03413366213500306,-8.793203070316521e-05
124,-0.00014489299303558235,0.19462778902549738,0.14293415704559648,0.04558227280639226,0.04606347055303804,0.4959731565093289,0.5305871473707103,-0.03431465600968187,-8.879640646606933e-05
125,-0.0001465375957605576,0.19466381702681582,0.14270310635609335,0.04558228308387791,0.046712781007268896,0.4954505502472971,0.5304430174371904,-0.034311403501507756,-8.966132625708223e-05
126,-0.00014817104463782545,0.19469960114383256,0.1424719076680656,0.04558229367807811,0.04736265386670005,0.4949277183668937,0.5302989065647692,-0.03430815103993245,-9.052676728022558e-05
127,-0.00014979373543817093,0.1947351480396971,0.1422405686288855,0.0455823047101965,0.048013107443152465,0.494404688417592,0.5301548509009494,-0.03430489965009306,-9.139272296510408e-05
128,-0.00015140587341300107,0.19477046169047735,0.14200909420524174,0.04558231619594667,0.04866415696018472,0.4938814848425814,0.5300108717489584,-0.034301649886496956,-9.225916071859456e-05
129,-0.0001530075861593174,0.1948055448225356,0.14177748800553472,0.045582328120571766,0.04931581430930583,0.4933581267878004,0.5298669840203247,-0.03429840212280598,-9.312604388316082e-05
130,-0.0001545989592525894,0.194840399372094,0.14154575274855552,0.04558234046019007,0.049968088672357566,0.4928346288436691,0.5297231987541486,-0.03429515663224707,-9.39933409425262e-05
131,-0.00014218867641756228,0.1949357205588198,0.14271862808329713,0.04549614462565911,0.0482170052085071,0.4961039035488018,0.5324779101414914,-0.03447544021232769,-9.486173124922342e-05
132,-0.00014383387588368535,0.19497182851837458,0.14248633373566594,0.04549615522512503,0.04887024920686673,0.49558010730717633,0.5323336658163759,-0.034472184925640886,-9.573059650891185e-05
133,-0.00014546757050507703,0.1950076845185234,0.14225391092252193,0.04549616612431787,0.04952398722672437,0.49505611565039953,0.5321894447417086,-0.03446892978823658,-9.65999172403926e-05
134,-0.00014709017520601192,0.1950432956285063,0.14202136664785653,0.04549617744666964,0.050178240746103726,0.4945319556675897,0.5320452834789178,-0.03446567583614049,-9.746968819473407e-05
135,-0.0001487019115247309,0.19507866617925915,0.1417887052237751,0.04549618920933417,0.05083302792804791,0.4940076511958794,0.5319012035625698,-0.034462423629677934,-9.833987797652252e-05
136,-0.00015030292157179777,0.19511379921481653,0.14155592960572902,0.0454962013986969,0.05148836340835946,0.4934832206648791,0.5317572200217103,-0.03445917354541009,-9.921045132456745e-05
137,-0.00015189330408793902,0.1951486969594594,0.1413230418677264,0.04549621399183274,0.052144258945242127,0.49295867787491954,0.5316133439328441,-0.034455925857468095,-0.00010008137831112915
138,-0.0001392382397094336,0.1952302979165892,0.14253937529988692,0.04541213627417783,0.05021999049163,0.49628855482729883,0.5343504929540294,-0.034635094475635085,-0.0001009533406112417
139,-0.00014088446984002884,0.19526649453268907,0.14230596412323698,0.045412147075267716,0.05087672632775391,0.49576375070525436,0.5342061521822784,-0.03463183689991358,-0.0001018257341650034
140,-0.00014251887316391303,0.19530243170963968,0.14207243982036988,0.04541215816464465,0.05153389728016667,0.4952387717287352,0.5340618349226438,-0.0346285794795861,-0.00010269853907268604
141,-0.0001441418877710758,0.1953381170144821,0.14183880905562693,0.04541216966815142,0.05219152807648994,0.49471364572449106,0.5339175788619354,-0.03462532327871129,-0.00010357174852167336
142,-0.0001457537543280785,0.19537355519578933,0.1416050757459677,0.04541218160457788,0.05284963978001973,0.4941883968584769,0.5337734063297171,-0.03462206887727184,-0.00010444533014181683
143,-0.00014735463121161828,0.19540874965393634,0.14137124241687582,0.045412193961511124,0.05350824964680869,0.4936630435894296,0.5336293329086553,-0.03461881666549239,-0.00010531924837485138
144,-0.00014894463122619352,0.19544370292166127,0.14113731069169547,0.04541220671691053,0.05416737182808483,0.4931375995309427,0.5334853700494545,-0.03461556692673355,-0.00010619347352351665
145,-0.0001361070529879568,0.19551248668540658,0.14239059023976344,0.04533033171977594,0.052089299589627984,0.4965144879817722,0.5361998951368592,-0.03479330049395606,-0.00010706868680220777
146,-0.00013775462159415323,0.1955487776442363,0.14215616543208662,0.045330342651234465,0.05274915290217581,0.4959888099611953,0.5360554618849187,-0.03479004076464605,-0.00010794429812801511
147,-0.0001393900887556197,0.1955848026805515,0.14192164007964206,0.0453303538651443,0.05340939193381405,0.4954629732966858,0.5359110517612505,-0.03478678118129724,-0.00010882028652918779
148,-0.00014101391279361646,0.19562056980433085,0.14168702060023033,0.04533036548889925,0.05407004425087137,0.4949370066750531,0.5357667035267204,-0.03478352283437366,-0.00010969664314394077
149,-0.00014262635117842214,0.195656084135542,0.14145231061070732,0.04533037754240123,0.054731133426451535,0.49441093471048714,0.5356224402905083,-0.03478026632305999,-0.00011057333427430981
150,-0.00014422757651156876,0.19569134938927238,0.1412175123005081,0.04533039001403734,0.05539267896765416,0.49388477601468206,0.5354782781872643,-0.034777012051191956,-0.00011145032375545613
151,-0.00014581771380290168,0.19572636836845758,0.1409826269341943,0.04533040288231152,0.05605469706905174,0.4933585441418622,0.5353342290478241,-0.03477376031150724,-0.00011232758182202438
152,-0.00013284866531272296,0.19578312476020135,0.14226736692821146,0.04525078597742071,0.05383939779921648,0.49677117525462966,0.5380221796252591,-0.034949809131973375,-0.00011320578762045594
153,-0.00013449784439512058,0.19581951476688841,0.1420320148371241,0.04525079700311851,0.05450205495042806,0.49624473063141983,0.5378776554580549,-0.03494654731801265,-0.00011408436517023707
154,-0.00013613468856392766,0.19585563324740118,0.14179657265293355,0.04525080830841865,0.05516505634553028,0.4957181405780557,0.5377331538854686,-0.03494328563720474,-0.00011496329225705394
155,-0.00013775967314840886,0.19589148859156896,0.14156104659961244,0.04525082002159545,0.055828431988201206,0.4951914346149003,0.5375887146091823,-0.03494002520283939,-0.00011584255786119096
156,-0.00013937306991229116,0.19592708623931243,0.14132544005368833,0.04525083216328952,0.05649220759417622,0.49466463780654246,0.5374443614363285,-0.03493676663122551,-0.00011672212688677387
157,-0.00014097506356660489,0.19596243017626588,0.141089754931564,0.045250844722431106,0.05715640458479733,0.49413776894663886,0.5373001110000893,-0.03493351033847977,-0.00011760196247497102
158,-0.00014256578948378725,0.19599752343679214,0.1408539922035129,0.04525085767787294,0.05782104088685056,0.49361084157937746,0.5371559754769972,-0.03493025662586706,-0.00011848203467432268
159,-0.0001295070971460482,0.19604295057131066,0.1421655718389743,0.04517353017810181,0.055482718007781574,0.49704989378659353,0.5398143198259145,-0.03510442914934991,-0.00011936301938668749
160,-0.0001311581268430206,0.1960794435213315,0.14192936554959132,0.045173541280709925,0.05614791523541584,0.4965227702262769,0.5396697057232984,-0.035101165299251266,-0.00012024435480784577
161,-0.00013279662181600333,0.19611566006940637,0.14169307791614316,0.04517355266142823,0.056813421676065526,0.4959955121301604,0.5395251136324242,-0.0350979015685412,-0.00012112601741050082
162,-0.00013442307165577923,0.1961516089306016,0.14145671500701915,0.04517356444895326,0.057479269432566704,0.49546814980530607,0.539380584070267,-0.03509463909000571,-0.00012200799399062909
163,-0.0001360377602874184,0.1961872958204841,0.14122028000341894,0.04517357666443967,0.05814548605633879,0.49494070874945345,0.5392361414622359,-0.035091378495062095,-0.00012289024804466392
164,-0.0001376408827486143,0.19622272495751297,0.14098377459713846,0.04517358929722587,0.05881209460322458,0.49441320794737786,0.5390918028864986,-0.03508812021077773,-0.00012377274198437414
165,-0.0001392325832348983,0.1962578995746531,0.14074719951439274,0.04517360232642359,0.059479114475211016,0.4938856609623234,0.5389475808296599,-0.035084864546065415,-0.00012465544560357072
166,-0.00012611846385180998,0.1962926202075223,0.14208172602881222,0.04509857581591043,0.05702996280796539,0.4973434424339497,0.5415740445358853,-0.03525701712736548,-0.00012553903065892877
167,-0.00012777154971982483,0.19632921917961163,0.14184472795452613,0.045098586987485964,0.057697476854343205,0.49681571217099685,0.5414293412959262,-0.035253751280195804,-0.00012642294950618703
168,-0.0001294119284691985,0.1963655374729199,0.14160765591136049,0.04509859843620666,0.058365270322129174,0.4962878564251092,0.5412846594714064,-0.0352504855385253,-0.000127307177272275
169,-0.0001310401016832623,0.1964015840821315,0.14137051584152333,0.04509861029087375,0.05903337713358355,0.49575990624174227,0.5411400402862553,-0.03524722105178024,-0.00012819169857485838
170,-0.00013265636368754719,0.19643736496150008,0.14113331076613567,0.04509862257301951,0.0597018264229243,0.49523188753024433,0.5409955087143009,-0.03524395846472361,-0.00012907647551513426
171,-0.00013426091837866368,0.19647288453095826,0.14089604219071528,0.045098635272322156,0.06037064265073981,0.4947038194682871,0.5408510822312602,-0.03524069821419595,-0.00012996146976167086
172,-0.0001358539175129788,0.1965081461949058,0.14065871063744384,0.04509864836811745,0.06103984648367757,0.4941757156575109,0.5407067736018929,-0.03523744061597019,-0.00013084665080906647
173,-0.00012271228670876228,0.19653272045415643,0.14201290382139004,0.045025918341184634,0.058490360990576605,0.4976458971525272,0.5432997049885784,-0.03540746899448857,-0.00013173268558137684
174,-0.00012436759908730256,0.19656942772596941,0.14177516772044432,0.04502592957830208,0.05916000154385057,0.49711762010569155,0.5431549133803326,-0.035404201184496775,-0.0001326190404997542
175,-0.00012601005439314902,0.19660585053691873,0.14153736391171295,0.04502594109173414,0.05982989600098536,0.49658922515503456,0.5430101425970106,-0.035400933466419995,-0.00013350568933460732
176,-0.00012764016433136887,0.19664199812333205,0.14129949823414475,0.04502595301015969,0.06050007987217595,0.49606074403804284,0.5428654344772417,-0.03539766700390645,-0.00013439261455009077
177,-0.00012925823217391393,0.196677876647388,0.1410615735766836,0.04502596535540149,0.061170583665876,0.4955322030530871,0.5427208144829886,-0.035394402453547164,-0.00013527977687656382
178,-0.00013086446946659457,0.1967134907044682,0.14082359128917127,0.04502597811744256,0.061841433058415766,0.4950036215684419,0.5425763004462596,-0.035391140260932354,-0.00013616713723822182
179,-0.00013245903448938154,0.19674884384792754,0.1405855517218915,0.04502599127583313,0.06251264980826969,0.4944750132370843,0.5424319053819923,-0.035387880748004565,-0.00013705466480160364
180,-0.00011931257913850614,0.19676377927484445,0.14195664655449747,0.04495554019376461,0.05987188673811986,0.4979524037438057,0.5449901635904081,-0.03555571296392998,-0.00013794302114191235
181,-0.00012097025450646254,0.1968005963696427,0.14171821912576313,0.04495555149506966,0.06054349038702602,0.49742362994412787,0.5448452844325323,-0.03555244322320349,-0.00013883168658884463
182,-0.00012261494132508304,0.19683712563246014,0.1414797293429575,0.044955563071820526,0.06121532592351725,0.4968947446343121,0.544700425526371,-0.035549173561361044,-0.00013972063356043697
183,-0.00012424715987521557,0.1968733765096013,0.14124118295975047,0.04495557505240731,0.06188743025344887,0.4963657802003567,0.5445556292468691,-0.0355459051542302,-0.00014060984240433884
184,-0.0001258672211702132,0.19690935534549875,0.14100258275511324,0.044955587458884144,0.06255983508685926,0.49583676330723836,0.5444109214922225,-0.035542638668926464,-0.00014149927251155424
185,-0.00012747534340358784,0.19694506688931404,0.1407639299477726,0.04495560028152005,0.06323256715974217,0.4953077135090549,0.5442663204149567,-0.035539374558902846,-0.00014238888406882915
186,-0.00012907169052236468,0.19698051482469286,0.14052522474204787,0.0449556135000807,0.0639056491799572,0.494778644518534,0.5441218392557715,-0.03553611315166881,-0.00014327864589670802
187,-0.00011593875218996255,0.1969862743747126,0.1419108893652147,0.04488741335598378,0.06118144676076306,0.4982590029918593,0.5466447011987509,-0.035701703658040304,-0.00014416921384390025
188,-0.00011759889570509344,0.19702320212730995,0.14167181151826733,0.044887424720981395,0.06185487215392588,0.4977297744968754,0.5464997354008344,-0.03569843201812181,-0.00014506008194322312
189,-0.00011924593449775742,0.19705983902020768,0.141432675928723,0.04488743636045227,0.06252851029932237,0.4972004399274314,0.546354789305437,-0.03569516044474489,-0.00014595122127478461
190,-0.00012088039614396688,0.19709619468320974,0.14119348827914846,0.04488744840237406,0.06320239933806834,0.4966710322776652,0.5462099057572305,-0.03569189012419236,-0.00014684261011467035
191,-0.0001225025983958468,0.19713227562150573,0.1409542512562971,0.04488746086898991,0.06387657203824884,0.49614157855755303,0.5460651110459487,-0.035688621732984385,-0.00014773420655007352
192,-0.00012411276526166307,0.19716808671992392,0.14071496596758845,0.04488747375084357,0.06455105606607268,0.49561209850076016,0.5459204236136218,-0.03568535573166839,-0.00014862597004240425
193,-0.00012571106564464307,0.19720363177684194,0.14047563249240666,0.044887487027920614,0.06522587496087479,0.4950826058849448,0.5457758569054263,-0.03568209245279531,-0.00014951786905600318
194,-0.00011260637141207591,0.1972006402573406,0.14187389914923773,0.04482150149591222,0.0624250397621092,0.4985624833815021,0.5482629399390225,-0.035845417223141676,-0.00015041055344783137
195,-0.00011426906002918666,0.197237678889189,0.14163420701924284,0.04482151292437716,0.0631001637205551,0.4980328357914953,0.5481178885197948,-0.035842143715974495,-0.00015130353071112884
196,-0.00011591854049856735,0.19727442392231648,0.14139446114825893,0.04482152462622428,0.06377548367725352,0.49750308678478805,0.5479728562813934,-0.03583887026375597,-0.00015219677060954515
197,-0.0001175553466280406,0.19731088514782225,0.14115466715898656,0.04482153672892657,0.06445103887415395,0.4969732699264865,0.5478278864816222,-0.03583559806176913,-0.00015309024939748903
198,-0.00011917980207111229,0.1973470692135839,0.14091482766022706,0.04482154925488439,0.06512686301751305,0.4964434125511287,0.5476830057632238,-0.035832327794975936,-0.00015398392389593364
199,-0.0001207921359549554,0.19738298112489366,0.1406749436641446,0.04482156219490826,0.06580298459590408,0.49591353456489906,0.5475382328308286,-0.03582905993035206,-0.00015487775285627508
200,-0.00012239252154619927,0.19741862478183514,0.14043501514232637,0.044821575529208416,0.06647942788208616,0.4953836498132664,0.5473935813155315,-0.03582579480503178,-0.00015577170438190144
201,-0.00010932779074648586,0.19740727408067182,0.14184422206331346,0.04475776176244221,0.06360789208533209,0.4988602572010313,0.5498447790061665,-0.035986847270227044,-0.00015666642216390853
202,-0.00011099307652796472,0.1974444232772198,0.1416039478250495,0.04475777325414262,0.06428460647036402,0.4983302208643709,0.549699643096939,-0.035983571928651766,-0.00015756142688511926
203,-0.00011264506141623644,0.19748127638025748,0.1413636233440028,0.044757785018023584,0.0649615020774344,0.49780008713396756,0.5495545258756885,-0.03598029663119413,-0.0001584566870188493
204,-0.00011428428456605223,0.19751784332350197,0.14112325419196542,0.04475779718098511,0.06563861913612622,0.497269890111838,0.5494094709652088,-0.0359770225809092,-0.00015935217685053853
205,-0.00011591107483028586,0.19755413088227036,0.1408828429113067,0.04475780976556008,0.06631599219028368,0.49673965743799375,0.549264505327987,-0.035973750470371754,-0.00016024785197321588
206,-0.00011752566587117097,0.19759014416950615,0.14064239043201066,0.0447578227628192,0.06699365046056381,0.49620940918375933,0.54911964790788,-0.03597048077240734,-0.00016114367044542946
207,-0.00011912823482211708,0.19762588717604396,0.140401896631906,0.044757836153201,0.06767161887122514,0.4956791592636747,0.5489749125057091,-0.03596721382833377,-0.0001620396000087024
208,-0.00010611268425800638,0.19760654054576873,0.14182063915879256,0.04469614628530678,0.06473457292187716,0.49915025643127847,0.5513903413113055,-0.03612600150436391,-0.0001629362780879814
209,-0.00010778059764120045,0.1976437995317515,0.14157981168205303,0.044696157839884745,0.06541278210313776,0.49861985740589987,0.5512451221502671,-0.03612272436231906,-0.00016383323826406375
210,-0.000109435126384466,0.19768076013737473,0.14133893704324774,0.044696169665348125,0.06609115938082555,0.4980893644890801,0.551099921213141,-0.03611944725430418,-0.00016473044774897614
211,-0.00011107681425147429,0.1977174324232109,0.14109802077044656,0.044696181887974265,0.06676974587635706,0.49755881228863275,0.5509547824467096,-0.03611617139010936,-0.00016562787891320885
212,-0.00011270599470373892,0.19775382327909635,0.14085706534893794,0.044696194530408864,0.06744857688635467,0.4970282287323672,0.5508097331044279,-0.03611289746920702,-0.00016652548615990627
213,-0.00011432290544656672,0.19778993791477842,0.14061607163723278,0.044696207583976605,0.06812768228761673,0.49649763404934477,0.550664792349036,-0.03610962596976957,-0.00016742322687284062
214,-0.00011592772706215965,0.19782578040258877,0.14037503943096258,0.04469622102934644,0.06880708758711354,0.49596704222331023,0.5505199741369322,-0.03610635723694901,-0.00016832106843341828
215,-0.00010296849271717451,0.19779877600029427,0.14180212892955268,0.04463660342543599,0.06580909203725588,0.49943084535054233,0.552899929185674,-0.03626289892847817,-0.00016921964195986742
216,-0.0001046390456019633,0.19783614361038016,0.1415607743088809,0.044636615042366046,0.06648871083909527,0.49890010617355374,0.552754628106881,-0.03625962002101144,-0.00017011849362451464
217,-0.0001062961377266752,0.19787321073145764,0.14131937525893384,0.0446366269288124,0.06716848599626674,0.49836927617814536,0.5526093448157854,-0.036256341138193246,-0.00017101758940880392
218,-0.00010794031684702686,0.1979099875376049,0.14107793726986118,0.04463663921039474,0.06784845944052771,0.49783839044954364,0.5524641235481854,-0.03625306349567247,-0.000171916899822544
219,-0.00010957192053420977,0.19794648102218296,0.14083646277750328,0.04463665190985559,0.06852866714940856,0.4973074771870809,0.5523189918235469,-0.036249787799200926,-0.00017281637811624907
220,-0.00011119119012017488,0.19798269648251823,0.14059495257771348,0.044636665018767396,0.06920913959164429,0.4967765567703232,0.5521739690057457,-0.03624651453185932,-0.00017371598101726085
221,-0.00011279830928242855,0.19801863806458458,0.14035340639350027,0.0446366785180301,0.06988990279886587,0.4962456432515836,0.5520290691943702,-0.03624324404232794,-0.00017461567555043334
222,-9.990079900839936e-05,0.1979842918996758,0.14178783572925652,0.04457907881431139,0.06683498258050047,0.49970074724231184,0.5543739876474014,-0.03639756752616582,-0.0001755160865348664
223,-0.00010157398759205218,0.1980217666430895,0.14154597771380115,0.04457909049289693,0.06751593461067214,0.49916968754815955,0.5542286060670638,-0.03639428688932995,-0.00017641677241790688
224,-0.000103233645797513,0.19805893894257598,0.1413040777104483,0.04457910243957474,0.06819703242246164,0.498638539752748,0.5540832418646098,-0.03639100626842021,-0.0001773176979818726
225,-0.00010488032485576372,0.19809581907437232,0.141062141176145,0.04457911477928347,0.06887831868827514,0.4981073393928287,0.5539379395349653,-0.036387726884203296,-0.00017821883192966657
226,-0.00010651436602450524,0.19813241412596597,0.14082017050354895,0.04457912753484931,0.06955983000532717,0.4975761149243238,0.5537927268419017,-0.03638444944817437,-0.00017912012639525855
227,-0.00010813601390828251,0.1981687294743801,0.1405781664331558,0.0445791406980861,0.07024159737972399,0.49704488687036164,0.5536476233349034,-0.03638117444793906,-0.00018002153746775887
228,-0.00010974545497958663,0.19820476933253087,0.1403361286233244,0.04457915425012389,0.07092364731850911,0.49651366935067326,0.5535026432458771,-0.03637790223543745,-0.00018092303182023957
229,-9.69136438936178e-05,0.19816337773942388,0.14177704316293907,0.044523516215158765,0.06781537119596823,0.49995898298659525,0.555813073981621,-0.03653004234395801,-0.00018182522801896063
230,-9.858945122092483e-05,0.19820095785795727,0.1415347035066622,0.04452352795454597,0.06849758748086787,0.4994276200053201,0.5556676133834051,-0.03652676001464203,-0.0001827276964635437
231,-0.00010025166412879361,0.19823823371115956,0.1412923240585209,0.044523539960563706,0.06917993996326811,0.49889617134330067,0.5555221697779449,-0.03652347769313721,-0.00018363040076873266
232,-0.0001019008368895102,0.19827521566774314,0.1410499102461242,0.04452355235745554,0.06986247199629501,0.4983646729651846,0.555376787893693,-0.036520196604700635,-0.00018453330788330494
233,-0.00010353731408694646,0.19831191090125183,0.14080746442412018,0.04452356516812041,0.07054522074441061,0.497833153569807,0.5552314957197868,-0.0365169174661047,-0.00018543636885939545
234,-0.00010516134329580356,0.1983483248616359,0.1405649872837267,0.044523578384606965,0.07122821770446831,0.4973016338172714,0.5550863129776903,-0.036513640769143686,-0.00018633953916566374
235,-0.00010677311352709235,0.1983844618230106,0.14032247842533288,0.04452359198827327,0.07191148981691725,0.49677012789324526,0.5549412540220593,-0.036510366868781105,-0.00018724278512894093
236,-9.400979168743863e-05,0.19833630354950066,0.14176915168834173,0.044469858233838484,0.06875303734743397,0.5002048196536993,0.5572178325889492,-0.03666036390660457,-0.00018814671913987177
237,-9.568818990977196e-05,0.19837398706883658,0.14152635043650205,0.04446987003303734,0.0694364552138664,0.49967316861394706,0.5570722945094017,-0.03665707992233457,-0.00018905092322443528
238,-9.735293448429484e-05,0.19841136461818273,0.14128351138116715,0.04446988209738233,0.07012000053722461,0.4991414340652607,0.5569267730603504,-0.03665379593831586,-0.00018995535986098767
239,-9.900458235921703e-05,0.19844844665043007,0.14104063992379745,0.04446989455041524,0.07080371729952911,0.49860965237858534,0.5567813131817881,-0.0366505131837639,-0.0001908599942956337
240,-0.00010064348113644067,0.19848524041821303,0.14079773838532902,0.0444699074150986,0.07148764318732838,0.49807785248314856,0.5566359430716306,-0.03664723238032156,-0.0001917647765319004
241,-0.00010226988110120273,0.19852175143856712,0.140554807412796,0.044469920683709155,0.07217181014816243,0.49754605516982686,0.5564906826113164,-0.03664395402367577,-0.00019266966143519716
242,-0.00010388397358294596,0.1985579840418567,0.1403118465542478,0.044469934337829864,0.07285624551985506,0.4970142746885412,0.5563455462697986,-0.036640678471604696,-0.00019357461499211636
243,-9.119095379589263e-05,0.1985033220241758,0.14176365977531036,0.04441804690305067,0.06965046349270285,0.5004377275085081,0.5585889742283928,-0.03678857690989716,-0.00019448024351947314
244,-9.287190614858457e-05,0.19854110679876538,0.1415204154997909,0.044418058760957925,0.07033502564851052,0.4999058019646386,0.5584433602431598,-0.03678529130862885,-0.00019538614034295932
245,-9.453914980462382e-05,0.1985785840014836,0.14127713523240612,0.04441807088251701,0.07101970724381627,0.4993737948739023,0.5582977625472191,-0.03678200570055635,-0.0001962922668350451
246,-9.619324407973348e-05,0.1986157641622587,0.14103382435112188,0.044418083390567124,0.07170455284445718,0.49884174299375833,0.5581522262731633,-0.036778721318401625,-0.00019719858658907887
247,-9.78345393290829e-05,0.19865265460677428,0.1407904851467534,0.04441809630812668,0.07238960061995046,0.49830967547235866,0.5580067798131016,-0.03677543888832162,-0.0001981050485916946
248,-9.946328832450939e-05,0.19868926091408115,0.14054711822644644,0.04441810962769366,0.07307488293390471,0.4977776132255414,0.5578614431978302,-0.03677215890963435,-0.00019901160712157827
249,-0.00010107968452403426,0.19872558746650426,0.14030372309068614,0.044418123331071986,0.0737604274904358,0.4972455705656874,0.5577162310031066,-0.036768881742747554,-0.00019991822783132818
250,-8.8457976759518e-05,0.19866467034715712,0.14176014806893367,0.044368024159866716,0.0705098775095547,0.5006573440800858,0.5599272589238098,-0.036914729144696914,-0.0002008255110850428
251,-9.014143927583464e-05,0.19870255409908008,0.14151647806236525,0.044368036075288136,0.0711955312851359,0.5001251561786004,0.5597815706350303,-0.0369114419646141,-0.00020173306118269568
252,-9.18111416992242e-05,0.19874012876834177,0.14127277372428887,0.04436804825286786,0.07188129710635052,0.4995928885143609,0.5596358983136522,-0.03690815477112834,-0.00020264083842047578
253,-9.346764545176481e-05,0.19877740495573323,0.1410290404114017,0.044368060814746334,0.07256722008341132,0.49906057821317285,0.5594902872684973,-0.03690486880008343,-0.0002035488047872322
254,-9.511130341340133e-05,0.19881439005471865,0.14078528038741916,0.044368073783991276,0.07325333883472308,0.498528254631595,0.559344766072988,-0.03690158478183687,-0.0002044569082829251
255,-9.674237064837173e-05,0.19885108970194135,0.14054149422324277,0.044368087153314986,0.07393968610987278,0.49799593880499715,0.5591993548978476,-0.036898303219105616,-0.00020536510261532913
256,-9.836104257860204e-05,0.1988875083279502,0.14029768137586823,0.0443681009047378,0.07462628995229711,0.4974636451063785,0.5590540684189702,-0.0368950244747622,-0.00020627335310938516
257,-8.581100036317724e-05,0.1988205717610093,0.1417582660857735,0.044319732233537794,0.0713332885675922,0.5008634441614939,0.5612334819227809,-0.03703887061346769,-0.00020718225431261
258,-8.749692334797908e-05,0.19885855211333936,0.1415141865223597,0.04431974420520862,0.07201998528796899,0.500331004858794,0.5610877209478345,-0.03703558189279508,-0.00020809142117657784
259,-8.916903805591351e-05,0.19889622195349232,0.1412700741575671,0.04431975643755379,0.07270678720102083,0.49979848742553334,0.560941975636079,-0.03703229315253355,-0.00020900081294976435
260,-9.082790779366048e-05,0.19893359194775667,0.14102593432870603,0.04431976905202246,0.07339373992662072,0.49926592933913394,0.5607962914583606,-0.037029005631320465,-0.00020991039006306345
261,-9.247388776773176e-05,0.19897066955275775,0.1407817692749497,0.04431978207172607,0.07408088250219111,0.49873336015489594,0.5606506971579885,-0.037025720063436816,-0.0002108200995585309
262,-9.410723516547516e-05,0.19900746045885148,0.14053757953406693,0.0443197954895843,0.0747682480369872,0.4982008010226539,0.5605052130371999,-0.037022436954791564,-0.0002117298945881189
263,-9.572814722912798e-05,0.19904396914153638,0.1402933645230655,0.04431980928782882,0.07545586489022281,0.4976682663741791,0.560359853866065,-0.037019156670574725,-0.00021263974015543294
264,-9.733677901440762e-05,0.1990801991739281,0.1400491228826783,0.04431982344423254,0.07614375769015093,0.4971357655779801,0.5602146304304674,-0.03701587947671807,-0.0002135496123172852
265,-8.456685495349114e-05,0.19900412582699467,0.14155625222532917,0.044272412675569944,0.07269520213420182,0.5006142090691483,0.5624055738774509,-0.0371604473227867,-0.00021446011961378893
266,-8.624544124000329e-05,0.199041979677019,0.14131174206849223,0.04427242495604014,0.0733831991287884,0.5000815623417711,0.5622598727133438,-0.037157160125443636,-0.00021537089102582706
267,-8.791020668903402e-05,0.1990795225586071,0.14106719803476964,0.04427243746951228,0.07407130631212983,0.49954883630055896,0.5621141872103237,-0.037153872906298076,-0.00021628188873280845
268,-8.956171519581418e-05,0.19911676512602774,0.14082262550523794,0.0442724503408799,0.07475956908323055,0.4990160684037964,0.5619685628798331,-0.03715058690610581,-0.00021719307378283403
269,-9.120032135823304e-05,0.1991537148142032,0.14057802675642206,0.0442724635956244,0.0754480262840457,0.4984832882388436,0.561823028451982,-0.03714730285904097,-0.00021810439317995818
270,-9.282628158039947e-05,0.19919037729120315,0.1403334023636576,0.044272477228685346,0.07613671084179642,0.4979505170023477,0.5616776042137295,-0.03714402127066861,-0.00021901579989557925
271,-9.443979234505934e-05,0.19922675701117293,0.14008875178226507,0.04427249122412184,0.07682565094393429,0.4974177691791961,0.5615323049251226,-0.03714074250593292,-0.0002199272587433109
272,-8.179685853040419e-05,0.1991456246500492,0.141591893440934,0.04422686163693278,0.07335845763528255,0.5008679699601578,0.5636855644884702,-0.03728292587208718,-0.00022083936200160324
273,-8.347989956401965e-05,0.19918361885199984,0.14134698277807395,0.044226873794667464,0.07404746598265899,0.5003350620468316,0.563539778170941,-0.037279636861580506,-0.00022175174273391903
274,-8.514902181597402e-05,0.19922129948686151,0.1411020400585555,0.04422688619656806,0.07473657003811297,0.4998020728702742,0.5633940034934357,-0.037276347731852254,-0.00022266435723156472
275,-8.680480094799912e-05,0.19925867750028917,0.1408570708382616,0.04422689896665195,0.07542581669431095,0.49926904157423746,0.5632482871194286,-0.03727305975054672,-0.00022357716153745028
276,-8.844760165434111e-05,0.19929576056633494,0.14061207750563015,0.04422691213016928,0.07611524598275596,0.4987359989171474,0.5631026587032444,-0.037269773674321285,-0.00022449009924445658
277,-9.00776884487451e-05,0.19933255454293863,0.1403670606948044,0.04422692568181912,0.07680489180212982,0.4982029669201723,0.5629571392283086,-0.03726649002587563,-0.0002254031209933247
278,-9.169526423585903e-05,0.19936906403490431,0.14012201987981082,0.044226939605288805,0.07749478314764864,0.49766996064264185,0.5628117439695715,-0.037263209182862446,-0.00022631618998413588
279,-7.91676721461354e-05,0.19928298048509188,0.1416222020202768,0.044183003575916126,0.07400717297727685,0.5010947552791639,0.5649295076623986,-0.03740314706977043,-0.0002272298906912528
280,-8.08545504250649e-05,0.19932109950126523,0.1413769111046517,0.04418301569779006,0.07469711143437507,0.5005615908546768,0.5647836286335539,-0.0373998560504331,-0.00022814386568367423
281,-8.252745941162137e-05,0.19935890343885987,0.14113159036384376,0.044183028071728775,0.0753871365089495,0.5000283480157541,0.5646377612933003,-0.03739656491483924,-0.00022905806992303928
282,-8.41869761540031e-05,0.19939640330671143,0.14088624529712115,0.04418304081989513,0.07607729566957809,0.4994950661781672,0.5644919524039697,-0.03739327493160407,-0.00022997245788611772
283,-8.583346754356246e-05,0.19943360684412206,0.1406408782360985,0.04418305396670555,0.07676762943313103,0.4989617762230392,0.5643462317512468,-0.037389986860300255,-0.0002308869723019865
284,-8.746720021920486e-05,0.19947051996655457,0.1403954897522243,0.0441830675063176,0.077458172125465,0.49842850021853785,0.5642006204212116,-0.03738670122609438,-0.00023180156336897152
285,-8.90883789735385e-05,0.19950714732851205,0.1401500792520067,0.04418308142196626,0.07814895312560532,0.49789525322314454,0.5640551337598352,-0.0373834184083813,-0.00023271619407420123
286,-0.00010960959876443223,0.19941661718062467,0.14164781716816857,0.04430586751724397,0.07464274873529006,0.5012976314512114,0.5661413805121418,-0.03752158566132415,-0.0002336314454853253
287,-0.00011130621833316517,0.199454850064762,0.14140216538866526,0.04430587965674789,0.0753335606522373,0.5007642293846671,0.5659954143756181,-0.037518292763695525,-0.00023454696741914067
288,-0.00011298877667145248,0.19949276663760088,0.1411564856778339,0.04430589205143549,0.07602445216009567,0.5002307517816406,0.5658494603973303,-0.037514999762970506,-0.00023546271371200348
289,-0.00011465785260037376,0.1995303779362997,0.14091078346339392,0.04430590482197259,0.07671547112151143,0.499697238152272,0.5657035653086943,-0.0375117079256754,-0.00023637863769226142
290,-0.00011631381530751751,0.19956769173680988,0.14066506101216691,0.044305917992256846,0.07740665839057966,0.4991637193782024,0.5655577589240081,-0.037508418011791465,-0.0002372946815467889
291,-0.00011795693359417658,0.19960471398918048,0.14041931883071215,0.04430593155620743,0.07809804859677076,0.49863021749024866,0.5654120623549902,-0.03750513054705605,-0.00023821079525753394
292,-0.00011958741416358797,0.19964144937915942,0.1401735562601345,0.04430594549690297,0.07878967139803011,0.49809674748909066,0.5652664909619257,-0.03750184591120671,-0.00023912694175462642
293,-0.00025216785338163985,0.19954768107363152,0.14166610448018457,0.044990967626336774,0.07527787811068978,0.5014742014993693,0.5673245009014517,-0.037638987039965564,-0.00024004370533584778
294,-0.0002538952383810151,0.1995860141905281,0.14142010798257038,0.04499097981516255,0.07596952007847771,0.5009405797633899,0.5671784551242411,-0.03763569243815992,-0.0002409607369416368
295,-0.0002556083015188759,0.19962403000633866,0.14117408507688503,0.04499099225963656,0.07666123652995988,0.5004068851731505,0.5670324222373295,-0.03763239775282154,-0.0002418779884978244
296,-0.0002573076283129182,0.1996617395592997,0.14092804111338683,0.0449910050789775,0.07735307557532718,0.49987315721754516,0.5668864488470641,-0.03762910424610759,-0.0002427954122640613
297,-0.0002589935936654778,0.19969915063978272,0.1406819782934356,0.04499101829671051,0.07804507828355083,0.49933942670060627,0.5667405647243,-0.037625812676637074,-0.0002437129500513528
298,-0.0002606664711368462,0.19973626921439375,0.14043589706206516,0.044991031906684534,0.07873727948345809,0.4988057155640058,0.5665947909531703,-0.037622523569404806,-0.00024463055175784804
299,-0.00026232647137468083,0.19977309998537343,0.14018979670125983,0.04499104589199444,0.07942970902158146,0.4982720387179812,0.5664491428695688,-0.03761923730353491,-0.0002455481803472957
300,-0.0004952823602125912,0.1996762086853858,0.14167419186665564,0.04617927174876681,0.07591955466931624,0.5016180569816794,0.5684753323617332,-0.037755048796883454,-0.0002464664215232224
301,-0.000497059287313033,0.19971462586153077,0.1414278644132537,0.04617928400626726,0.07661199520185005,0.5010842311464292,0.5683292161700277,-0.03775175270448662,-0.000247384928614481
302,-0.0004988214790664488,0.19975272494630966,0.14118151173463672,0.046179296518344765,0.07730450674084509,0.5005503348383351,0.5681831137707709,-0.03774845655252518,-0.0002483036518600366
303,-0.0005005695321124515,0.19979051695657957,0.14093513910092936,0.04617930940270158,0.07799713753477178,0.5000164074636182,0.5680370715653557,-0.03774516159663424,-0.0002492225425604074
304,-0.0005023038302323984,0.19982800968032266,0.14068874865086411,0.046179322682552426,0.07868992877240262,0.499482479703996,0.5678911192303173,-0.03774186859277548,-0.00025014154224777875
305,-0.0005040246541731111,0.1998652090871907,0.1404423407738099,0.046179336351774694,0.07938291539914599,0.49894857338338455,0.5677452777867767,-0.0377385780643177,-0.0002510606008103148
306,-0.0008105459106439389,0.1997684039833374,0.1418748625324966,0.04773569225238408,0.07599074332172524,0.5021703885418413,0.5696955269344849,-0.037870093879951126,-0.00025198027982697177
307,-0.0008123968833902368,0.19980711776625104,0.14162824286381043,0.047735704315440844,0.07668370068710417,0.5016363282344284,0.569549222954285,-0.03786679359025713,-0.00025290023058988315
308,-0.0008142325310423124,0.19984551133789386,0.14138160135133493,0.04773571665680393,0.07737671231099746,0.5011022001964306,0.5694029315659992,-0.03786349321646959,-0.0002538203959943944
309,-0.0008160534716670541,0.19988359586556662,0.1411349432312478,0.04773572938928915,0.07806982766296079,0.5005680447383435,0.5692566995425389,-0.0378601940196087,-0.00025474072277113736
310,-0.0008178601075516352,0.19992137929040354,0.140888270600022,0.047735742533985354,0.07876308892965797,0.5000338930484503,0.5691105569900174,-0.03785689676543271,-0.000255661150137755
311,-0.0008196527346484763,0.19995886771415347,0.14064158378237857,0.04773575608332708,0.07945653191189372,0.49949976724742995,0.5689645252685044,-0.03785360198552679,-0.00025658162675052754
312,-0.0011919263829846963,0.19986168790673658,0.14202835294318303,0.04962100335893508,0.07616621602968697,0.5026108765754297,0.5708455079710956,-0.03798119272093291,-0.0002575027022040887
313,-0.0011938619037214753,0.19990063122802582,0.1417814692092068,0.04962101540237587,0.0768596169841292,0.5020766114541021,0.5706990354880156,-0.037977888653666476,-0.0002584240344236029
314,-0.0011957814810203485,0.19993925395603257,0.1415345666775519,0.04962102773738555,0.07755306611981418,0.5015422865536455,0.5705525797454907,-0.03797458460934625,-0.00025934556571148007
315,-0.001197685742359139,0.1999775670838225,0.14128765026670242,0.04962104047132956,0.07824661272129069,0.5010079411729096,0.5704061864524743,-0.03797128181926578,-0.00026026724314633196
316,-0.001199575099065514,0.20001557845419238,0.1410407218320033,0.04962105362290856,0.0789402988731965,0.500473605606347,0.570259885058406,-0.03796798103221708,-0.0002611890071767547
317,-0.0012014498550652116,0.20005329410688483,0.1407937814991433,0.049621067183178394,0.07963416036026615,0.49993930124800734,0.570113696450414,-0.037964682767956004,-0.0002621108078044925
318,-0.0016324435422632334,0.19995532562563478,0.14213983116281417,0.05179989453230253,0.07643269542995701,0.5029509474869899,0.5719311525508489,-0.0380886639709934,-0.00026303318525671245
319,-0.0016344732290295748,0.19999444413843837,0.14189270564536113,0.05179990665840379,0.07712651311450291,0.5024165172322529,0.5717845450776327,-0.038085356903054514,-0.00026395580546076733
320,-0.00163648628107911,0.20003324216771667,0.14164556325516983,0.051799919079253395,0.07782037776533145,0.5018820339265048,0.5716379586743356,-0.03808204996907751,-0.0002648786111214858
321,-0.001638483335972398,0.20007173048904134,0.14139840860990788,0.0517999318978405,0.07851433818447555,0.5013475357185946,0.5714914378737852,-0.0380787443681591,-0.00026580155024556496
322,-0.0016404648142060501,0.20010991680840068,0.14115124334617352,0.051799945131293046,0.07920843609860012,0.5008130519328349,0.5713450113755116,-0.038075440829886176,-0.00026672456482175705
323,-0.0016424310276646186,0.2001478070706865,0.14090406741797895,0.05179995877001069,0.0799027070505189,0.5002786031991225,0.5711986995252794,-0.03807213986050652,-0.00026764760636187687
324,-0.002125809667776919,0.20004868531834674,0.1422135357625682,0.05424056649859784,0.07677960675893633,0.5032001503014337,0.5729575649071031,-0.03819278063723882,-0.0002685712064043732
325,-0.0021279420795210094,0.20008793198374253,0.1419661834974256,0.05424057875583376,0.07747383839732751,0.5026655853578653,0.57281085389791,-0.038189471299466954,-0.0002694950389067596
326,-0.0021300570913194757,0.20012685848433842,0.14171881532003838,0.054240591305202,0.07816811875316348,0.5021309722793516,0.5726641677230345,-0.038186162192306305,-0.00027041904698334797
327,-0.0021321553532782462,0.20016547538359053,0.14147143560166756,0.05424060424621074,0.07886249606690815,0.501596348199358,0.5725175498358963,-0.038182854485301544,-0.00027134317943688853
328,-0.002134237296600408,0.20020379025004326,0.14122404580777392,0.05424061759502944,0.07955701162460901,0.5010617415939583,0.5723710282503608,-0.03817954889047608,-0.0002722673795936457
329,-0.002136303242189193,0.20024180893029198,0.1409766457639948,0.05424063134189713,0.08025170064075744,0.5005271724348249,0.5722246228197768,-0.03817624590178825,-0.00027319160026948407
330,-0.0026663551277167265,0.20014122090195988,0.14225293928397725,0.05691436055531196,0.07719851745136731,0.5033664394895618,0.5739291581214353,-0.038293776737747774,-0.0002741163646266377
331,-0.0026685977540663827,0.20018055400314458,0.14200536947347653,0.05691437296191656,0.07789317575680235,0.502831760555244,0.5737823710749025,-0.03829046576728791,-0.0002750413544626495
332,-0.0026708221474667764,0.2002195673723941,0.14175778399537406,0.05691438565522357,0.07858788652751607,0.5022970369049664,0.5736356120653252,-0.038287155109863094,-0.00027596651317621733
333,-0.0026730289729382075,0.20025827137368146,0.14151018702332807,0.05691439873185811,0.07928269741642474,0.5017623048056539,0.5734889235788764,-0.03828384590845474,-0.0002768917901614088
334,-0.0026752186739120035,0.20029667344393387,0.141262579892964,0.056914412207394974,0.07997764923312799,0.5012275920128774,0.5733423330204046,-0.03828053885946237,-0.0002778171298432747
335,-0.0026773915813729544,0.20033477933360805,0.14101496233794542,0.05691442607218282,0.0806727768195279,0.500692917946565,0.5731958598086248,-0.0382772344459899,-0.0002787424861193664
336,-0.003248962673471167,0.2002324635557591,0.14226089016095234,0.05979542769186015,0.07768271364510577,0.5034564568074493,0.5748497609177411,-0.03839185379207289,-0.0002796683740038608
337,-0.003251321962840206,0.20027184553333252,0.1420131076612991,0.05979544025074097,0.07837782190391586,0.5029216769336751,0.5747029218218496,-0.038388541742706256,-0.0002805944829265743
338,-0.0032536621253748967,0.20031090827706793,0.14176530923028996,0.05979545308975217,0.07907298773945821,0.5023868546368426,0.5745561135096537,-0.03838523007723638,-0.0002815207564575712
339,-0.003255983843013753,0.20034966196406426,0.14151749888241846,0.059795466303027914,0.07976825821000103,0.5018520254418543,0.5744093775974717,-0.03838191991467423,-0.0002824471444082555
340,-0.0032582875727092575,0.20038811390622188,0.1412696778554821,0.0597954799057505,0.08046367363215348,0.5013172164896309,0.5742627409474832,-0.03837861193747368,-0.000283373592101826
341,-0.003260573656431136,0.20042626976115863,0.14102184581901483,0.05979549388851009,0.08115926845059232,0.5007824467355979,0.5741162225935177,-0.03837530661911937,-0.00028430005433228685
342,-0.0038690090698252225,0.20032201442970887,0.1422397295438841,0.06286043312657079,0.07822686357993196,0.5034757697301971,0.5757227129111432,-0.038487186346822716,-0.00028522703816099946
343,-0.0038714904693571794,0.20036141103178257,0.14199173604703846,0.0628604458335505,0.07892245231165228,0.5029408963321648,0.5755758429315923,-0.038483873705414944,-0.0002861542404584087
344,-0.003873951793789354,0.20040048893195056,0.14174372600359894,0.06286045881380929,0.07961810464963462,0.5024059819793836,0.5754290061268947,-0.038480561509719916,-0.0002870816048830908
345,-0.0038763937436224944,0.20043925813182956,0.14149570329836308,0.06286047215925591,0.08031386705980811,0.5018710615539524,0.5752822433241742,-0.03847725085693169,-0.00028800908152987816
346,-0.003878816790390455,0.20047772582457213,0.14124766909548997,0.06286048588478992,0.081009779360025,0.5013361616662695,0.5751355808974511,-0.03847394241693869,-0.00028893661646165863
347,-0.004503815347082392,0.20037492287467612,0.1424012902432643,0.06600752881129225,0.0782320091171361,0.5038833754018348,0.5766591568564603,-0.03858070225657982,-0.0002898646847803278
348,-0.004506436007005439,0.20041454331299596,0.14215310504355586,0.06600754137587672,0.07892788727442049,0.5033483602324549,0.5765121486206062,-0.03857738655096292,-0.00029079298347623486
349,-0.004509035494822003,0.2004538435896459,0.14190490499989894,0.06600755423152253,0.07962381811298166,0.502813304052002,0.576365171869814,-0.03857407125484123,-0.000291721448859255
350,-0.004511614547696661,0.20049283382911462,0.14165669402430636,0.06600756746563373,0.08031984908277401,0.5022782427590131,0.5762182677893832,-0.03857075747008621,-0.00029265002622800033
351,-0.004514173667575588,0.20053152135421162,0.14140847330274625,0.06600758109151245,0.08101602077125951,0.501743203571021,0.5760714631934484,-0.0385674458765704,-0.0002935786591352766
352,-0.004516713232721452,0.20056991184344047,0.1411602424599433,0.06600759509911959,0.08171236785068207,0.5012082054427485,0.5759247771263617,-0.03856413694776041,-0.00029450730171144755
353,-0.005172299417935202,0.20046432742055037,0.14229653079268353,0.0693072011319726,0.07896538221825701,0.503709122894055,0.5774136992554078,-0.03866892051097416,-0.00029543643487062497
354,-0.005175044988740689,0.20050385445839122,0.14204815180512897,0.06930721399060592,0.07966173843202362,0.5031740341836648,0.5772666987990042,-0.03866560506844051,-0.0002963657718429015
355,-0.005177768492140247,0.20054306374017933,0.14179975710212717,0.06930722712603955,0.08035816491056623,0.5026389118509492,0.5771197381262414,-0.038662290242173346,-0.0002972952567352645
356,-0.005180470660477826,0.20058196486241375,0.14155135015178893,0.06930724062266083,0.08105470696214304,0.5021037890201812,0.5769728560678568,-0.03865897707418535,-0.0002982248407937235
357,-0.005183151992045084,0.2006205647543871,0.1413029318444366,0.069307254492896,0.08175140346851645,0.5015686908275745,0.5768260777556155,-0.0386556662024107,-0.0002991544723551073
358,-0.0051858128627949324,0.20065886879287517,0.14105450161074998,0.06930726872675774,0.08244828773835519,0.5010336347004819,0.576679420995934,-0.03865235806964831,-0.0003000841092195861
359,-0.005868366463206858,0.2005505213465217,0.14217351444551687,0.07274129560751416,0.07973268897477544,0.5034889280359077,0.5781345940123039,-0.0387551964412919,-0.00030101422882561764
360,-0.005871240717526296,0.2005899414794905,0.14192493481337873,0.0727413086895026,0.08042960764255164,0.5029537806647946,0.5779876346760525,-0.03875188206196071,-0.00030194455244249595
361,-0.0058740918771364135,0.20062904483653016,0.14167633747396552,0.0727413220328968,0.08112660798576653,0.5024185990985313,0.5778407172166616,-0.03874856835226379,-0.00030287502522827696
362,-0.0058769206922201726,0.20066784081848954,0.141427725820446,0.07274133572126786,0.08182373446259339,0.5018834158157166,0.5776938796997119,-0.03874525633367897,-0.00030380559917568653
363,-0.0058797276743569405,0.20070633621097517,0.14117910072040296,0.07274134976759107,0.08252102522686512,0.5013482554624263,0.5775471467619024,-0.03874194663154845,-0.0003047362234739087
364,-0.005882513209893327,0.20074453627725555,0.14093046161182193,0.07274136416282496,0.08321851296567097,0.5008131351265049,0.577400535859694,-0.03873863967994403,-0.0003056668566421256
365,-0.006588752565807202,0.2006334561913514,0.14203226437192445,0.07629337418359297,0.08053483450685411,0.5032234585031193,0.5788228379024168,-0.03883956551630297,-0.0003065979703094291
366,-0.00659175808808866,0.20067275112059274,0.14178347419922596,0.07629338743146383,0.08123237721757572,0.5026882426131198,0.5786759328549173,-0.03883625250218814,-0.0003075292921854747
367,-0.006594739433101009,0.2007117299297082,0.14153466437518308,0.07629340092957933,0.08193001120576107,0.5021529909222304,0.5785290707588504,-0.03883294018583484,-0.00030846076730539987
368,-0.0065976973734356145,0.20075040188625534,0.14128583827509464,0.07629341476067762,0.08262778033506385,0.5016177356262943,0.5783822891961355,-0.038829629575175474,-0.0003093923475193556
369,-0.006600632437372738,0.20078877367932985,0.14103699678411896,0.07629342893815232,0.08332572223082786,0.5010825011508249,0.5782356125169769,-0.03882632128811967,-0.0003103239821960422
370,-0.00731173753510251,0.20067862122290012,0.1420853134309242,0.07986905834550921,0.08077080697473349,0.503371818051373,0.5795892958945149,-0.03892294850450043,-0.000311256113589908
371,-0.0073148922326785855,0.2007180141074744,0.14183632722828976,0.07986907146808735,0.08146878209739718,0.5028364728611623,0.579442326721782,-0.038919634124701466,-0.0003121884689214865
372,-0.007318021515782503,0.20075708955678462,0.1415873221570878,0.0798690848552688,0.08216684049631456,0.5023010898373422,0.5792953980549803,-0.038916320386642916,-0.00031312098612401205
373,-0.007321126199531425,0.20079585698343763,0.14133830169085929,0.07986909858641689,0.0828650269663222,0.5017657023760983,0.579148548018603,-0.038913008308206876,-0.000314053612206017
374,-0.007324206846623379,0.2008343232141758,0.1410892667946071,0.0798691126738368,0.08356337984299496,0.5012303356838651,0.5790018015129599,-0.03890969852015258,-0.00031498629376548715
375,-0.007327263883782736,0.20087249354690165,0.14084021699134053,0.07986912710862759,0.08426193191719449,0.500695007251809,0.5788551762345956,-0.03890639146225188,-0.0003159189878239745
376,-0.008058111319274093,0.20075914214075402,0.1418783690720562,0.08354307768631235,0.08172172980680709,0.5029552939202611,0.5801848316546289,-0.03900163773757425,-0.0003168521430956129
377,-0.00806139427858762,0.20079832611976245,0.14162917420830917,0.08354309106809445,0.08242035886738029,0.5024198738486925,0.5800379395191391,-0.03899832520613268,-0.0003177855015020731
378,-0.008064650833423856,0.20083719487786608,0.1413799589970365,0.08354310470114061,0.0831190893262589,0.5018844210653147,0.5798910947814541,-0.038995013487571145,-0.0003187190080416667
379,-0.008067881794004686,0.2008757573681985,0.14113072656866216,0.08354311866262099,0.0838179640159578,0.501348966634035,0.579744333582867,-0.03899170354960853,-0.0003196526149403296
380,-0.008071087718727384,0.2009140200699118,0.14088147766960563,0.08354313296425453,0.08451701969314092,0.5008135340339278,0.579597679398931,-0.038988395987540045,-0.00032058627287086315
381,-0.008074269031212828,0.2009519880113676,0.1406322116903027,0.08354314759728539,0.08521628786883358,0.5002781395045818,0.5794511488790658,-0.03898509121520247,-0.0003215199419214613
382,-0.008822227171098835,0.20083562253893947,0.14165907360878668,0.08730222639618719,0.0826944545167324,0.5025074869394108,0.5807563718326388,-0.03907891158844101,-0.0003224540682124209
383,-0.008825639701852636,0.20087459116834763,0.14140965910621398,0.08730223996782578,0.08339382532742994,0.5019719974332321,0.5806095826248873,-0.039075601528422564,-0.00032338840072864127
384,-0.008829024706698163,0.20091324542501873,0.14116022199490158,0.08730225377713477,0.08409330925310216,0.5014364734633107,0.5804628421463154,-0.039072292315061145,-0.000324322885264447
385,-0.008832383015538108,0.20095159410719202,0.1409107653876315,0.08730226790093636,0.08479294837200269,0.5009009456874168,0.5803161859925144,-0.03906898490140936,-0.00032525747446867845
386,-0.008835715200958855,0.20098964357652838,0.14066129005124897,0.08730228235156672,0.08549277878185152,0.5003654372919504,0.5801696372901425,-0.03906567987387373,-0.00032619211949109925
387,-0.008839021697389184,0.20102739876592385,0.14041179541799337,0.08730229712115864,0.08619283141764345,0.49982996433238575,0.5800232124459214,-0.039062377640227484,-0.00032712678079999113
388,-0.00960169598106779,0.20090819214145852,0.14142646733510422,0.09113450265364959,0.08369236923726638,0.5020269065224492,0.5813037875900251,-0.039154741596269825,-0.0003280618995886279
389,-0.009605238267610144,0.20094693308306003,0.14117682085535138,0.09113451636225764,0.08439254489196026,0.501491332733557,0.5811571096919138,-0.039151434197308425,-0.00032899723051034647
390,-0.00960875186037038,0.20098536017383045,0.14092714973391834,0.0911345302991367,0.08509284324788062,0.5009557221614969,0.5810104810695158,-0.03914812765939513,-0.00032993271911722986
391,-0.009612237613325334,0.2010234821110007,0.14067745710583865,0.0911345445406307,0.08579330586749924,0.5004201053523266,0.5808639370015197,-0.039144822926546356,-0.0003308683177196483
392,-0.00961569611661951,0.20106130518039664,0.14042774378496675,0.09113455909951369,0.08649396837946177,0.4998845054144774,0.5807175004368396,-0.0391415205805025,-0.00033180397738810045
393,-0.010375408476642454,0.20094301088465355,0.14139492941674245,0.09495125736394094,0.08410878913441884,0.501974997394596,0.5819384286071273,-0.03923009670364987,-0.00033274011159515487
394,-0.010379100076380769,0.2009817538393294,0.14114506905294616,0.09495127094502573,0.08480955443820884,0.5014392812410282,0.5817917388055572,-0.03922678912537684,-0.00033367647405184523
395,-0.010382761653276763,0.20102018162381863,0.14089518472072493,0.09495128476832987,0.0855104350767643,0.5009035258890346,0.5816450956469682,-0.03922348234677355,-0.00033461300350458767
396,-0.010386394107643568,0.20105830309224373,0.1406452796736592,0.09495129890729402,0.08621147353385165,0.5003677631301154,0.5814985350273796,-0.03922017732408792,-0.00033554964753968093
397,-0.010389998066801397,0.20109612467265542,0.1403953548205586,0.09495131337373094,0.08691270613917089,0.49983201690486123,0.5813520804838227,-0.03921687465293662,-0.00033648635441992244
398,-0.010393574007972146,0.2011336513488169,0.14014540971495051,0.09495132815986905,0.08761416396138928,0.4992963038295241,0.5812057487685903,-0.03921357474942209,-0.0003374230827929989
399,-0.011165559133424093,0.20101227462684765,0.14110569894156638,0.09882899301477364,0.08523762162639983,0.5013664412127129,0.5824088505094414,-0.03930110834237681,-0.0003383602528459609
400,-0.011169372686387888,0.20105071754094322,0.14085560536521208,0.09882900682308395,0.08593922365010673,0.500830629267322,0.5822622882932325,-0.03929780375907286,-0.0003392976320410345
401,-0.011173155177462,0.20108884726001428,0.14060548642917264,0.09882902086228834,0.08664095819446486,0.5002947826502162,0.5821157789793697,-0.03929450013038351,-0.0003402351658228282
402,-0.011176907499300864,0.20112667222143352,0.14035534508640457,0.09882903520394345,0.08734286592680833,0.49975893104391317,0.5819693566834084,-0.039291198367692924,-0.00034117280664601766
403,-0.011180630272515892,0.2011641985356641,0.14010518205688438,0.09882904985930371,0.0880449817127942,0.49922309683676874,0.5818230436570229,-0.03928789903466013,-0.0003421105065096819
404,-0.011184323969192347,0.20120143093913684,0.13985499678308097,0.09882906482067312,0.08874733543047196,0.4986872955259134,0.581676855707611,-0.03928460252398946,-0.00034304822684480193
405,-0.011966593613179068,0.2010772447015889,0.1408067937056969,0.10275770610308882,0.08638422263195591,0.500734104536311,0.5828611306089531,-0.03937101529983977,-0.0003439863857026576
406,-0.011970528450346815,0.20111538380706462,0.14055645580640252,0.10275772007732038,0.0870867446279336,0.5001982008434469,0.5827147187095207,-0.03936771425960963,-0.00034492475702525935
407,-0.01197443105101284,0.20115321039888623,0.1403060904794495,0.10275773427068391,0.08778941016399633,0.4996622606527201,0.5825683607947252,-0.03936441420111003,-0.00034586328699900314
408,-0.011978302327295104,0.20119073278317523,0.1400557006781813,0.10275774875454682,0.08849225922872461,0.4991263133376171,0.5824220905393613,-0.03936111602390557,-0.000346801928409647
409,-0.011982142913561741,0.20122795696890253,0.13980528715451365,0.10275776354073005,0.08919532609116398,0.4985903810735164,0.5822759299137846,-0.039357820284488025,-0.00034774063359890617
410,-0.011985953292184152,0.20126488760885167,0.1395548494005116,0.10275777862231716,0.08989864010357376,0.4980544792341473,0.5821298945314225,-0.03935452737070933,-0.00034867936425171263
411,-0.01277669115984089,0.20113813885942858,0.14049687191520033,0.10672827088764451,0.08755286530533889,0.5000756160699223,0.5832946221849449,-0.03943976074382563,-0.0003496185339841968
412,-0.012780745522104288,0.20117596425433648,0.14024627766763487,0.10672828498122683,0.08825636659573266,0.49953960619285165,0.5831483672541409,-0.039436463396210895,-0.0003505579219356149
413,-0.012784766432426053,0.2012134775106378,0.13999565417894988,0.10672829928593192,0.0889600203751215,0.49900355755872516,0.5830021667061414,-0.03943316704058109,-0.00035149747406582293
414,-0.012788754826889532,0.20125068685181996,0.1397450044363165,0.10672831387279282,0.08966386617369877,0.4984674994942698,0.5828560539769899,-0.039429872569623436,-0.000352437142791924
415,-0.012792711357118541,0.20128759822328401,0.13949432924544086,0.10672832875402978,0.09036793784006984,0.49793145415172785,0.5827100509079078,-0.03942658053641064,-0.0003533768802957446
416,-0.012796636518454127,0.20132421622376934,0.13924362816105001,0.10672834392331264,0.09107226434363218,0.49739543691818844,0.582564173031667,-0.03942329132673807,-0.00035431664815340196
417,-0.013594181422507165,0.20119513513195833,0.14017485639278648,0.11073234021638113,0.08874701851976735,0.4993890966743523,0.5837088773435226,-0.03950730326024746,-0.000355256544672639
418,-0.013598353024978888,0.2012326344273106,0.13992399554751128,0.11073235644742022,0.08945154897356342,0.4988529665434816,0.5835627844729057,-0.039504009685675856,-0.0003561966747985314
419,-0.01360249013625963,0.20126982183578773,0.13967310397161467,0.11073237371987266,0.09015623979788125,0.4983167958381909,0.5834167464421611,-0.03950071711879466,-0.0003571370147350627
420,-0.013606593688666794,0.20130670550710597,0.13942218467742717,0.11073239198965466,0.09086113011568082,0.4977806138417664,0.5832707964576596,-0.03949742644501598,-0.00035807751073893606
421,-0.013610664328458416,0.20134329133085266,0.13917123851561924,0.11073241117654917,0.09156625340145187,0.49724444268112317,0.5831249562386321,-0.039494138213521233,-0.00035901810819370054
422,-0.01361470254566891,0.20137958385843785,0.138920265094599,0.11073243119737407,0.092271638284298,0.49670829775112224,0.5829792412419882,-0.03949085280770616,-0.00035995876378487396
423,-0.014417533550784772,0.20124838796233196,0.1398398948612575,0.11476228399107932,0.08996952275701234,0.49867311862904007,0.5841036451999746,-0.03957361482686237,-0.00036089980309244457
424,-0.014421819939866954,0.20128554723917494,0.13958875890953537,0.11476230435495634,0.09067512686414872,0.49813685698788807,0.5839577202391889,-0.03957032519403202,-0.00036184111507998304
425,-0.01442607050805578,0.20132239484092002,0.1393375910043035,0.11476232537417266,0.0913808985450771,0.49760055342942794,0.5838118507293436,-0.03956703658403873,-0.00036278263675917574
426,-0.014430286215321917,0.20135893884048495,0.1390863941699791,0.11476234703721477,0.0920868765295945,0.49706423715801906,0.5836660696251236,-0.03956374987447688,-0.000363724308017729
427,-0.014434467731869141,0.2013951850697734,0.1388351692909106,0.11476236929680876,0.09279309393433043,0.49652793024532704,0.5835203985081469,-0.03956046561086777,-0.0003646660739360699
428,-0.014438615567369693,0.20143113803187343,0.1385839160191136,0.11476239210026044,0.09349957906592705,0.49599164806890456,0.5833748527475785,-0.039557184174443094,-0.0003656078919099759
429,-0.01524533614046565,0.20129803513982716,0.13949132026155167,0.11881107735031148,0.09122270798063953,0.497926629923863,0.5844788389497473,-0.039638678661761614,-0.0003665500835704083
430,-0.015249733199900738,0.20133483948982706,0.13923990204480807,0.11881110001313953,0.09192942667388844,0.4973902280815257,0.5843330886395606,-0.03963539311480094,-0.0003674925429919121
431,-0.015254093132095449,0.20137133233470217,0.13898845085394526,0.1188111231162548,0.09263631967893252,0.4968537833526235,0.5841873945248303,-0.039632108608799496,-0.0003684352078228527
432,-0.015258416924754752,0.20140752166903264,0.13873696971529326,0.11881114666787235,0.09334342533833957,0.4963173248307918,0.5840417892892297,-0.03962882601367775,-0.0003693780184527238
433,-0.015262705269055902,0.2014434132665554,0.13848545953812366,0.11881117063917102,0.09405077641941989,0.4957808745065966,0.5838962943623223,-0.03962554587101589,-0.0003703209205684301
434,-0.015266958691114493,0.20147901158213166,0.13823392001035056,0.11881119499432007,0.094758400916708,0.49524444771909504,0.5837509250144363,-0.03962226855958796,-0.0003712638721303638
435,-0.016076286030350977,0.20134420165672565,0.1391286173234118,0.12287225691812521,0.0925084842883046,0.4971488853217754,0.5848345032847084,-0.03970248666996408,-0.000372207190387367
436,-0.01608078928507661,0.20138063537554224,0.13887691068018707,0.12287228087340216,0.0932163560583986,0.4966123365816002,0.5846889351097956,-0.039699205372288146,-0.00037315077417246755
437,-0.01608525412025403,0.20141675772936704,0.13862517019516435,0.12287230515019303,0.09392440856178384,0.4960757442716552,0.5845434239835038,-0.039695925136641635,-0.00037409456151619433
438,-0.016089681548578646,0.2014525766330282,0.13837339888886216,0.12287232976722587,0.09463267975545203,0.4955391373490817,0.5843980023022856,-0.03969264682483615,-0.0003750384930812892
439,-0.0160940722798728,0.2014880978013654,0.13812159768893645,0.12287235470580407,0.09534120206144471,0.4950025377026961,0.5842526913315557,-0.039689370974185435,-0.0003759825149487969
440,-0.016098426854663783,0.20152332564075606,0.13786976631353073,0.12287237993943097,0.09605000316793523,0.4944659606163791,0.5841075062335858,-0.03968609796075491,-0.00037692658544608254
441,-0.016909180519254607,0.20138700229325088,0.1387513953355807,0.12693987386142394,0.09382841451039246,0.49633938940190786,0.5851707873794477,-0.03976503789896992,-0.0003778710171556829
442,-0.01691378509792335,0.2014230490949523,0.13849939483442675,0.12693989855876447,0.09453747618887792,0.49580268858928606,0.5850254094070665,-0.039761761029276727,-0.0003788157134688607
443,-0.0169183499714844,0.20145878464945852,0.13824735973975358,0.12693992351153982,0.0952467248093557,0.4952659437396527,0.5848800894216359,-0.03975848524491035,-0.0003797606126793542
444,-0.016922876175767113,0.20149421679062265,0.13799529306068087,0.12693994874394826,0.09595619794273841,0.4947291836538246,0.5847348595200287,-0.03975521139925173,-0.0003807056556159756
445,-0.01692736443770534,0.20152935117366508,0.13774319573856322,0.12693997424285952,0.09666592766734143,0.4941924301032676,0.5845897407941596,-0.039751940025103044,-0.0003816507886510435
446,-0.016931815310921482,0.2015641921561288,0.13749106751776424,0.12693999998698977,0.0973759413679508,0.49365569830425415,0.5844447482911259,-0.039748671495632534,-0.000382595970380691
447,-0.01774290706655319,0.20142654376663907,0.1383593660645796,0.13100844152658542,0.09518377287868035,0.49549785026084303,0.5854879228565644,-0.03982633711194809,-0.00038354150854732393
448,-0.017747607691539123,0.20146218694991355,0.13810706680774484,0.13100846666521124,0.09589406018651223,0.4949609933566787,0.5853427435979208,-0.03982306486025722,-0.0003844873109845873
449,-0.01775226732931473,0.20149751898614396,0.13785473229477935,0.13100849202203105,0.09660454050458882,0.4944240921114625,0.5851976233308284,-0.03981979371887212,-0.00038543331620142325
450,-0.017756887037472385,0.2015325476272474,0.13760236551947988,0.13100851762395568,0.09731525101610514,0.4938871751548013,0.5850525938435364,-0.03981652453251436,-0.0003863794651482969
451,-0.017761467558955794,0.20156727846820272,0.13734996743363836,0.13100854346092677,0.09802622345570575,0.49335026412935284,0.5849076760474713,-0.039813257829294936,-0.0003873257044425465
452,-0.017766009459552506,0.20160171581737163,0.13709753780508785,0.1310085695146176,0.09873748490600877,0.49281337417478754,0.5847628848692349,-0.03980999397934656,-0.0003882719929025401
453,-0.01777051318301865,0.20163586307013148,0.13684507561183748,0.1310085957655025,0.09944905875345714,0.49227651536592887,0.5846182311700359,-0.03980673325045027,-0.00038921830146551026
454,-0.01859516275311626,0.20149392608026237,0.13773008336282758,0.1351440392173373,0.09720774630164714,0.49415122198597694,0.5856723951137154,-0.039885177399936654,-0.00039016495022222927
455,-0.01859992266136231,0.2015289010148885,0.13747744030051068,0.13514406476656274,0.09791963531544026,0.49361424066631787,0.5855275617152284,-0.03988191314491296,-0.00039111185912262865
456,-0.018604640420310008,0.20156356595240793,0.13722475918953858,0.1351440904968606,0.09863173548266078,0.4930772137013459,0.5853827898295354,-0.039878650060090066,-0.00039205897115369395
457,-0.018609317090905672,0.20159792842131335,0.1369720429982189,0.13514411643881438,0.09934408269027843,0.49254016884063134,0.5852381104879483,-0.0398753889720272,-0.00039300622989942886
458,-0.018613953415060454,0.2016319938302736,0.13671929269895253,0.13514414258555907,0.10005670757846244,0.4920031271537987,0.585093544026409,-0.03987213039471392,-0.00039395358366903666
459,-0.01861854995640006,0.20166576633364683,0.1364665081148096,0.13514416892169562,0.10076963628654816,0.49146610342128855,0.5849491049514631,-0.039868874687906286,-0.0003949009923807116
460,-0.01943994447914466,0.2015233593744733,0.13733216891223848,0.13926239995612252,0.09857425937899031,0.493297326357949,0.5859777928420806,-0.03994567873060657,-0.00039584876037838506
461,-0.01944479476451571,0.20155793170039993,0.13707920167882948,0.139262425602221,0.09928749735607446,0.49276016505292414,0.5858331692442239,-0.039942419354458775,-0.0003967968049247188
462,-0.01944960144489906,0.20159219292700573,0.1368261960478787,0.1392624514254209,0.10000094522551867,0.49222295420572276,0.5856886045116201,-0.03993916108381895,-0.0003977450640406582
463,-0.01945436563247979,0.20162615072740464,0.1365731551637276,0.13926247745597586,0.10071463945857954,0.49168572272826677,0.5855441303529001,-0.039935904760615495,-0.00039869347766008215
464,-0.019459088107957035,0.20165981062544677,0.1363200801440652,0.13926250368739063,0.10142861111135551,0.4911484925375686,0.5853997676720322,-0.03993265091254571,-0.0003996419915881887
465,-0.019463769464529525,0.20169317686152968,0.13606697092693698,0.13926253010473977,0.10214288662214341,0.49061127905262975,0.5852555314155189,-0.039929399910138254,-0.0004005905639435801
466,-0.0194684101659716,0.2017262527653394,0.1358138266609622,0.13926255669164242,0.10285748876360548,0.4900740926295858,0.5851114324786132,-0.039926152021957435,-0.00040153916501389975
467,-0.020299741981329385,0.20158047543916602,0.1366904503868375,0.14342941814425528,0.10062878118218954,0.4919262639986566,0.5861460321570326,-0.04000338752866243,-0.00040248810855618715
468,-0.02030464121186115,0.20161436857714088,0.1364371158601806,0.14342944399889265,0.10134372635552415,0.4913889445022937,0.5860017565902301,-0.040000136180987224,-0.0004034373230255181
469,-0.0203094956277306,0.2016479514236198,0.1361837411379932,0.14342947001444428,0.10205889605820824,0.4908515754597863,0.585857542533834,-0.039996886002116615,-0.00040438675038559303
470,-0.02031430634513717,0.20168123145039207,0.13593032931278812,0.14342949622261192,0.10277432564426238,0.49031418493937784,0.5857134209682112,-0.039993637816245306,-0.0004053363329264497
471,-0.020319074144721998,0.2017142140162381,0.1356768814966211,0.14342952261822411,0.10349004523360171,0.48977679429167903,0.5855694122524605,-0.039990392137644076,-0.0004062860180189143
472,-0.020323799618466018,0.2017469032264715,0.13542339765553263,0.1434295491876226,0.10420608046499331,0.4892394185673728,0.5854255309355144,-0.03998714932700578,-0.0004072357648267565
473,-0.021148892111692005,0.20160131515202478,0.13627693124025742,0.14756413752193992,0.10203375747191275,0.49104064820627064,0.5864315433988573,-0.04006252635775646,-0.00040818587036602544
474,-0.021153872149302394,0.20163478884687677,0.13602325708032942,0.14756416339428927,0.10275012664082887,0.4905031271938043,0.5862874824989646,-0.04005927998593426,-0.0004091362603227064
475,-0.02115880588672852,0.20166795106008503,0.1357695430416207,0.1475641894322196,0.10346671750752495,0.48996555403952335,0.5861434809674653,-0.04005603473089802,-0.000410086871885028
476,-0.021163694490754947,0.20170080939780796,0.13551579235133301,0.1475642156660931,0.10418356602302856,0.48942795784895593,0.585999570367761,-0.0400527914297101,-0.0004110376439217048
477,-0.021168538780758674,0.20173336932892577,0.1352620062324832,0.14756424209029403,0.10490070274589956,0.4888903607152503,0.5858557715624785,-0.04004955060871701,-0.0004119885215192323
478,-0.0211733393784261,0.20176563504254263,0.13500818473634976,0.14756426869093012,0.10561815364463556,0.4883527782417455,0.5857120994923695,-0.040046312638185436,-0.00041293946222918545
479,-0.02117809676862664,0.20179760981905603,0.13475432712791433,0.1475642954526399,0.10633594104682371,0.4878152209758277,0.5855685650644155,-0.040043077786903004,-0.00041389043582782005
480,-0.022010029846471324,0.20164940770302375,0.13561498076133977,0.15173181190431148,0.10414104101714292,0.4896297819194858,0.5865773156033921,-0.040118662961468654,-0.00041484174790486466
481,-0.02201504527646311,0.20168217946437575,0.1353609266238505,0.15173183794225867,0.10485919375494994,0.4890920867611493,0.5864336115659922,-0.04011542480546129,-0.00041579333558097324
482,-0.022020013190681136,0.2017146404930924,0.13510683140555552,0.15173186413472925,0.10557758162212175,0.4885543407443844,0.5862899701027209,-0.04011218784352624,-0.00041674514029242725
483,-0.022024934755281198,0.20174679817771288,0.13485269824142604,0.1517318905128634,0.10629623943652963,0.48801657198508125,0.586146421936959,-0.04010895289205995,-0.0004176971035738504
484,-0.022029810786379365,0.2017786578122906,0.13459852831605995,0.15173191707186579,0.10701519681867733,0.48747880188984405,0.5860029873089625,-0.040105720462034665,-0.0004186491723605896
485,-0.022034641902122225,0.20181022344495125,0.1343443216808963,0.15173194379868374,0.10773447894702495,0.48694104559702206,0.5858596807039589,-0.0401024909124452,-0.0004196013054854923
486,-0.022039428583943747,0.20184149824110703,0.13409007762871028,0.15173197067878397,0.10845410747250966,0.486403313351668,0.5857165126984436,-0.04009926450389594,-0.0004205534735883714
487,-0.022875965439729303,0.2016912872012664,0.1349534672538767,0.1559210577921611,0.1062484235981308,0.4882221725810684,0.5867238314551118,-0.04017477758177188,-0.00042150598148537954
488,-0.022881012080951963,0.20172336296187282,0.13469901986538388,0.15592108393700965,0.10696843397876193,0.48768429651859524,0.5865804936325786,-0.04017154786837044,-0.00042245877157478677
489,-0.022886009833208678,0.2017551277419366,0.13444453015942823,0.15592111023086702,0.10768868732993858,0.487146367135664,0.5864372181932241,-0.040168319342839424,-0.00042341178495509116
490,-0.02289095989191282,0.2017865889140415,0.13419000136144568,0.15592113670526636,0.10840921817158375,0.48660841277515765,0.5862940359122316,-0.04016509282268394,-0.00042436496246677635
491,-0.022895863092899225,0.20181775175263816,0.13393543474922343,0.1559211633559137,0.10913005583250975,0.4860704550536097,0.5861509670840873,-0.04016186882014279,-0.000425318250437658
492,-0.022900720068321397,0.20184862028383643,0.133680830466849,0.15592119017027056,0.10985122520659618,0.4855325093059185,0.586008026245896,-0.04015864769544356,-0.000426271607173545
493,-0.022905531309585683,0.20187919764945478,0.13342618789810134,0.15592121713429677,0.1105727476673721,0.48499458596138373,0.5858652240227425,-0.040155429710354164,-0.00042722500284398117
494,-0.023744621234558665,0.20172750168369047,0.13428877538529072,0.16012148171361062,0.10836581762098653,0.4868104739765353,0.5868677883082478,-0.040230645870788916,-0.00042817873959343536
495,-0.023749693259856104,0.20175887904599385,0.1340339239694266,0.16012150794136384,0.10908773414271687,0.4862724015759649,0.5867248164052827,-0.04022742458480389,-0.0004291327644275376
496,-0.02375471498729082,0.2017899449998831,0.13377902951282541,0.16012153431571635,0.10980989956243546,0.48573427399019065,0.586581906699255,-0.040224204480818045,-0.0004300870177405846
497,-0.023759687643689718,0.20182070691653406,0.13352409531981121,0.1601215608681611,0.11053234820992287,0.485196119830082,0.586439090044321,-0.04022098637793825,-0.00043104143948380114
498,-0.02376461208663212,0.20185117006436876,0.13326912274937222,0.16012158759460307,0.11125510921584505,0.484657960941285,0.5862963868158483,-0.040217770790289244,-0.00043199597528331576
499,-0.023769488963996624,0.20188133845924597,0.1330141120252507,0.1601216144827639,0.11197820727304582,0.4841198128621381,0.5861538116229108,-0.040214558079818975,-0.0004329505828734673
500,-0.02377431877860118,0.201911215229544,0.13275906260847872,0.16012164151887018,0.11270166355339373,0.48358168620482334,0.586011375153223,-0.0402113485098032,-0.00043390523193678613
501,-0.024614080375301613,0.2017584983557699,0.13361800557535258,0.16432356141089718,0.11050118599345134,0.4853887945902398,0.5870065662368286,-0.04028608858034351,-0.0004348602212020002
502,-0.024619170864194895,0.20178917047853873,0.1333627429401371,0.16432358771536681,0.11122504660732463,0.4848505155022583,0.5868639616012448,-0.04028287574374589,-0.00043581550232064096
503,-0.024624209633881733,0.20181953072403597,0.13310743695995406,0.164323614165286,0.11194916109206451,0.48431218022436284,0.5867214193281424,-0.040279664092108786,-0.00043677101513610057
504,-0.02462919794099394,0.20184958645284437,0.13285209099033357,0.16432364079185105,0.11267356358840137,0.48377381754632826,0.5865789702805758,-0.040276454444272955,-0.0004377266988882749
505,-0.02463413666395745,0.20187934292233722,0.13259670644878493,0.16432366759101252,0.11339828303743359,0.48323544946798347,0.5864366348673826,-0.04027324731505015,-0.00043868249867470475
506,-0.024639026465832447,0.20190880413538556,0.13234128361919917,0.1643236945506348,0.11412334394580215,0.48269709166997055,0.5862944277343125,-0.040270043067232315,-0.0004396383718070907
507,-0.024643867860531365,0.201937973205718,0.13208582202270783,0.1643237216571125,0.11484876730309196,0.4821587548972951,0.5861523596046037,-0.04026684196493335,-0.0004405942876040237
508,-0.025482573359177668,0.2017846529608621,0.1329388482796108,0.16851856200239806,0.11266093248777292,0.48395247219525034,0.5871381327615989,-0.04034096404256836,-0.00044155054086947754
509,-0.025487674491427206,0.20181460987069466,0.13268316991860835,0.16851858838484157,0.11338676947973618,0.4834139811305739,0.5869958991967041,-0.04033775973510349,-0.0004425070880022255
510,-0.025492722478770415,0.20184425442929857,0.13242744819811608,0.16851861491193248,0.11411286480257117,0.4828754335358899,0.5868537284745688,-0.04033455662343467,-0.00044346386847669134
511,-0.025497718605605825,0.20187359397579652,0.13217168650236966,0.1685186416144298,0.11483925239005585,0.4823368582950647,0.5867116513992601,-0.04033135552435269,-0.0004444208210062893
512,-0.025502663769912316,0.20190263374968176,0.13191588628953363,0.1685186684882652,0.1155659609847123,0.4817982774929207,0.5865696883663798,-0.0403281569521814,-0.00044537789032814026
513,-0.0255075586490422,0.20193137773637918,0.13166004788878588,0.1685186955214045,0.1162930149052076,0.481259706897404,0.5864278540236866,-0.04032496126969729,-0.0004463350334708168
514,-0.0255124037673837,0.20195982903214763,0.1314041708687074,0.16851872270037932,0.1170204349624478,0.48072115734253495,0.5862861591035927,-0.04032176874120181,-0.00044729221950112085
515,-0.026348464749117718,0.20180628634952993,0.1322494760909601,0.17269846037737674,0.11485019214721104,0.4824978523172544,0.587260936624351,-0.04039516135576013,-0.00044824986430249634
516,-0.026353567845821435,0.20183551573846736,0.13199337933655061,0.17269848602322585,0.11557803471577013,0.48195914771128573,0.5871190799663836,-0.040391965717459705,-0.0004492078002707577
517,-0.02635861629326237,0.20186443232175566,0.13173723940083826,0.17269851147416437,0.11630613982688087,0.4814203867100547,0.5869772868777676,-0.04038877129034537,-0.00045016595428717086
518,-0.026363611412329617,0.20189304340593217,0.1314810596802748,0.17269853680473451,0.11703454118487332,0.4808815982238459,0.5868355880479827,-0.0403855788879159,-0.00045112426669287754
519,-0.026368554128145046,0.2019213542051028,0.13122484166095363,0.17269856204708448,0.11776326731902238,0.4803428043679776,0.5866940038212076,-0.040382389023294815,-0.00045208268445932274
520,-0.026373445138703572,0.2019493686819629,0.13096858570703765,0.1726985872197602,0.11849234235171464,0.4798040209550125,0.5865525488190044,-0.04037920205872556,-0.0004530411662604562
521,-0.026378284984314188,0.20197708991157248,0.13071229142602428,0.17269861233552328,0.11922178691164718,0.4792652588745617,0.5864112337616667,-0.04037601825830898,-0.0004539996823783188
522,-0.027210239243263497,0.2018236766226242,0.13154845591836656,0.17685586892202268,0.11707306176313678,0.4810221040391023,0.5873738179575255,-0.04044859476094775,-0.0004549585486724219
