tc-huang/low_cost_robot/result/line.csv
,x,y,z,j0,j1,j2,j3,j4,j5
0,0.008728,0.105265,0.053893999999999984,2.0490962801440652e-07,1.948842015734718e-05,-6.923242613085934e-05,3.018465238817793e-05,-8.329169537214389e-07,-6.934196320654644e-08
1,0.008166575153518114,0.11414299329467806,0.06229888818206089,0.00491964634428323,-0.028812863873501293,0.05227535955996994,0.028930104153373118,-0.0018330928211861208,-2.4406471582122765e-07
2,0.007570732963509846,0.12193230282620553,0.07104320469205004,0.009493818579672008,-0.05445861636354041,0.10029220731042181,0.058094140457560055,-0.0036827777368582115,-4.82540274382209e-07
3,0.006964658427411275,0.12861569267389644,0.07976495795033024,0.013714977956566385,-0.07654902873433232,0.1437223450282527,0.08678966687242644,-0.005503509952756919,-7.600831842889522e-07
4,0.0063677997949971085,0.13426291919690625,0.08815740311416029,0.01758583819106154,-0.09495733349615383,0.18252676317810657,0.11445169981219412,-0.0072594433024671425,-1.065774523297555e-06
5,0.005794006485683983,0.13899903547923012,0.09599464027700667,0.021116812046172374,-0.10976208832254826,0.21685303078073154,0.1406932353501812,-0.008925978133169697,-1.3949662478755126e-06
6,0.005251895892686093,0.14297272584975976,0.1031361010795114,0.02432349238670488,-0.12119282084839936,0.2469856982421044,0.1652900402326887,-0.010488819804734132,-1.7454859020941345e-06
7,0.004745893673916643,0.1463319701676251,0.10951631174300624,0.027224591507825493,-0.1295734076563404,0.2732942716757455,0.18815044256870023,-0.011942073907588273,-2.116060145480585e-06
8,0.004277447086991895,0.14920923138503153,0.11512769273905504,0.029840386378353446,-0.13527333814979153,0.2961879517920641,0.20928042968049412,-0.013286039378689005,-2.5057046672542493e-06
9,0.0038461020164041234,0.15171490053163225,0.12000241920064718,0.032191622317104304,-0.13867112500274945,0.31608122727467725,0.22875115801968,-0.014525152253615245,-2.913502015212604e-06
10,0.003450319978156603,0.15393639468906736,0.12419673782986973,0.03429878767529285,-0.14012990987495214,0.3333706432231152,0.24667239834452026,-0.01566630418667326,-3.3385324649400815e-06
11,0.0030880313782537363,0.15594039091062992,0.127778978492062,0.03618166550272302,-0.13998318100607726,0.34842104404878693,0.2631727803952764,-0.01671759093288803,-3.7798648646937196e-06
12,0.002756975819354413,0.15777635393261594,0.13082120242712453,0.03785907890568451,-0.13852792103789113,0.3615589248081752,0.2783862053782386,-0.017687451062469876,-4.2365694929697774e-06
13,0.0024548921589146373,0.15948024119381152,0.13339385363959627,0.03934876431617305,-0.13602273043787533,0.37307063685424946,0.2924431946935938,-0.018584117099441994,-4.707736677931122e-06
14,0.002179612615052863,0.16107782429237863,0.13556264684337802,0.04066732488849112,-0.1326890048280133,0.38320362848994044,0.30546587429363575,-0.019415296843582477,-5.192494131645664e-06
15,0.0019291007674846882,0.16258741889904402,0.1373870036526082,0.041830231579861876,-0.12871379951145337,0.3921693927156583,0.3175654711441073,-0.020188013804559268,-5.690020243088828e-06
16,0.0017014597224857715,0.1640220078324357,0.1389194972992229,0.042851851133275734,-0.12425347525682107,0.4001472214029857,0.3288414493826614,-0.020908551547115548,-6.1995526928035275e-06
17,0.0014949263392338846,0.16539083008912497,0.14020591533614699,0.043745488334265094,-0.11943756065555967,0.40728819274485356,0.33938165388716013,-0.021582461929313592,-6.7203927727630375e-06
18,0.0013078603711589613,0.16670053698495746,0.14128567302463566,0.044523435239607695,-0.11437250171726122,0.4137190512252002,0.34926302585463254,-0.022214609669166257,-7.251906215587479e-06
19,0.00113873298130549,0.1679560149978074,0.14219240240247952,0.04519702335237747,-0.10914512351245743,0.4195457953221371,0.358552603332591,-0.02280923505972352,-7.793521430943001e-06
20,0.0009861165461105808,0.16916096087233762,0.14295460714398514,0.04577667661987115,-0.10382572531571811,0.42485688805624255,0.3673086254249602,-0.023370023346200593,-8.344725975904602e-06
21,0.0008486763029984983,0.17031827726255339,0.14359631740001153,0.04627196417013138,-0.09847078865383257,0.4297260665429007,0.3755816313341553,-0.02390017386348856,-8.905061946229266e-06
22,0.0007251637473468702,0.17143034093279783,0.14413770769519868,0.04669165223251109,-0.09312531052588893,0.43421476192994446,0.3834154933665387,-0.02440246506896381,-9.474120820492357e-06
23,0.000614411431131669,0.1724991819201454,0.14459565934884155,0.04704375493572189,-0.08782479114791024,0.4383741597376769,0.39084835378759447,-0.02487931355343886,-1.0051538145853802e-05
24,0.0005153287669125359,0.17352660136420994,0.14498426023246397,0.0473355837810276,-0.08259691303809504,0.4422469389517717,0.3979134544536709,-0.025332826319472552,-1.0636988333983645e-05
25,0.00042689848553119705,0.17451424764349657,0.1453152414083539,0.04757379562716623,-0.07746295006139606,0.44586873039676794,0.40463985941322506,-0.02576484633057619,-1.1230179740789702e-05
26,0.00034817347341419,0.17546366454180726,0.1455983539612164,0.04776443903867766,-0.07243894369062322,0.4492693336062488,0.4110530769032643,-0.026176991730528454,-1.1830850132114474e-05
27,0.00027827379533703483,0.17637632091751487,0.14584169124007834,0.04791299886030254,-0.06753668075621819,0.45247372828035687,0.41717559022410655,-0.02657068932660626,-1.2438762585865894e-05
28,0.00021638377763587464,0.1772536283413002,0.1460519624905666,0.048024438894738335,-0.06276450327668781,0.4555029125057877,0.42302730809141276,-0.026947203002124612,-1.305370184508284e-05
29,0.00016174908095451662,0.1780969510668089,0.14623472394431392,0.04810324258094042,-0.058127977128078614,0.45837459581197126,0.4286259450425495,-0.027307657723134753,-1.3675471112529019e-05
30,0.00011367373095364387,0.17890761124605042,0.14639457313898002,0.04815345159428861,-0.05363044262470369,0.46110377118831897,0.433987341828337,-0.02765305976397177,-1.4303889262415012e-05
31,7.151710212519209e-05,0.1796868913065414,0.1465353117548682,0.04817870231635612,-0.04927346669791748,0.46370318656479376,0.439125734771924,-0.02798431371688482,-1.4938788436272308e-05
32,3.469086661543781e-05,0.18043603473208417,0.14666008168611444,0.04818226014877663,-0.04505721333981514,0.4661837330352894,0.4440539820185142,-0.028302236784553285,-1.5580011985919788e-05
33,2.6559293139216678e-06,0.1811562460351873,0.14677147848351013,0.048167051671233606,-0.040980746337497063,0.46855476429548926,0.4487837535461683,-0.02860757078806852,-1.6227412725406974e-05
34,-2.5080625422612378e-05,0.18184869040712223,0.14687164575038536,0.04813569466679321,-0.03704227604556081,0.47082435935653444,0.45332569082060525,-0.028900992260856916,-1.688085145475112e-05
35,-4.89685494534306e-05,0.18251449333306172,0.14696235356246412,0.048090526058009744,-0.03323935999980665,0.4729995385490128,0.4576895410854732,-0.029183120942923125,-1.754019572041614e-05
36,-6.941738462263106e-05,0.18315474033118112,0.1470450635256983,0.048033627814150374,-0.029569065527704597,0.47508644110768894,0.46188427049432296,-0.029454526940366182,-1.820531878030333e-05
37,-8.6799333210116e-05,0.18377047689297124,0.1471209826845747,0.047966850903482024,-0.02602810112374357,0.47709047118410086,0.4659181596106817,-0.029715736772322563,-1.8876098744149617e-05
38,-0.00010145202720060389,0.1843627086515912,0.1471911081451585,0.047891837374989255,-0.022612922194686552,0.4790164179316517,0.469798884221337,-0.029967238490891317,-1.955241786342136e-05
39,-0.00011368118222199707,0.18493240177519427,0.1472562639780874,0.047810040661413776,-0.01931981580827015,0.48086855430966924,0.47353358391547207,-0.03020948602858753,-2.0234161947893975e-05
40,-0.0001237631256109156,0.18548048356556568,0.1473171317118149,0.047722744200452846,-0.016144968269824835,0.48265071842677904,0.4771289204679486,-0.03044290290177882,-2.0921219889019897e-05
41,-0.00013194719138981056,0.1860078432343016,0.1473742755103898,0.047631078473676494,-0.013084518679105693,0.4843663805617588,0.4805911277182308,-0.030667885376720782,-2.1613483272867577e-05
42,-0.00013845797789483437,0.18651533282590493,0.14742816294783392,0.0475360365635747,-0.010134601062269029,0.48601869843776674,0.48392605434733404,-0.030884805186600247,-2.2310846067820687e-05
43,-0.00014349746634075965,0.18700376825747086,0.14747918213804104,0.047438488328456076,-0.007291377212556457,0.48761056286305665,0.48713920071488165,-0.03109401187286183,-2.301320437438122e-05
44,-0.00014724700074599667,0.18747393044669625,0.14752765585079722,0.04733919329299457,-0.004551061991874052,0.4891446354708492,0.4902357507190842,-0.03129583481154294,-2.3720456226308342e-05
45,-0.00014986913138804233,0.18792656650290218,0.1475738531372658,0.04723881234933004,-0.0019099425305992076,0.4906233799785648,0.4932205994774818,-0.03149058497495169,-2.4432501433976222e-05
46,-0.0001515093253499425,0.18836239095905172,0.14761799889880692,0.04713791836000962,0.0006356074967052436,0.49204908813017983,0.49609837748987723,-0.03167855647042936,-2.5149241462265776e-05
47,-0.00015229754879070908,0.18878208702604352,0.14766028175849802,0.047037005749910675,0.0030891175559031123,0.4934239012751309,0.4988734718321801,-0.031860027890839,-2.5870579336536763e-05
48,-0.00015234972636813445,0.18918630785367757,0.147700860532765,0.0469364991697845,0.005454013110525669,0.49474982836475595,0.5015500448368108,-0.03203526350555791,-2.6596419571282215e-05
49,-0.00015176908380087114,0.18957567778552692,0.14773986954908205,0.04683676130934269,0.007733611008735817,0.4960287610059452,0.5041320506384658,-0.03220451431590917,-2.7326668116964967e-05
50,-0.0001506473799159835,0.1899507935974545,0.1477774230130104,0.0467380999329916,0.00993111687608055,0.4972624860959081,0.5066232499006056,-0.032368018994969085,-2.806123232130411e-05
51,-0.0001490660347228329,0.19031222571169853,0.14781361859246356,0.04664077420649617,0.012049624087765512,0.49845269646714324,0.5090272229856271,-0.032526004728384204,-2.8800020901920377e-05
52,-0.00015049413998029313,0.1903429080145187,0.14762025035295362,0.04664075933014654,0.012569974310454077,0.4979795045052476,0.5088885234678242,-0.032522890831747406,-2.9542502763666778e-05
53,-0.00015193112940065177,0.19037377171172698,0.14742570959317258,0.04664074676507415,0.013094723059877246,0.49750460442274946,0.508749734552487,-0.03251977428769793,-3.0288720876053467e-05
54,-0.00015337605140285527,0.19040479596647292,0.14723003221108807,0.0466407363713416,0.013623696719549895,0.4970280160059566,0.5086108447282681,-0.032516654924037214,-3.103867860425678e-05
55,-0.00015047482716723862,0.19074011024330031,0.14736543096659907,0.04654328149725466,0.01539986222325664,0.4984038447467648,0.5110457234207312,-0.03267660983414185,-3.179279944637225e-05
56,-0.00015194763984313804,0.19077178575965947,0.14716730423467259,0.046543273613247546,0.015936987168731466,0.49792420458044157,0.5109063644482128,-0.03267347900514342,-3.2550411603724125e-05
57,-0.00015342599335337916,0.19080357393105707,0.14696813753938515,0.046543267393118315,0.016477935838917213,0.4974430061898253,0.5107668898076342,-0.032670344911280305,-3.331145174669786e-05
58,-0.00015490920816498693,0.19083545968221027,0.14676796522866392,0.04654326276085859,0.017022570251506584,0.4969602857005397,0.5106273036936549,-0.032667207748367164,-3.407587206424432e-05
59,-0.00015639658385786705,0.19086742828229714,0.146566820317433,0.0465432595943812,0.01757076156515,0.49647608571477414,0.5104876076786358,-0.03266406757560074,-3.484359293597451e-05
60,-0.00015788745315748788,0.19089946590186818,0.14636473497108143,0.04654325777088949,0.018122388133843436,0.49599045111799844,0.5103478045821846,-0.03266092446720984,-3.561451981477816e-05
61,-0.0001593811900432781,0.19093155960034197,0.14616174051383365,0.04654325717764785,0.018677334571504656,0.4955034276158688,0.5102078987190362,-0.03265777853110075,-3.638855329289274e-05
62,-0.00016087720724519347,0.1909636972280105,0.14595786737438507,0.046543257713245405,0.019235491121656612,0.49501506098284426,0.5100678955640338,-0.032654629903185454,-3.7165593160662976e-05
63,-0.00016237495208392804,0.19099586733154622,0.14575314504199793,0.04654325928666634,0.01979675316810955,0.4945253965808933,0.5099278014005433,-0.03265147873922371,-3.794554011566778e-05
64,-0.00015680395313546688,0.19128635883243678,0.14614851725457945,0.046443192638677494,0.020802489686480005,0.49644783796647685,0.5125736186650048,-0.03282481879796866,-3.872886044816387e-05
65,-0.0001583322083960866,0.19131925211037626,0.14594187727357294,0.04644319440655318,0.021369738092100885,0.4959558819735301,0.5124330025775552,-0.03282165524434183,-3.951482430480352e-05
66,-0.0001598606136993929,0.19135214640256928,0.14573446323170855,0.04644319700301125,0.02193981017676486,0.4954627517800344,0.5122922966782412,-0.03281848905382788,-4.0303365597928576e-05
67,-0.00016138886809414534,0.19138503404500892,0.14552630239914666,0.04644320046203528,0.022512617883819228,0.4949684855287172,0.5121515187556757,-0.032815320773572125,-4.109444190629999e-05
68,-0.00016291658570463836,0.19141790659059899,0.14531742004438855,0.046443204744901496,0.023088077978067157,0.4944731238864087,0.5120106791395083,-0.032812150682514474,-4.1887982473462036e-05
69,-0.0001644433718801146,0.19145075570422618,0.14510784025135393,0.04644320979725826,0.02366611073960053,0.493976706639755,0.5118697863633455,-0.0328089789966534,-4.268390608119168e-05
70,-0.00016596884200501677,0.19148357333152105,0.14489758611520553,0.04644321556448521,0.024246639616043685,0.4934792720981711,0.5117288483090929,-0.03280580591199975,-4.348213071140389e-05
71,-0.0001588382602426405,0.1917438262312215,0.1454456719481614,0.04634272702820112,0.024767912421310746,0.4957045293237732,0.5144631426727684,-0.03298476642654223,-4.428318471468494e-05
72,-0.00016039716752002178,0.1917774365561053,0.14523382124916268,0.046342732227665745,0.025353224278570438,0.4952053066047933,0.5143217059848796,-0.03298158174910503,-4.508633891732855e-05
73,-0.00016195338639358754,0.19181098797897525,0.14502135315900994,0.046342738003003384,0.02594079883786161,0.49470515213658234,0.5141802107486433,-0.0329783952038709,-4.5891541550396634e-05
74,-0.0001635067857022705,0.19184447622197232,0.14480828983143534,0.04634274442242379,0.02653057362872539,0.4942040997276781,0.5140386783473473,-0.032975207434617314,-4.669876403032996e-05
75,-0.0001650571239284939,0.19187789579052317,0.1445946512999771,0.046342751471121345,0.027122489285367094,0.4937021847803704,0.5138971210215225,-0.03297201876905207,-4.7507948723464926e-05
76,-0.0001666041349452996,0.19191124100438253,0.14438045641622785,0.04634275911379369,0.027716488425011752,0.4931994410277767,0.5137555482559164,-0.03296882944681833,-4.8319028106879104e-05
77,-0.00016814755087255114,0.19194450623084183,0.14416572310388656,0.0463427673118399,0.028312515494325653,0.49269590018325865,0.513613968235272,-0.032965639671256264,-4.9131934659203055e-05
78,-0.00015973571719190942,0.19217792232024128,0.14484532964960212,0.04624244483692222,0.028407063415504898,0.49517529388430703,0.5164129035637983,-0.03314870477670675,-4.994724626818637e-05
79,-0.0001613158953460564,0.1922120564598826,0.14462924951801917,0.046242452019360406,0.029006940999068694,0.4946703535233551,0.516270841252209,-0.03314550400018899,-5.07642391036072e-05
80,-0.00016289121438988266,0.19224608537384966,0.14441267347400957,0.046242459646183266,0.02960864670416611,0.4941646687206006,0.5161287442473222,-0.03314230194248327,-5.158287272925384e-05
81,-0.0001644616738326046,0.19228000742103085,0.14419561972213446,0.04624246780611161,0.030212137950041927,0.49365827006640006,0.5159866368223016,-0.033139099324965796,-5.240312890284792e-05
82,-0.0001660271427973859,0.19231381939983744,0.14397810424965257,0.04624247649735205,0.030817373913480044,0.4931511889964039,0.5158445327728503,-0.033135896514975796,-5.3224959741602784e-05
83,-0.0001675874534347267,0.1923475176875333,0.14376014186060376,0.04624248569436262,0.031424314553750186,0.49264345464185244,0.5157024423775336,-0.03313269377186118,-5.404830797987751e-05
84,-0.00016914242697619025,0.19238109852473562,0.1435417464758702,0.04624249536643239,0.03203292061280634,0.49213509367523345,0.5155603740997948,-0.03312949130570873,-5.4873117040371475e-05
85,-0.00015968166176337853,0.19259047906219218,0.14433434512148943,0.04614283352496681,0.03175182069065331,0.494826475686228,0.5184038973637363,-0.03331538653412123,-5.570000255025276e-05
86,-0.00016127676586096245,0.19262500492265952,0.1441147974536347,0.04614284190170876,0.0323635495956522,0.4943170118966754,0.5182613553953148,-0.03331217343779898,-5.6528248550224176e-05
87,-0.00016286532792699447,0.19265938929822246,0.1438948481500621,0.04614285065261245,0.032976767963264667,0.4938069475428615,0.5181187960099017,-0.033308959484835136,-5.7357822675169124e-05
88,-0.00016444745112016365,0.19269363265955802,0.1436745124179058,0.046142859879649493,0.03359144892991833,0.49329631117555256,0.5179762460561005,-0.033305745465060745,-5.818871365413673e-05
89,-0.00016602309184043582,0.19272773363195844,0.1434538031525871,0.04614286958862353,0.03420756627743592,0.49278513149508957,0.5178337207877373,-0.033302531782765155,-5.902088030342346e-05
90,-0.00016759215935823087,0.1927616902232429,0.1432327320511089,0.046142879759250494,0.034825093588669684,0.4922734343184882,0.517691231289001,-0.03329931871726001,-5.9854272655366485e-05
91,-0.0001575821756863256,0.1929531533169592,0.1440836174842666,0.04604495467680781,0.03431770894276129,0.49505510434272976,0.5205216687137197,-0.03348439305391783,-6.068951937650875e-05
92,-0.00015919271473164524,0.19298808585499005,0.1438615313392353,0.046044963480181784,0.034937853756631235,0.4945424979016943,0.5203787130243922,-0.033481169623300354,-6.152591639439612e-05
93,-0.0001607955673057198,0.19302285185212956,0.14363910791566561,0.046044972647748164,0.03555925400295862,0.4940293875826103,0.5202357504137982,-0.03347794559687686,-6.236343394235949e-05
94,-0.00016239090723060498,0.19305745326786083,0.14341636041784278,0.04604498228544549,0.03618189397611973,0.4935158011427335,0.5200928096964904,-0.03347472181426342,-6.320206306222978e-05
95,-0.00016397875165361907,0.19309189002524232,0.1431932996688688,0.04604499240097951,0.03680575774633065,0.49300176579553034,0.5199499073724316,-0.033471498710688254,-6.40417657584034e-05
96,-0.00016555906356349563,0.1931261612855061,0.14296993526999752,0.04604500297498542,0.037430828448035754,0.4924873053603302,0.5198070552820184,-0.03346827658407726,-6.488249621360232e-05
97,-0.00016713178203365056,0.1931602658050554,0.14274627596833442,0.04604501398106451,0.03805708852130651,0.4919724404396631,0.5196642626502206,-0.03346505566310559,-6.572421074667458e-05
98,-0.00015636659924362587,0.19333125057947007,0.14368653040207416,0.045948348964338796,0.03724116728009712,0.4949132651325397,0.5225158941642738,-0.03365147333716202,-6.65675634821427e-05
99,-0.00015798413769956346,0.19336640588201204,0.14346198025684276,0.04594835844268035,0.037869589577971687,0.49439767796237155,0.5223726410945942,-0.03364824231194059,-6.741186337574717e-05
100,-0.00015959293959845206,0.19340137167762114,0.1432371521779634,0.0459483682502929,0.038499055393745936,0.4938816774872206,0.5222293922257729,-0.03364501096371109,-6.825708674778964e-05
101,-0.00016119324273400175,0.1934361512404421,0.1430120574764072,0.045948378500368585,0.039129558851864504,0.4933652901692193,0.5220861779596488,-0.03364178017441293,-6.910322904397505e-05
102,-0.0001627851179381327,0.19347074562937333,0.14278670502483903,0.045948389204441824,0.03976109315775177,0.49284854149582463,0.5219430156883278,-0.0336385504019018,-6.995025638226101e-05
103,-0.00016436857560458637,0.19350515501862758,0.14256110246651235,0.045948400345652056,0.04039364996819798,0.4923314532010355,0.5217999177406863,-0.03363532195620816,-7.079812744700207e-05
104,-0.00015329875546324714,0.19366114213587968,0.14353823796569343,0.0458539745574182,0.0394130526640227,0.4953157535011526,0.5246187233333609,-0.03381966613742652,-7.164749731440221e-05
105,-0.00015492790759236326,0.19369662251874903,0.14331183505112388,0.04585398416574284,0.04004744085154322,0.4947980573642534,0.5244751666440873,-0.033816427674560535,-7.249768801273673e-05
106,-0.00015654757372644303,0.19373189665329482,0.1430851952410607,0.045853994110482,0.04068272033818739,0.49428000749376233,0.5243316190684416,-0.033813189012123705,-7.334867529059489e-05
107,-0.00015815804001566812,0.1937669688589825,0.14285832866237025,0.04585400450576749,0.04131889285128937,0.4937616305905838,0.5241881126951249,-0.03380995107352588,-7.420045389274461e-05
108,-0.0001597594190669155,0.19380184110225807,0.14263124293665308,0.045854015363422464,0.041955958523926896,0.4932429517167358,0.5240446660812965,-0.0338067143452814,-7.505299050702186e-05
109,-0.0001613517579049234,0.19383651435451266,0.1424039444198529,0.045854026666411626,0.04259391538824469,0.492723991712318,0.5239012923239796,-0.03380347915631127,-7.590624547027872e-05
110,-0.0001629350708910269,0.19387098899804808,0.14217643861677903,0.04585403838963503,0.04323275979123519,0.4922047676227644,0.5237580013320464,-0.03380024575204051,-7.676018248519849e-05
111,-0.0001513185983164798,0.19400912968981093,0.14322534271335585,0.04576125954045318,0.04199493620893779,0.4953097739261056,0.5265822198310935,-0.03398493115971226,-7.761547374515684e-05
112,-0.00015295067038938442,0.19404474371242986,0.1429971171623184,0.04576126961876609,0.04263532304688178,0.49479005959235184,0.5264384732183228,-0.03398168790526351,-7.847145676241424e-05
113,-0.00015457258295008876,0.19408013651522418,0.14276869239725004,0.045761280008899674,0.04327646684847728,0.49427004876167,0.5262947426420883,-0.03397844462067532,-7.932811163746785e-05
114,-0.00015618466298493103,0.19411531326345366,0.14254007735721771,0.045761290829714196,0.04391837563558284,0.4937497674388571,0.5261510612635816,-0.03397520225777556,-8.018543560109643e-05
115,-0.0001577870572570016,0.19415027665241055,0.1423112784361923,0.045761302095626184,0.04456105537572156,0.49322923968179294,0.5260074482593231,-0.033971961318734915,-8.104339764718238e-05
116,-0.00015937984287393153,0.19418502830125936,0.14208230075480488,0.04576131379137324,0.04520450953383653,0.492708485075213,0.5258639170770216,-0.03396872214115942,-8.19019607459611e-05
117,-0.0001609630612660947,0.1942195691767986,0.14185314859084996,0.04576132589318637,0.04584873954426386,0.4921875192334228,0.525720477790669,-0.03396548497451142,-8.276109158879592e-05
118,-0.00014891382033687273,0.19434129844319736,0.14296313182636813,0.045670410927173846,0.044384404455380756,0.4953899875153888,0.528540292596182,-0.03414988928612085,-8.36214714791658e-05
119,-0.00015054840944229552,0.19437703714658106,0.1427333237780788,0.04567042130220607,0.04502993837130317,0.4948686130560919,0.5283963921512361,-0.034146642206235055,-8.448245123886079e-05
120,-0.0001521722714113707,0.1944125418757328,0.14250334604098389,0.04567043197402441,0.045676119449905364,0.49434698410248573,0.52825251046483,-0.03414339516240803,-8.534401181557323e-05
121,-0.00015378577238337778,0.19444781861741114,0.14227320677188446,0.0456704430655386,0.04632296132397289,0.4938251271012556,0.5281086822549126,-0.03414014914618037,-8.6206150077839e-05
122,-0.0001553890914334482,0.19448287076099885,0.14204291150951817,0.04567045459342862,0.04697047505834489,0.493303066047056,0.5279649277327142,-0.03413690468550595,-8.706883511230292e-05
123,-0.00015698233347758578,0.19451770052749867,0.14181246448098084,0.04567046654389824,0.04761866878739172,0.4927808200735815,0.527821261034286,-0.03413366213500306,-8.793203070316521e-05
124,-0.00014489299303558235,0.19462778902549738,0.14293415704559648,0.04558227280639226,0.04606347055303804,0.4959731565093289,0.5305871473707103,-0.03431465600968187,-8.879640646606933e-05
125,-0.0001465375957605576,0.19466381702681582,0.14270310635609335,0.04558228308387791,0.046712781007268896,0.4954505502472971,0.5304430174371904,-0.034311403501507756,-8.966132625708223e-05
126,-0.00014817104463782545,0.19469960114383256,0.1424719076680656,0.04558229367807811,0.04736265386670005,0.4949277183668937,0.5302989065647692,-0.03430815103993245,-9.052676728022558e-05
127,-0.00014979373543817093,0.1947351480396971,0.1422405686288855,0.0455823047101965,0.048013107443152465,0.494404688417592,0.5301548509009494,-0.03430489965009306,-9.139272296510408e-05
128,-0.00015140587341300107,0.19477046169047735,0.14200909420524174,0.04558231619594667,0.04866415696018472,0.4938814848425814,0.5300108717489584,-0.034301649886496956,-9.225916071859456e-05
129,-0.0001530075861593174,0.1948055448225356,0.14177748800553472,0.045582328120571766,0.04931581430930583,0.4933581267878004,0.5298669840203247,-0.03429840212280598,-9.312604388316082e-05
130,-0.0001545989592525894,0.194840399372094,0.14154575274855552,0.04558234046019007,0.049968088672357566,0.4928346288436691,0.5297231987541486,-0.03429515663224707,-9.39933409425262e-05
131,-0.00014218867641756228,0.1949357205588198,0.14271862808329713,0.04549614462565911,0.0482170052085071,0.4961039035488018,0.5324779101414914,-0.03447544021232769,-9.486173124922342e-05
132,-0.00014383387588368535,0.19497182851837458,0.14248633373566594,0.04549615522512503,0.04887024920686673,0.49558010730717633,0.5323336658163759,-0.034472184925640886,-9.573059650891185e-05
133,-0.00014546757050507703,0.1950076845185234,0.14225391092252193,0.04549616612431787,0.04952398722672437,0.49505611565039953,0.5321894447417086,-0.03446892978823658,-9.65999172403926e-05
134,-0.00014709017520601192,0.1950432956285063,0.14202136664785653,0.04549617744666964,0.050178240746103726,0.4945319556675897,0.5320452834789178,-0.03446567583614049,-9.746968819473407e-05
135,-0.0001487019115247309,0.19507866617925915,0.1417887052237751,0.04549618920933417,0.05083302792804791,0.4940076511958794,0.5319012035625698,-0.034462423629677934,-9.833987797652252e-05
136,-0.00015030292157179777,0.19511379921481653,0.14155592960572902,0.0454962013986969,0.05148836340835946,0.4934832206648791,0.5317572200217103,-0.03445917354541009,-9.921045132456745e-05
137,-0.00015189330408793902,0.1951486969594594,0.1413230418677264,0.04549621399183274,0.052144258945242127,0.49295867787491954,0.5316133439328441,-0.034455925857468095,-0.00010008137831112915
138,-0.0001392382397094336,0.1952302979165892,0.14253937529988692,0.04541213627417783,0.05021999049163,0.49628855482729883,0.5343504929540294,-0.034635094475635085,-0.0001009533406112417
139,-0.00014088446984002884,0.19526649453268907,0.14230596412323698,0.045412147075267716,0.05087672632775391,0.49576375070525436,0.5342061521822784,-0.03463183689991358,-0.0001018257341650034
140,-0.00014251887316391303,0.19530243170963968,0.14207243982036988,0.04541215816464465,0.05153389728016667,0.4952387717287352,0.5340618349226438,-0.0346285794795861,-0.00010269853907268604
141,-0.0001441418877710758,0.1953381170144821,0.14183880905562693,0.04541216966815142,0.05219152807648994,0.49471364572449106,0.5339175788619354,-0.03462532327871129,-0.00010357174852167336
142,-0.0001457537543280785,0.19537355519578933,0.1416050757459677,0.04541218160457788,0.05284963978001973,0.4941883968584769,0.5337734063297171,-0.03462206887727184,-0.00010444533014181683
143,-0.00014735463121161828,0.19540874965393634,0.14137124241687582,0.045412193961511124,0.05350824964680869,0.4936630435894296,0.5336293329086553,-0.03461881666549239,-0.00010531924837485138
144,-0.00014894463122619352,0.19544370292166127,0.14113731069169547,0.04541220671691053,0.05416737182808483,0.4931375995309427,0.5334853700494545,-0.03461556692673355,-0.00010619347352351665
145,-0.0001361070529879568,0.19551248668540658,0.14239059023976344,0.04533033171977594,0.052089299589627984,0.4965144879817722,0.5361998951368592,-0.03479330049395606,-0.00010706868680220777
146,-0.00013775462159415323,0.1955487776442363,0.14215616543208662,0.045330342651234465,0.05274915290217581,0.4959888099611953,0.5360554618849187,-0.03479004076464605,-0.00010794429812801511
147,-0.0001393900887556197,0.1955848026805515,0.14192164007964206,0.0453303538651443,0.05340939193381405,0.4954629732966858,0.5359110517612505,-0.03478678118129724,-0.00010882028652918779
148,-0.00014101391279361646,0.19562056980433085,0.14168702060023033,0.04533036548889925,0.05407004425087137,0.4949370066750531,0.5357667035267204,-0.03478352283437366,-0.00010969664314394077
149,-0.00014262635117842214,0.195656084135542,0.14145231061070732,0.04533037754240123,0.054731133426451535,0.49441093471048714,0.5356224402905083,-0.03478026632305999,-0.00011057333427430981
150,-0.00014422757651156876,0.19569134938927238,0.1412175123005081,0.04533039001403734,0.05539267896765416,0.49388477601468206,0.5354782781872643,-0.034777012051191956,-0.00011145032375545613
151,-0.00014581771380290168,0.19572636836845758,0.1409826269341943,0.04533040288231152,0.05605469706905174,0.4933585441418622,0.5353342290478241,-0.03477376031150724,-0.00011232758182202438
152,-0.00013284866531272296,0.19578312476020135,0.14226736692821146,0.04525078597742071,0.05383939779921648,0.49677117525462966,0.5380221796252591,-0.034949809131973375,-0.00011320578762045594
153,-0.00013449784439512058,0.19581951476688841,0.1420320148371241,0.04525079700311851,0.05450205495042806,0.49624473063141983,0.5378776554580549,-0.03494654731801265,-0.00011408436517023707
154,-0.00013613468856392766,0.19585563324740118,0.14179657265293355,0.04525080830841865,0.05516505634553028,0.4957181405780557,0.5377331538854686,-0.03494328563720474,-0.00011496329225705394
155,-0.00013775967314840886,0.19589148859156896,0.14156104659961244,0.04525082002159545,0.055828431988201206,0.4951914346149003,0.5375887146091823,-0.03494002520283939,-0.00011584255786119096
156,-0.00013937306991229116,0.19592708623931243,0.14132544005368833,0.04525083216328952,0.05649220759417622,0.49466463780654246,0.5374443614363285,-0.03493676663122551,-0.00011672212688677387
157,-0.00014097506356660489,0.19596243017626588,0.141089754931564,0.045250844722431106,0.05715640458479733,0.49413776894663886,0.5373001110000893,-0.03493351033847977,-0.00011760196247497102
158,-0.00014256578948378725,0.19599752343679214,0.1408539922035129,0.04525085767787294,0.05782104088685056,0.49361084157937746,0.5371559754769972,-0.03493025662586706,-0.00011848203467432268
159,-0.0001295070971460482,0.19604295057131066,0.1421655718389743,0.04517353017810181,0.055482718007781574,0.49704989378659353,0.5398143198259145,-0.03510442914934991,-0.00011936301938668749
160,-0.0001311581268430206,0.1960794435213315,0.14192936554959132,0.045173541280709925,0.05614791523541584,0.4965227702262769,0.5396697057232984,-0.035101165299251266,-0.00012024435480784577
161,-0.00013279662181600333,0.19611566006940637,0.14169307791614316,0.04517355266142823,0.056813421676065526,0.4959955121301604,0.5395251136324242,-0.0350979015685412,-0.00012112601741050082
162,-0.00013442307165577923,0.1961516089306016,0.14145671500701915,0.04517356444895326,0.057479269432566704,0.49546814980530607,0.539380584070267,-0.03509463909000571,-0.00012200799399062909
163,-0.0001360377602874184,0.1961872958204841,0.14122028000341894,0.04517357666443967,0.05814548605633879,0.49494070874945345,0.5392361414622359,-0.035091378495062095,-0.00012289024804466392
164,-0.0001376408827486143,0.19622272495751297,0.14098377459713846,0.04517358929722587,0.05881209460322458,0.49441320794737786,0.5390918028864986,-0.03508812021077773,-0.00012377274198437414
165,-0.0001392325832348983,0.1962578995746531,0.14074719951439274,0.04517360232642359,0.059479114475211016,0.4938856609623234,0.5389475808296599,-0.035084864546065415,-0.00012465544560357072
166,-0.00012611846385180998,0.1962926202075223,0.14208172602881222,0.04509857581591043,0.05702996280796539,0.4973434424339497,0.5415740445358853,-0.03525701712736548,-0.00012553903065892877
167,-0.00012777154971982483,0.19632921917961163,0.14184472795452613,0.045098586987485964,0.057697476854343205,0.49681571217099685,0.5414293412959262,-0.035253751280195804,-0.00012642294950618703
168,-0.0001294119284691985,0.1963655374729199,0.14160765591136049,0.04509859843620666,0.058365270322129174,0.4962878564251092,0.5412846594714064,-0.0352504855385253,-0.000127307177272275
169,-0.0001310401016832623,0.1964015840821315,0.14137051584152333,0.04509861029087375,0.05903337713358355,0.49575990624174227,0.5411400402862553,-0.03524722105178024,-0.00012819169857485838
170,-0.00013265636368754719,0.19643736496150008,0.14113331076613567,0.04509862257301951,0.0597018264229243,0.49523188753024433,0.5409955087143009,-0.03524395846472361,-0.00012907647551513426
171,-0.00013426091837866368,0.19647288453095826,0.14089604219071528,0.045098635272322156,0.06037064265073981,0.4947038194682871,0.5408510822312602,-0.03524069821419595,-0.00012996146976167086
172,-0.0001358539175129788,0.1965081461949058,0.14065871063744384,0.04509864836811745,0.06103984648367757,0.4941757156575109,0.5407067736018929,-0.03523744061597019,-0.00013084665080906647
173,-0.00012271228670876228,0.19653272045415643,0.14201290382139004,0.045025918341184634,0.058490360990576605,0.4976458971525272,0.5432997049885784,-0.03540746899448857,-0.00013173268558137684
174,-0.00012436759908730256,0.19656942772596941,0.14177516772044432,0.04502592957830208,0.05916000154385057,0.49711762010569155,0.5431549133803326,-0.035404201184496775,-0.0001326190404997542
175,-0.00012601005439314902,0.19660585053691873,0.14153736391171295,0.04502594109173414,0.05982989600098536,0.49658922515503456,0.5430101425970106,-0.035400933466419995,-0.00013350568933460732
176,-0.00012764016433136887,0.19664199812333205,0.14129949823414475,0.04502595301015969,0.06050007987217595,0.49606074403804284,0.5428654344772417,-0.03539766700390645,-0.00013439261455009077
177,-0.00012925823217391393,0.196677876647388,0.1410615735766836,0.04502596535540149,0.061170583665876,0.4955322030530871,0.5427208144829886,-0.035394402453547164,-0.00013527977687656382
178,-0.00013086446946659457,0.1967134907044682,0.14082359128917127,0.04502597811744256,0.061841433058415766,0.4950036215684419,0.5425763004462596,-0.035391140260932354,-0.00013616713723822182
179,-0.00013245903448938154,0.19674884384792754,0.1405855517218915,0.04502599127583313,0.06251264980826969,0.4944750132370843,0.5424319053819923,-0.035387880748004565,-0.00013705466480160364
180,-0.00011931257913850614,0.19676377927484445,0.14195664655449747,0.04495554019376461,0.05987188673811986,0.4979524037438057,0.5449901635904081,-0.03555571296392998,-0.00013794302114191235
181,-0.00012097025450646254,0.1968005963696427,0.14171821912576313,0.04495555149506966,0.06054349038702602,0.49742362994412787,0.5448452844325323,-0.03555244322320349,-0.00013883168658884463
182,-0.00012261494132508304,0.19683712563246014,0.1414797293429575,0.044955563071820526,0.06121532592351725,0.4968947446343121,0.544700425526371,-0.035549173561361044,-0.00013972063356043697
183,-0.00012424715987521557,0.1968733765096013,0.14124118295975047,0.04495557505240731,0.06188743025344887,0.4963657802003567,0.5445556292468691,-0.0355459051542302,-0.00014060984240433884
184,-0.0001258672211702132,0.19690935534549875,0.14100258275511324,0.044955587458884144,0.06255983508685926,0.49583676330723836,0.5444109214922225,-0.035542638668926464,-0.00014149927251155424
185,-0.00012747534340358784,0.19694506688931404,0.1407639299477726,0.04495560028152005,0.06323256715974217,0.4953077135090549,0.5442663204149567,-0.035539374558902846,-0.00014238888406882915
186,-0.00012907169052236468,0.19698051482469286,0.14052522474204787,0.0449556135000807,0.0639056491799572,0.494778644518534,0.5441218392557715,-0.03553611315166881,-0.00014327864589670802
187,-0.00011593875218996255,0.1969862743747126,0.1419108893652147,0.04488741335598378,0.06118144676076306,0.4982590029918593,0.5466447011987509,-0.035701703658040304,-0.00014416921384390025
188,-0.00011759889570509344,0.19702320212730995,0.14167181151826733,0.044887424720981395,0.06185487215392588,0.4977297744968754,0.5464997354008344,-0.03569843201812181,-0.00014506008194322312
189,-0.00011924593449775742,0.19705983902020768,0.141432675928723,0.04488743636045227,0.06252851029932237,0.4972004399274314,0.546354789305437,-0.03569516044474489,-0.00014595122127478461
190,-0.00012088039614396688,0.19709619468320974,0.14119348827914846,0.04488744840237406,0.06320239933806834,0.4966710322776652,0.5462099057572305,-0.03569189012419236,-0.00014684261011467035
191,-0.0001225025983958468,0.19713227562150573,0.1409542512562971,0.04488746086898991,0.06387657203824884,0.49614157855755303,0.5460651110459487,-0.035688621732984385,-0.00014773420655007352
192,-0.00012411276526166307,0.19716808671992392,0.14071496596758845,0.04488747375084357,0.06455105606607268,0.49561209850076016,0.5459204236136218,-0.03568535573166839,-0.00014862597004240425
193,-0.00012571106564464307,0.19720363177684194,0.14047563249240666,0.044887487027920614,0.06522587496087479,0.4950826058849448,0.5457758569054263,-0.03568209245279531,-0.00014951786905600318
194,-0.00011260637141207591,0.1972006402573406,0.14187389914923773,0.04482150149591222,0.0624250397621092,0.4985624833815021,0.5482629399390225,-0.035845417223141676,-0.00015041055344783137
195,-0.00011426906002918666,0.197237678889189,0.14163420701924284,0.04482151292437716,0.0631001637205551,0.4980328357914953,0.5481178885197948,-0.035842143715974495,-0.00015130353071112884
196,-0.00011591854049856735,0.19727442392231648,0.14139446114825893,0.04482152462622428,0.06377548367725352,0.49750308678478805,0.5479728562813934,-0.03583887026375597,-0.00015219677060954515
197,-0.0001175553466280406,0.19731088514782225,0.14115466715898656,0.04482153672892657,0.06445103887415395,0.4969732699264865,0.5478278864816222,-0.03583559806176913,-0.00015309024939748903
198,-0.00011917980207111229,0.1973470692135839,0.14091482766022706,0.04482154925488439,0.06512686301751305,0.4964434125511287,0.5476830057632238,-0.035832327794975936,-0.00015398392389593364
199,-0.0001207921359549554,0.19738298112489366,0.1406749436641446,0.04482156219490826,0.06580298459590408,0.49591353456489906,0.5475382328308286,-0.03582905993035206,-0.00015487775285627508
200,-0.00012239252154619927,0.19741862478183514,0.14043501514232637,0.044821575529208416,0.06647942788208616,0.4953836498132664,0.5473935813155315,-0.03582579480503178,-0.00015577170438190144
201,-0.00010932779074648586,0.19740727408067182,0.14184422206331346,0.04475776176244221,0.06360789208533209,0.4988602572010313,0.5498447790061665,-0.035986847270227044,-0.00015666642216390853
202,-0.00011099307652796472,0.1974444232772198,0.1416039478250495,0.04475777325414262,0.06428460647036402,0.4983302208643709,0.549699643096939,-0.035983571928651766,-0.00015756142688511926
203,-0.00011264506141623644,0.19748127638025748,0.1413636233440028,0.044757785018023584,0.0649615020774344,0.49780008713396756,0.5495545258756885,-0.03598029663119413,-0.0001584566870188493
204,-0.00011428428456605223,0.19751784332350197,0.14112325419196542,0.04475779718098511,0.06563861913612622,0.497269890111838,0.5494094709652088,-0.0359770225809092,-0.00015935217685053853
205,-0.00011591107483028586,0.19755413088227036,0.1408828429113067,0.04475780976556008,0.06631599219028368,0.49673965743799375,0.549264505327987,-0.035973750470371754,-0.00016024785197321588
206,-0.00011752566587117097,0.19759014416950615,0.14064239043201066,0.0447578227628192,0.06699365046056381,0.49620940918375933,0.54911964790788,-0.03597048077240734,-0.00016114367044542946
207,-0.00011912823482211708,0.19762588717604396,0.140401896631906,0.044757836153201,0.06767161887122514,0.4956791592636747,0.5489749125057091,-0.03596721382833377,-0.0001620396000087024
208,-0.00010611268425800638,0.19760654054576873,0.14182063915879256,0.04469614628530678,0.06473457292187716,0.49915025643127847,0.5513903413113055,-0.03612600150436391,-0.0001629362780879814
209,-0.00010778059764120045,0.1976437995317515,0.14157981168205303,0.044696157839884745,0.06541278210313776,0.49861985740589987,0.5512451221502671,-0.03612272436231906,-0.00016383323826406375
210,-0.000109435126384466,0.19768076013737473,0.14133893704324774,0.044696169665348125,0.06609115938082555,0.4980893644890801,0.551099921213141,-0.03611944725430418,-0.00016473044774897614
211,-0.00011107681425147429,0.1977174324232109,0.14109802077044656,0.044696181887974265,0.06676974587635706,0.49755881228863275,0.5509547824467096,-0.03611617139010936,-0.00016562787891320885
212,-0.00011270599470373892,0.19775382327909635,0.14085706534893794,0.044696194530408864,0.06744857688635467,0.4970282287323672,0.5508097331044279,-0.03611289746920702,-0.00016652548615990627
213,-0.00011432290544656672,0.19778993791477842,0.14061607163723278,0.044696207583976605,0.06812768228761673,0.49649763404934477,0.550664792349036,-0.03610962596976957,-0.00016742322687284062
214,-0.00011592772706215965,0.19782578040258877,0.14037503943096258,0.04469622102934644,0.06880708758711354,0.49596704222331023,0.5505199741369322,-0.03610635723694901,-0.00016832106843341828
215,-0.00010296849271717451,0.19779877600029427,0.14180212892955268,0.04463660342543599,0.06580909203725588,0.49943084535054233,0.552899929185674,-0.03626289892847817,-0.00016921964195986742
216,-0.0001046390456019633,0.19783614361038016,0.1415607743088809,0.044636615042366046,0.06648871083909527,0.49890010617355374,0.552754628106881,-0.03625962002101144,-0.00017011849362451464
217,-0.0001062961377266752,0.19787321073145764,0.14131937525893384,0.0446366269288124,0.06716848599626674,0.49836927617814536,0.5526093448157854,-0.036256341138193246,-0.00017101758940880392
218,-0.00010794031684702686,0.1979099875376049,0.14107793726986118,0.04463663921039474,0.06784845944052771,0.49783839044954364,0.5524641235481854,-0.03625306349567247,-0.000171916899822544
219,-0.00010957192053420977,0.19794648102218296,0.14083646277750328,0.04463665190985559,0.06852866714940856,0.4973074771870809,0.5523189918235469,-0.036249787799200926,-0.00017281637811624907
220,-0.00011119119012017488,0.19798269648251823,0.14059495257771348,0.044636665018767396,0.06920913959164429,0.4967765567703232,0.5521739690057457,-0.03624651453185932,-0.00017371598101726085
221,-0.00011279830928242855,0.19801863806458458,0.14035340639350027,0.0446366785180301,0.06988990279886587,0.4962456432515836,0.5520290691943702,-0.03624324404232794,-0.00017461567555043334
222,-9.990079900839936e-05,0.1979842918996758,0.14178783572925652,0.04457907881431139,0.06683498258050047,0.49970074724231184,0.5543739876474014,-0.03639756752616582,-0.0001755160865348664
223,-0.00010157398759205218,0.1980217666430895,0.14154597771380115,0.04457909049289693,0.06751593461067214,0.49916968754815955,0.5542286060670638,-0.03639428688932995,-0.00017641677241790688
224,-0.000103233645797513,0.19805893894257598,0.1413040777104483,0.04457910243957474,0.06819703242246164,0.498638539752748,0.5540832418646098,-0.03639100626842021,-0.0001773176979818726
225,-0.00010488032485576372,0.19809581907437232,0.141062141176145,0.04457911477928347,0.06887831868827514,0.4981073393928287,0.5539379395349653,-0.036387726884203296,-0.00017821883192966657
226,-0.00010651436602450524,0.19813241412596597,0.14082017050354895,0.04457912753484931,0.06955983000532717,0.4975761149243238,0.5537927268419017,-0.03638444944817437,-0.00017912012639525855
227,-0.00010813601390828251,0.1981687294743801,0.1405781664331558,0.0445791406980861,0.07024159737972399,0.49704488687036164,0.5536476233349034,-0.03638117444793906,-0.00018002153746775887
228,-0.00010974545497958663,0.19820476933253087,0.1403361286233244,0.04457915425012389,0.07092364731850911,0.49651366935067326,0.5535026432458771,-0.03637790223543745,-0.00018092303182023957
229,-9.69136438936178e-05,0.19816337773942388,0.14177704316293907,0.044523516215158765,0.06781537119596823,0.49995898298659525,0.555813073981621,-0.03653004234395801,-0.00018182522801896063
230,-9.858945122092483e-05,0.19820095785795727,0.1415347035066622,0.04452352795454597,0.06849758748086787,0.4994276200053201,0.5556676133834051,-0.03652676001464203,-0.0001827276964635437
231,-0.00010025166412879361,0.19823823371115956,0.1412923240585209,0.044523539960563706,0.06917993996326811,0.49889617134330067,0.5555221697779449,-0.03652347769313721,-0.00018363040076873266
232,-0.0001019008368895102,0.19827521566774314,0.1410499102461242,0.04452355235745554,0.06986247199629501,0.4983646729651846,0.555376787893693,-0.036520196604700635,-0.00018453330788330494
233,-0.00010353731408694646,0.19831191090125183,0.14080746442412018,0.04452356516812041,0.07054522074441061,0.497833153569807,0.5552314957197868,-0.0365169174661047,-0.00018543636885939545
234,-0.00010516134329580356,0.1983483248616359,0.1405649872837267,0.044523578384606965,0.07122821770446831,0.4973016338172714,0.5550863129776903,-0.036513640769143686,-0.00018633953916566374
235,-0.00010677311352709235,0.1983844618230106,0.14032247842533288,0.04452359198827327,0.07191148981691725,0.49677012789324526,0.5549412540220593,-0.036510366868781105,-0.00018724278512894093
236,-9.400979168743863e-05,0.19833630354950066,0.14176915168834173,0.044469858233838484,0.06875303734743397,0.5002048196536993,0.5572178325889492,-0.03666036390660457,-0.00018814671913987177
237,-9.568818990977196e-05,0.19837398706883658,0.14152635043650205,0.04446987003303734,0.0694364552138664,0.49967316861394706,0.5570722945094017,-0.03665707992233457,-0.00018905092322443528
238,-9.735293448429484e-05,0.19841136461818273,0.14128351138116715,0.04446988209738233,0.07012000053722461,0.4991414340652607,0.5569267730603504,-0.03665379593831586,-0.00018995535986098767
239,-9.900458235921703e-05,0.19844844665043007,0.14104063992379745,0.04446989455041524,0.07080371729952911,0.49860965237858534,0.5567813131817881,-0.0366505131837639,-0.0001908599942956337
240,-0.00010064348113644067,0.19848524041821303,0.14079773838532902,0.0444699074150986,0.07148764318732838,0.49807785248314856,0.5566359430716306,-0.03664723238032156,-0.0001917647765319004
241,-0.00010226988110120273,0.19852175143856712,0.140554807412796,0.044469920683709155,0.07217181014816243,0.49754605516982686,0.5564906826113164,-0.03664395402367577,-0.00019266966143519716
242,-0.00010388397358294596,0.1985579840418567,0.1403118465542478,0.044469934337829864,0.07285624551985506,0.4970142746885412,0.5563455462697986,-0.036640678471604696,-0.00019357461499211636
243,-9.119095379589263e-05,0.1985033220241758,0.14176365977531036,0.04441804690305067,0.06965046349270285,0.5004377275085081,0.5585889742283928,-0.03678857690989716,-0.00019448024351947314
244,-9.287190614858457e-05,0.19854110679876538,0.1415204154997909,0.044418058760957925,0.07033502564851052,0.4999058019646386,0.5584433602431598,-0.03678529130862885,-0.00019538614034295932
245,-9.453914980462382e-05,0.1985785840014836,0.14127713523240612,0.04441807088251701,0.07101970724381627,0.4993737948739023,0.5582977625472191,-0.03678200570055635,-0.0001962922668350451
246,-9.619324407973348e-05,0.1986157641622587,0.14103382435112188,0.044418083390567124,0.07170455284445718,0.49884174299375833,0.5581522262731633,-0.036778721318401625,-0.00019719858658907887
247,-9.78345393290829e-05,0.19865265460677428,0.1407904851467534,0.04441809630812668,0.07238960061995046,0.49830967547235866,0.5580067798131016,-0.03677543888832162,-0.0001981050485916946
248,-9.946328832450939e-05,0.19868926091408115,0.14054711822644644,0.04441810962769366,0.07307488293390471,0.4977776132255414,0.5578614431978302,-0.03677215890963435,-0.00019901160712157827
249,-0.00010107968452403426,0.19872558746650426,0.14030372309068614,0.044418123331071986,0.0737604274904358,0.4972455705656874,0.5577162310031066,-0.036768881742747554,-0.00019991822783132818
250,-8.8457976759518e-05,0.19866467034715712,0.14176014806893367,0.044368024159866716,0.0705098775095547,0.5006573440800858,0.5599272589238098,-0.036914729144696914,-0.0002008255110850428
251,-9.014143927583464e-05,0.19870255409908008,0.14151647806236525,0.044368036075288136,0.0711955312851359,0.5001251561786004,0.5597815706350303,-0.0369114419646141,-0.00020173306118269568
252,-9.18111416992242e-05,0.19874012876834177,0.14127277372428887,0.04436804825286786,0.07188129710635052,0.4995928885143609,0.5596358983136522,-0.03690815477112834,-0.00020264083842047578
253,-9.346764545176481e-05,0.19877740495573323,0.1410290404114017,0.044368060814746334,0.07256722008341132,0.49906057821317285,0.5594902872684973,-0.03690486880008343,-0.0002035488047872322
254,-9.511130341340133e-05,0.19881439005471865,0.14078528038741916,0.044368073783991276,0.07325333883472308,0.498528254631595,0.559344766072988,-0.03690158478183687,-0.0002044569082829251
255,-9.674237064837173e-05,0.19885108970194135,0.14054149422324277,0.044368087153314986,0.07393968610987278,0.49799593880499715,0.5591993548978476,-0.036898303219105616,-0.00020536510261532913
256,-9.836104257860204e-05,0.1988875083279502,0.14029768137586823,0.0443681009047378,0.07462628995229711,0.4974636451063785,0.5590540684189702,-0.0368950244747622,-0.00020627335310938516
257,-8.581100036317724e-05,0.1988205717610093,0.1417582660857735,0.044319732233537794,0.0713332885675922,0.5008634441614939,0.5612334819227809,-0.03703887061346769,-0.00020718225431261
258,-8.749692334797908e-05,0.19885855211333936,0.1415141865223597,0.04431974420520862,0.07201998528796899,0.500331004858794,0.5610877209478345,-0.03703558189279508,-0.00020809142117657784
259,-8.916903805591351e-05,0.19889622195349232,0.1412700741575671,0.04431975643755379,0.07270678720102083,0.49979848742553334,0.560941975636079,-0.03703229315253355,-0.00020900081294976435
260,-9.082790779366048e-05,0.19893359194775667,0.14102593432870603,0.04431976905202246,0.07339373992662072,0.49926592933913394,0.5607962914583606,-0.037029005631320465,-0.00020991039006306345
261,-9.247388776773176e-05,0.19897066955275775,0.1407817692749497,0.04431978207172607,0.07408088250219111,0.49873336015489594,0.5606506971579885,-0.037025720063436816,-0.0002108200995585309
262,-9.410723516547516e-05,0.19900746045885148,0.14053757953406693,0.0443197954895843,0.0747682480369872,0.4982008010226539,0.5605052130371999,-0.037022436954791564,-0.0002117298945881189
263,-9.572814722912798e-05,0.19904396914153638,0.1402933645230655,0.04431980928782882,0.07545586489022281,0.4976682663741791,0.560359853866065,-0.037019156670574725,-0.00021263974015543294
264,-9.733677901440762e-05,0.1990801991739281,0.1400491228826783,0.04431982344423254,0.07614375769015093,0.4971357655779801,0.5602146304304674,-0.03701587947671807,-0.0002135496123172852
265,-8.456685495349114e-05,0.19900412582699467,0.14155625222532917,0.044272412675569944,0.07269520213420182,0.5006142090691483,0.5624055738774509,-0.0371604473227867,-0.00021446011961378893
266,-8.624544124000329e-05,0.199041979677019,0.14131174206849223,0.04427242495604014,0.0733831991287884,0.5000815623417711,0.5622598727133438,-0.037157160125443636,-0.00021537089102582706
267,-8.791020668903402e-05,0.1990795225586071,0.14106719803476964,0.04427243746951228,0.07407130631212983,0.49954883630055896,0.5621141872103237,-0.037153872906298076,-0.00021628188873280845
268,-8.956171519581418e-05,0.19911676512602774,0.14082262550523794,0.0442724503408799,0.07475956908323055,0.4990160684037964,0.5619685628798331,-0.03715058690610581,-0.00021719307378283403
269,-9.120032135823304e-05,0.1991537148142032,0.14057802675642206,0.0442724635956244,0.0754480262840457,0.4984832882388436,0.561823028451982,-0.03714730285904097,-0.00021810439317995818
270,-9.282628158039947e-05,0.19919037729120315,0.1403334023636576,0.044272477228685346,0.07613671084179642,0.4979505170023477,0.5616776042137295,-0.03714402127066861,-0.00021901579989557925
271,-9.443979234505934e-05,0.19922675701117293,0.14008875178226507,0.04427249122412184,0.07682565094393429,0.4974177691791961,0.5615323049251226,-0.03714074250593292,-0.0002199272587433109
272,-8.179685853040419e-05,0.1991456246500492,0.141591893440934,0.04422686163693278,0.07335845763528255,0.5008679699601578,0.5636855644884702,-0.03728292587208718,-0.00022083936200160324
273,-8.347989956401965e-05,0.19918361885199984,0.14134698277807395,0.044226873794667464,0.07404746598265899,0.5003350620468316,0.563539778170941,-0.037279636861580506,-0.00022175174273391903
274,-8.514902181597402e-05,0.19922129948686151,0.1411020400585555,0.04422688619656806,0.07473657003811297,0.4998020728702742,0.5633940034934357,-0.037276347731852254,-0.00022266435723156472
275,-8.680480094799912e-05,0.19925867750028917,0.1408570708382616,0.04422689896665195,0.07542581669431095,0.49926904157423746,0.5632482871194286,-0.03727305975054672,-0.00022357716153745028
276,-8.844760165434111e-05,0.19929576056633494,0.14061207750563015,0.04422691213016928,0.07611524598275596,0.4987359989171474,0.5631026587032444,-0.037269773674321285,-0.00022449009924445658
277,-9.00776884487451e-05,0.19933255454293863,0.1403670606948044,0.04422692568181912,0.07680489180212982,0.4982029669201723,0.5629571392283086,-0.03726649002587563,-0.0002254031209933247
278,-9.169526423585903e-05,0.19936906403490431,0.14012201987981082,0.044226939605288805,0.07749478314764864,0.49766996064264185,0.5628117439695715,-0.037263209182862446,-0.00022631618998413588
279,-7.91676721461354e-05,0.19928298048509188,0.1416222020202768,0.044183003575916126,0.07400717297727685,0.5010947552791639,0.5649295076623986,-0.03740314706977043,-0.0002272298906912528
280,-8.08545504250649e-05,0.19932109950126523,0.1413769111046517,0.04418301569779006,0.07469711143437507,0.5005615908546768,0.5647836286335539,-0.0373998560504331,-0.00022814386568367423
281,-8.252745941162137e-05,0.19935890343885987,0.14113159036384376,0.044183028071728775,0.0753871365089495,0.5000283480157541,0.5646377612933003,-0.03739656491483924,-0.00022905806992303928
282,-8.41869761540031e-05,0.19939640330671143,0.14088624529712115,0.04418304081989513,0.07607729566957809,0.4994950661781672,0.5644919524039697,-0.03739327493160407,-0.00022997245788611772
283,-8.583346754356246e-05,0.19943360684412206,0.1406408782360985,0.04418305396670555,0.07676762943313103,0.4989617762230392,0.5643462317512468,-0.037389986860300255,-0.0002308869723019865
284,-8.746720021920486e-05,0.19947051996655457,0.1403954897522243,0.0441830675063176,0.077458172125465,0.49842850021853785,0.5642006204212116,-0.03738670122609438,-0.00023180156336897152
285,-8.90883789735385e-05,0.19950714732851205,0.1401500792520067,0.04418308142196626,0.07814895312560532,0.49789525322314454,0.5640551337598352,-0.0373834184083813,-0.00023271619407420123
286,-4.52616962189744e-05,0.199417369375955,0.14163093040390018,0.04398302908398573,0.07467982635130324,0.5012575419513028,0.566116059727166,-0.03751954640792625,-0.00023363143391566177
287,-4.6945047837235535e-05,0.19945558171218042,0.14138528093322722,0.04398304124578697,0.07537064281024852,0.5007241417167642,0.5659701011383071,-0.03751625367380021,-0.00023454694091834427
288,-4.861445734282224e-05,0.19949347809599283,0.14113960354987998,0.043983053663315765,0.07606154089032373,0.5001906670731034,0.5658241559855921,-0.03751296086963766,-0.00023546267001622897
289,-5.027049541975366e-05,0.19953106948096003,0.1408939036051851,0.043983066455845966,0.07675256818634602,0.4996571571862762,0.5656782705965956,-0.037509669250779885,-0.00023637857501075083
290,-5.191352602826327e-05,0.19956836358779773,0.14064818331912243,0.043983079646822465,0.07744376533191794,0.49912364265177317,0.5655324745368936,-0.037506379570804764,-0.00023729459862077237
291,-5.35438141593611e-05,0.1996053663258081,0.14040244316731335,0.04398309323001215,0.07813516678059841,0.49859014528410933,0.5653867887428724,-0.03750309235106474,-0.0002382106913092887
292,-5.5161563598312736e-05,0.1996420823495993,0.14015668247056123,0.04398310718845684,0.0788268020498049,0.49805667992485103,0.5652412284462703,-0.03749980796811008,-0.00023912681638737417
293,-5.67669348497217e-05,0.1996785153799649,0.13991089974921533,0.04398312150059777,0.07951869678313858,0.49752325617014165,0.5650958047603681,-0.037496526695957835,-0.0002400429488700226
294,-5.8360056176601054e-05,0.19971466842670016,0.13966509297053478,0.04398313614282553,0.08021087357577364,0.49698987973429987,0.564950525752548,-0.037493248733210374,-0.00024095907300659804
295,0.00012423399314472495,0.1996183692128884,0.14115604726499872,0.043089464818455075,0.0766613051383307,0.5003421416971473,0.5669633740545698,-0.03762537698232691,-0.0002418757531211195
296,0.00012260419363791138,0.19965612975364244,0.1409099974608424,0.043089477614953506,0.07735357907768159,0.4998086184886106,0.5668176471448901,-0.03762208970063448,-0.00024279268803952412
297,0.0001209879654043497,0.19969357660200365,0.14066391572017464,0.04308949061761836,0.07804596166376372,0.4992750210868609,0.5666719393572964,-0.037618802490134745,-0.00024370984219908577
298,0.00011938476761241823,0.19973072025383595,0.14041780718782407,0.0430895039469651,0.07873849831791101,0.4987413867894526,0.5665262951971478,-0.03761551655943244,-0.00024462717384548106
299,0.00011779425813961478,0.19976756807781718,0.140171673996204,0.043089517629016104,0.07943122785197233,0.4982077448359928,0.5663807429593344,-0.037612232630316336,-0.00024554462879175146
300,0.00011621618887719051,0.19980412570268152,0.13992551661068373,0.043089531660586294,0.08012418318059732,0.49767411610318996,0.5662353026615301,-0.037608951201335644,-0.0002464621597348882
301,0.00011465036943621859,0.19984039755515398,0.1396793343957592,0.043089546027889516,0.0808173925028549,0.49714051481140165,0.5660899888677439,-0.037605672632505444,-0.0002473797315372202
302,0.00038948782212976096,0.1997434629243658,0.1411098412619592,0.041734274050156034,0.07738636096494966,0.5003385842739743,0.5679949799333416,-0.037730341843438514,-0.000248297859560715
303,0.0003879077606306989,0.1997812609634841,0.14086342867744525,0.04173428669264786,0.07807963743576757,0.49980481800354415,0.5678492235824774,-0.03772705400198759,-0.0002492162579778549
304,0.0003863409237432093,0.19981874324346943,0.14061698573723988,0.041734299560168824,0.07877301141730933,0.4992709759642737,0.567703483729,-0.03772376617311133,-0.00025013488428838644
305,0.0003847867808013253,0.1998559204374995,0.1403705176747844,0.04173431276838068,0.07946652953627875,0.4987370969381713,0.5675578054570437,-0.03772047957461563,-0.0002510536908565563
306,0.00038324499331458123,0.1998928000896098,0.14012402669883678,0.04173432634173437,0.08016023152656322,0.49820321110358406,0.5674122177113926,-0.03771719494323932,-0.00025197262010751535
307,0.00038171531509137435,0.1999293879729261,0.1398775133177592,0.04173434027620802,0.08085415104802156,0.4976693399815291,0.5672667410324538,-0.03771391279021433,-0.00025289162269092073
308,0.0003801975571011513,0.19996568862945288,0.13963097691006568,0.041734354557289396,0.08154831691744793,0.49713549823929554,0.5671213903772291,-0.037710633485213606,-0.00025381066213042
309,0.000378691570746075,0.20000170568413086,0.13938441607000182,0.04173436916583031,0.08224275415321915,0.49660169539134574,0.566976176665473,-0.03770735729744098,-0.00025472971355654125
310,0.0007523434801040493,0.1999006761702554,0.14079962138650975,0.03988590740541787,0.07880915057951578,0.49974153026414925,0.5688183622607342,-0.03782736667756307,-0.00025564927785817786
311,0.0007508440908997657,0.19993820500640183,0.1405528345559399,0.039885920301274864,0.0795036818293425,0.49920757100548363,0.5686727285336313,-0.03782408174702971,-0.00025656909959820165
312,0.0007493573084604525,0.19997541893925067,0.14030601667369297,0.03988593340870858,0.08019832229199235,0.49867353936842235,0.568527116008059,-0.03782079694773932,-0.0002574891416050728
313,0.0007478826358037873,0.20001232833557142,0.14005917273643698,0.03988594684095759,0.08089311739901407,0.4981394728031657,0.5683815683787194,-0.03781751346049621,-0.0002584093586171863
314,0.0007464197576499956,0.20004894051979105,0.13981230481307344,0.03988596062222695,0.08158810589875488,0.4976054004514032,0.5682361136733332,-0.037814231998786585,-0.0002593296950753398
315,0.0007449684452814718,0.20008526109635327,0.1395654133301208,0.039885974749004065,0.08228332064468907,0.49707134307602563,0.568090771774704,-0.03781095305745558,-0.0002602501032696909
316,0.0007435285232890217,0.20012129447427784,0.13931849762426127,0.03988598920758058,0.08297878978748191,0.49653731480465946,0.5679455571580563,-0.037807676994232056,-0.00026117054796040716
317,0.0011895595685807296,0.20001883769693385,0.14068663932627704,0.03767591463943535,0.07963406585897963,0.4995553260740397,0.569700210795763,-0.037921644138571596,-0.00026209149441948544
318,0.001188144985723759,0.2000563207569156,0.14043950823119344,0.037675927476825896,0.08032961235847498,0.49902113375050394,0.5695545863034873,-0.0379183595161059,-0.0002630127033555666
319,0.0011867423561546016,0.20009348762448556,0.14019234754734528,0.037675940537288996,0.08102526193705843,0.4984868698946971,0.5694089827605567,-0.03791507502346011,-0.0002639341341666266
320,0.001185351207062613,0.20013034870737695,0.13994516224148904,0.03767595392990041,0.08172106057048452,0.4979525725332982,0.5692634438549797,-0.037911791837163755,-0.0002648557383724771
321,0.0011839712378226988,0.20016691139308232,0.1396979543720368,0.03767596767751622,0.08241704741914765,0.49741827110720055,0.569117997784565,-0.03790851067400886,-0.00026577745879518026
322,0.0011826022302678712,0.2002031813422675,0.13945072434979588,0.0376759817759913,0.08311325567826458,0.49688398656217564,0.5689726645897326,-0.037905232032541654,-0.0002666992468936659
323,0.0016772836704464136,0.20010168096906272,0.1407454929851616,0.035222164990355,0.07993368060185747,0.4997280158361685,0.570620043058289,-0.03801207228632325,-0.0002676215252644393
324,0.0016759563539334617,0.20013930259275897,0.14049806529645043,0.03522217762236967,0.08062993156643178,0.4991935654339899,0.5704743153062203,-0.03800878536380474,-0.00026854406586815247
325,0.0016746402654365371,0.2001766062871975,0.14025061171571865,0.03522219050506945,0.0813262713047657,0.49865904800276856,0.570328609065323,-0.03800549859167498,-0.0002694668229741916
326,0.0016733349600161701,0.20021360250972425,0.14000313707126705,0.035222203740742225,0.08202274666286803,0.49812450201568104,0.5701829678792834,-0.038002213137643806,-0.00027038974444298296
327,0.0016720401535429566,0.20025029873311928,0.13975564331467835,0.03522221734930614,0.08271939751446239,0.49758995704798953,0.5700374200546429,-0.037998929720055856,-0.00027131277159203
328,0.0016707556394740205,0.20028670069942672,0.13950813074946664,0.035222231324733504,0.08341625768527527,0.49705543406436525,0.5698919857450511,-0.037995648840022746,-0.00027223585532649633
329,0.0016694812593086314,0.20032281293635962,0.13926059857808912,0.03522224565131131,0.08411335619146582,0.4965209472635344,0.5697466796278519,-0.037992370860173236,-0.000273158959763682
330,0.0022239633566426935,0.2002184142337423,0.14052948865092635,0.03247018595430651,0.08097159867680537,0.4992916221743418,0.5713339828836087,-0.03809498936785394,-0.00027408249948445665
331,0.002222745650571193,0.2002558508537956,0.14028176663691527,0.03247019884560824,0.0816687691335322,0.4987569933970141,0.5711883150026659,-0.038091703878470363,-0.00027500627347916423
332,0.002221538247427034,0.20029297104915939,0.1400340193792704,0.03247021197725278,0.08236604004020455,0.49822230622228586,0.5710426766148935,-0.0380884187394222,-0.0002759302436654698
333,0.002220340748433515,0.20032978481243638,0.1397862512554872,0.03247022544770521,0.0830634565244451,0.49768759667327594,0.5708971090753366,-0.03808513506161692,-0.0002768543628259853
334,0.002219152901719071,0.20036629928090113,0.13953846391050406,0.03247023927572278,0.0837610571021556,0.49715289243789007,0.5707516391739127,-0.038081853525330445,-0.00027777857637593093
335,0.0022179745250329,0.2004025199432409,0.13929065743482874,0.03247025345515482,0.08445887453307725,0.4966182130739943,0.5706062859550587,-0.03807857460413769,-0.0002787028384733707
336,0.002809768292007575,0.20029797324720058,0.14050354715121371,0.029531363755199443,0.08144099301129767,0.4992550920881284,0.5721094970154933,-0.03817560728578014,-0.0002796275300989416
337,0.0028086597333388664,0.2003354435411447,0.14025556199176675,0.02953137659422031,0.08213886266986128,0.49872026527143404,0.5719637929311,-0.03817232104767957,-0.0002805524597571778
338,0.0028075605771809404,0.2003725962100994,0.14000755346204255,0.029531389684296014,0.08283682511609361,0.498185381768662,0.5718181183467852,-0.03816903516510512,-0.00028147758519514275
339,0.0028064704560239037,0.20040944128152066,0.13975952588102572,0.029531403119701132,0.08353492604487438,0.4976504780740448,0.5716725145562874,-0.03816575074334417,-0.00028240285609214445
340,0.0028053891380442854,0.20044598595293567,0.1395114808570509,0.029531416917884634,0.08423320441536511,0.49711558208854834,0.5715270084761596,-0.03816246846491247,-0.0002833282164573994
341,0.0028043164557507256,0.20048223576873594,0.13926341844102713,0.029531431072109326,0.08493169336571207,0.4965807134811731,0.5713816192738819,-0.0381591888062393,-0.00028425361981080006
342,0.0034295232179213427,0.2003768988445632,0.14043011130445895,0.02642532796644425,0.08201378482955543,0.4991060213628008,0.5728131068830595,-0.03825144444492097,-0.0002851794258510539
343,0.0034285319077746535,0.2004143396686826,0.1401818804544725,0.026425340857299414,0.08271232656109918,0.49857101499299017,0.5726673884172097,-0.03824815793955877,-0.00028610545784248245
344,0.0034275490076024406,0.2004514629217559,0.13993362788152594,0.026425354004056933,0.08341096120033789,0.49803595752145435,0.572521703341705,-0.03824487188992525,-0.000287031674539734
345,0.003426574189089541,0.20048827843215064,0.13968535764422782,0.026425367496531186,0.08410973397632113,0.49750088449613666,0.5723760918702901,-0.038241587371143713,-0.00028795802631930193
346,0.003425607246947581,0.20052479327378253,0.13943707117081353,0.026425381350575306,0.08480868348670507,0.4969658230041217,0.5722305802592073,-0.03823830504866198,-0.0002888844584598892
347,0.0034246480335350772,0.20056101290432066,0.13918876837530716,0.02642539555876645,0.08550784261107656,0.4964307920765842,0.5720851872076957,-0.038235025387182806,-0.0002898109257597729
348,0.0040797635541069376,0.2004543548586579,0.14031735806587103,0.023169674586020806,0.08267051007750957,0.49886303949049043,0.573455484868185,-0.03832319347881542,-0.0002907377709344864
349,0.004078895999152557,0.20049171781003913,0.1400688942482671,0.023169687583950358,0.0833697293100445,0.4983278791342934,0.5733097823244602,-0.038319907406520214,-0.0002916648314711892
350,0.004078035810589794,0.20052876349232385,0.13982040955899355,0.023169700836409825,0.08406904456470135,0.4977926721037383,0.5731641168704026,-0.03831662188468122,-0.00029259206765962643
351,0.004077182699230204,0.20056550152512792,0.13957190782885512,0.023169714429779144,0.0847685004591248,0.49725745299195917,0.5730185276637069,-0.038313337959372425,-0.0002935194308782799
352,0.004076336486697183,0.20060193884525013,0.1393233903348797,0.0231697283789191,0.08546813510132939,0.49672224809269133,0.5728730402981115,-0.03831005627903092,-0.0002944468677568982
353,0.004075497045647159,0.20063808081042986,0.13907485688253338,0.023169742676189323,0.08616798099424182,0.4961870758294066,0.5727276730012778,-0.03830677729657182,-0.0002953743343612893
354,0.0047573711907038,0.20052967050290918,0.14017202567519627,0.01978018728369075,0.08339549628962324,0.49854168758010237,0.5740457623120936,-0.0383914468825507,-0.0002963021588833248
355,0.0047566326220218925,0.20056691666347656,0.13992333616186248,0.019780200407332197,0.08409541254968558,0.4980063911130658,0.5739001019656155,-0.038388161851974106,-0.00029723019159620656
356,0.0047559003363498685,0.20060384588566518,0.1396746259944697,0.01978021378088392,0.08479542938640626,0.49747105088523774,0.5737544816931728,-0.038384877448289535,-0.0002981583940908224
357,0.0047551740825763165,0.20064046760640758,0.139425898833156,0.019780227488155725,0.08549559082718763,0.4969357007244799,0.5736089397677513,-0.038381594693195305,-0.0002990867185082709
358,0.004754453708783477,0.20067678864018457,0.13917715584878587,0.01978024154347619,0.08619593449519199,0.49640036629351336,0.5734635012315343,-0.03837831422095193,-0.0003000151125315633
359,0.004753739107705393,0.2007128142537989,0.13892839677617436,0.019780255939301546,0.0868964925064615,0.495865065539885,0.5733181839218645,-0.03837503647471164,-0.0003009435332142813
360,0.005459539827930722,0.20060230977845217,0.1399996651614719,0.01627102492485611,0.08417612096579168,0.49815491790412886,0.5745917470679109,-0.03845671241114869,-0.00030187229615527306
361,0.005458934396901695,0.20063940741672684,0.13975075314371235,0.01627103817328697,0.08487676086864349,0.49761949563245333,0.5744461501409986,-0.03845342891266829,-0.00030280126297553756
362,0.005458334131140315,0.2006761884121963,0.13950182027323654,0.01627105166582381,0.08557750658260213,0.49708403133376866,0.5743005956207782,-0.03845014610088774,-0.000303730396263134
363,0.005457738816673379,0.20071266204774682,0.13925287008796394,0.016271065484312945,0.08627840159909145,0.4965485582537199,0.5741551210619282,-0.03844686497761352,-0.00030465964865216425
364,0.0054571483275974945,0.20074883503338603,0.13900390368959514,0.016271079642820954,0.08697948309154134,0.49601310157647965,0.5740097510646063,-0.0384435861657139,-0.00030558896858172413
365,0.005456562576475225,0.20078471255694932,0.13875492077240142,0.016271094134053473,0.08768078280741685,0.49547767889467853,0.5738645031559446,-0.03844031010057157,-0.000306518313826216
366,0.0061837437607444425,0.2006718504819598,0.13980485312588525,0.012654889647610695,0.08500223397066686,0.49771354446997795,0.5751001357244588,-0.03851942670479225,-0.0003074479890519441
367,0.006183274694019979,0.20070877356024824,0.13955571903316993,0.012654903011055046,0.08570362741724132,0.4971780011635053,0.5749546191440288,-0.038516145128135296,-0.0003083778659287105
368,0.0061828096442311424,0.2007453802306957,0.13930656364402966,0.012654916612719499,0.08640513212922421,0.49664241673379994,0.5748091467834678,-0.03851286428470658,-0.0003093079077786825
369,0.0061823484338434705,0.20078167964786936,0.13905739041119822,0.012654930532909819,0.08710679112225936,0.49610682399343964,0.5746637556193803,-0.038509585160201934,-0.0003102380675071968
370,0.00618189096264388,0.20081767843381057,0.13880820039464628,0.012654944785577642,0.08780864116336541,0.49557124777134864,0.5745184699017971,-0.038506308368434126,-0.0003111682940667875
371,0.006181437162838431,0.20085338170884512,0.13855899326981597,0.012654959363733538,0.08851071365989989,0.49503570540198044,0.5743733069145436,-0.038503034338681075,-0.0003120985457362991
372,0.006927709880276648,0.20073796652952117,0.13959136677458017,0.008943177515833041,0.08586569342589037,0.4972266189862814,0.5755766951377637,-0.03857996675931111,-0.00031302911770801357
373,0.006927379609861985,0.2007746935763144,0.13934200926969625,0.0089431909814011,0.08656787122042504,0.4966909556943726,0.5754312724023457,-0.038576687414067154,-0.0003139598905470864
374,0.0069270521804053785,0.20081110437856858,0.13909262990137955,0.008943204679737487,0.08727016566270109,0.4961552516252395,0.5752858952973824,-0.03857340883825508,-0.0003148908280967834
375,0.006926727450330981,0.20084720798477115,0.13884323206475446,0.008943218689911835,0.08797261935172182,0.4956195392758285,0.5751406003364696,-0.03857013200457273,-0.0003158218833623946
376,0.006926405344910182,0.20088301094352537,0.13859381679777127,0.008943233025837629,0.08867526869309332,0.4950838432165467,0.5749954114942697,-0.03856685751968072,-0.00031675300561997407
377,0.0069260858158771725,0.2009185183179709,0.13834438377214248,0.008943247680834895,0.08937814478650657,0.49454818059880246,0.5748503458654284,-0.03856358580809949,-0.0003176841534834907
378,0.007689392530759417,0.20080041257104458,0.13936232709955218,0.0051461135978737435,0.0867599899174446,0.4967017398366377,0.5760264138295024,-0.03863865948349648,-0.00031861561395953334
379,0.007689202804329345,0.2008369257947226,0.13911274378463584,0.005146127152391749,0.08746298225147159,0.4961659552500899,0.5758810957338647,-0.038635382616266645,-0.00031954727548492686
380,0.007689014717627619,0.20087312286217665,0.1388631379988104,0.005146140934859685,0.08816609636385697,0.4956301298731675,0.5757358243694602,-0.03863210654669513,-0.0003204791022539574
381,0.00768882816473897,0.2009090127348305,0.13861351309991793,0.005146155023338728,0.08886937449248862,0.4950942959788378,0.5755906358808139,-0.038628832237033534,-0.00032141104724243367
382,0.00768864309631388,0.20094460190043936,0.13836387011779178,0.005146169431742467,0.08957285272539904,0.49455847795431623,0.5754455540276298,-0.03862556028833094,-0.0003223430599032108
383,0.008450882502203393,0.20082718702628968,0.13933503148425433,0.0013530882333104074,0.08707097262633509,0.4966083341699924,0.5765655220027943,-0.03869708256345466,-0.00032327540071293905
384,0.00845083128924677,0.20086371653912152,0.13908524529039654,0.0013531016269108286,0.08777453913774087,0.49607238156315325,0.5764201870376708,-0.03869380538157823,-0.0003242079556674635
385,0.008450780513868317,0.20089992818192748,0.1388354382987509,0.001353115264611844,0.08847821645138317,0.49553638706276376,0.576274896246912,-0.038690528937747826,-0.0003251406821288056
386,0.008450730105924968,0.2009358311049065,0.13858561395900032,0.0013531292215573545,0.08918204789997226,0.49500038419278586,0.5761296864437104,-0.03868725420784074,-0.00032607352843950496
387,0.0084506800410241,0.2009714319639787,0.13833577336656586,0.0013531435105794882,0.08988607043273046,0.49446439816821924,0.5759845820072542,-0.038683981807576366,-0.0003270064413217431
388,0.008450630309423588,0.20100673591022333,0.13808591623228322,0.0013531581245610508,0.09059031557942036,0.4939284465900127,0.5758396003682087,-0.03868071216956269,-0.0003279393778712879
389,0.009228146739219886,0.200885991996318,0.13905350658209342,-0.002516459827644134,0.0880892279705463,0.4959655539925969,0.5769461896733136,-0.03875127025300275,-0.0003288726045786127
390,0.009228236120711759,0.2009222370766192,0.13880350652074225,-0.0025164462305274416,0.08879359632707855,0.4954294887432676,0.5768009775434184,-0.03874799593543367,-0.000329806022436309
391,0.009228324714997856,0.20095816594836263,0.13855348521600594,-0.0025164323991046637,0.08949808956181682,0.49489338762921153,0.576655816123629,-0.03874472251734452,-0.0003307395960904194
392,0.009228412487171576,0.2009937873585948,0.138303445788036,-0.002516418260030308,0.09020274930852851,0.49435728200211093,0.5765107404580827,-0.03874145093027093,-0.0003316732790211021
393,0.009228499438191963,0.2010291076565359,0.13805338911234147,-0.002516403801138255,0.0909076111662207,0.49382119546932823,0.5763657736354724,-0.03873818175790463,-0.00033260702182996894
394,0.009228585577795788,0.20106413175619764,0.1378033147575439,-0.0025163890296158943,0.09161270558280972,0.49328514445920535,0.5762209321323704,-0.038734915409244376,-0.000333540784503803
395,0.010019696253990247,0.20094013859901044,0.13876803593153447,-0.006454235169034643,0.08911198989479202,0.4953118296228122,0.5773163601558889,-0.038804660086107605,-0.0003344748316881722
396,0.010019926510406006,0.20097610142358516,0.13851781550743716,-0.006454221430741133,0.089817224775402,0.49477566326394146,0.5771712927936937,-0.03880138916793697,-0.00033540907111659
397,0.01002015473830245,0.2010117483310605,0.13826757253609098,-0.006454207469098101,0.09052259237859701,0.4942394600126187,0.577026277039505,-0.03879811917133706,-0.0003363434684765777
398,0.010020380936811927,0.20104708797737303,0.13801731013486282,-0.006454193210536624,0.0912281338425529,0.4937032509816421,0.5768813476188638,-0.03879485101942477,-0.00033727797763911563
399,0.010020605131384598,0.2010821266400352,0.1377670291993702,-0.00645417864225933,0.0919338843330697,0.4931670596168616,0.5767365274119518,-0.03879158529060495,-0.00033821254949946807
400,0.01080756463784715,0.20095850978434163,0.13869445054155535,-0.010372559481839577,0.0895277642136209,0.49511222947372513,0.5777892225327448,-0.03885864535430755,-0.00033914742611545107
401,0.010807935449466772,0.2009944339452236,0.13844402792059132,-0.010372545882091556,0.09023363010621199,0.4945759078340649,0.5776441720628736,-0.03885537489856864,-0.000340082510878186
402,0.010808302973103213,0.20103004049708373,0.13819358387143915,-0.01037253204651112,0.09093961909313573,0.4940395468521939,0.5774991699875847,-0.038852105287664085,-0.0003410177625878408
403,0.010808667245513208,0.201065338311838,0.13794312165697037,-0.01037251790340413,0.0916457734208539,0.49350317905311875,0.5773542518743016,-0.03884883746325649,-0.00034195313037463945
404,0.010809028319004023,0.2011003338494448,0.13769264227936864,-0.010372503440551763,0.09235212911839387,0.4929668288571136,0.5772094413263342,-0.03884557202111371,-0.00034288856216184015
405,0.010809386242784541,0.20113503210888845,0.1374421454077995,-0.010372488664798962,0.09305871694644138,0.4924305132944298,0.5770647552314035,-0.038842309380232275,-0.00034382401615945285
406,0.01160882933089807,0.20100782669187056,0.13837391953108896,-0.014353571130350377,0.09063614805569895,0.4943818925807886,0.5781160832353868,-0.03890918388219176,-0.0003447597432641791
407,0.011609338403707018,0.20104342106947898,0.13812327891892376,-0.014353557338842549,0.09134288557887127,0.49384546424389625,0.5779711846742868,-0.038905916959755524,-0.00034569565940148505
408,0.011609842946983308,0.20107869932394237,0.1378726160767246,-0.014353543322074173,0.09204976015569938,0.4933090011106988,0.577826340006571,-0.03890265101715884,-0.00034663173004433376
409,0.011610343028142962,0.20111366997851643,0.1376219340092083,-0.01435352900929161,0.09275681248549747,0.49277253384369635,0.5776815833172955,-0.03889938695937398,-0.00034756790895917216
410,0.011610838721526063,0.20114833922274583,0.13737123355053515,-0.014353514388596264,0.0934640773605294,0.49223608550612763,0.5775369371101582,-0.03889612535497787,-0.00034850414744226854
411,0.011611330093287076,0.20118271184447886,0.13712051426762517,-0.014353499466737234,0.09417158454041423,0.49169967214934046,0.5773924174578511,-0.03889286660281706,-0.0003494404061585008
412,0.012421851756233065,0.20105211800266345,0.13805598351296566,-0.018390362675893644,0.09173554502109302,0.4936565897430794,0.5784429980092591,-0.038959603539013725,-0.00035037698599894347
413,0.012422498677652232,0.20108739250290894,0.13780511569649406,-0.01839034909004582,0.092443218066001,0.4931200600896425,0.5782982669645631,-0.038956340541504444,-0.0003513137573229464
414,0.012423139829484738,0.20112235101313417,0.13755422421016456,-0.018390335424514143,0.09315103560006677,0.4925834937517553,0.5781535900186741,-0.0389530785275031,-0.00035225068076733353
415,0.012423775307995742,0.20115700200672612,0.13730331210197208,-0.018390321589139065,0.09385903794388578,0.4920469213585667,0.5780090011425797,-0.03894981839917604,-0.00035318771091259277
416,0.012424405207802644,0.20119135162893712,0.13705238025831673,-0.018390307556101968,0.0945672595474569,0.4915103659801469,0.5778645227640867,-0.038946560723293,-0.0003541248000576863
417,0.0132285325284348,0.20106112405416654,0.13795591746209684,-0.02239651121497391,0.09221449680267717,0.4933988676405616,0.5788809416892913,-0.03901117101933428,-0.00035506219220364683
418,0.013229319430707046,0.2010963290881572,0.13770484034921207,-0.022396498365058592,0.09292285872083716,0.4928621802181108,0.5787362450949698,-0.03900790888368059,-0.0003559997862923088
419,0.013230099242399247,0.2011312163575788,0.13745374061736537,-0.022396485368657605,0.09363135529178751,0.49232545317028,0.5785915989823094,-0.039004647644283824,-0.00035693754262091433
420,0.013230872100570291,0.20116579457730696,0.1372026214868527,-0.022396472141341824,0.09434002800891979,0.4917887186513886,0.578447038290467,-0.0390013882254868,-0.00035787541210250605
421,0.013231638130047452,0.20120007009112373,0.13695148396871334,-0.022396458660255816,0.09504891223689499,0.49125200080286624,0.5783025862480086,-0.03899813121343203,-0.00035881334400685944
422,0.013232397435899008,0.20123404780302595,0.13670032776789867,-0.022396444923368355,0.09575803815468684,0.4907153164835622,0.5781582594898849,-0.03899487702079657,-0.00035975129745966357
423,0.01404696910374073,0.2011002605737109,0.13761274808068844,-0.026455283491461166,0.09338004184439652,0.4926214756966001,0.579181294324658,-0.03905982069074388,-0.00036068952709251365
424,0.014047889617992356,0.20113510985558047,0.1373614435749414,-0.026455270867177395,0.09408934025171176,0.49208467589720645,0.5790367644801141,-0.03905656242464661,-0.00036162794228192995
425,0.014048801779129549,0.20116964268860812,0.13711011570930437,-0.026455258067207547,0.09479878636401222,0.49154784060991463,0.5788922901160166,-0.03905330517706411,-0.00036256650949722407
426,0.014049705752207991,0.201203867472947,0.13685876747690637,-0.026455245011586834,0.09550842024432217,0.4910110002822612,0.5787479048505209,-0.039050049839987534,-0.00036350518391281024
427,0.014050601682174108,0.20123779030521038,0.13660739974069133,-0.026455231681191717,0.09621827611503675,0.49047417782330793,0.5786036309173214,-0.03904679697502275,-0.00036444391780125415
428,0.014858221791672278,0.20110430981089716,0.1374921224787052,-0.030480567883799117,0.09391393859288999,0.49232183572460186,0.5795985157567398,-0.03910999842452054,-0.0003653829486961426
429,0.014859279865415687,0.20113906386233854,0.13724060884228262,-0.03048055557684625,0.09462394552023606,0.49178488409093063,0.5794540327096865,-0.039106741301921065,-0.0003663221807896171
430,0.014860328256653439,0.201173499904931,0.13698907272664607,-0.030480543065951327,0.09533409194708911,0.4912478943612664,0.5793096020168998,-0.039103485122342546,-0.0003672615743615862
431,0.014861367171976848,0.20120762654768132,0.13673751727689643,-0.030480530273938315,0.09604441893884515,0.4907108983085367,0.5791652581381528,-0.039100230796995566,-0.0003682010802921346
432,0.014862396786654374,0.20124145005823135,0.13648594346668913,-0.030480517183500273,0.09675496149793693,0.49017391977622093,0.5790210240015993,-0.03909697890427741,-0.0003691406480522106
433,0.014863417244706741,0.2012749752805254,0.13623435098483916,-0.030480503797277816,0.09746574949990353,0.4896369754129084,0.57887691603258,-0.03909372985158174,-0.0003700802369752593
434,0.015680958677154605,0.20113789738691495,0.13713152098158055,-0.034555885081634236,0.09512857516269897,0.4915108896195566,0.5798839573939826,-0.039157618628485207,-0.0003710200969788666
435,0.01568214549608126,0.2011722746261187,0.13687977838316723,-0.034555872717749216,0.09583954732849184,0.49097383167962916,0.5797396538550492,-0.03915436567005553,-0.0003719601419703329
436,0.015683321379782365,0.20120633516273798,0.1366280123530674,-0.034555860148319406,0.096550672489934,0.49043673924669756,0.5795954073829035,-0.03915111376937394,-0.00037290033844727824
437,0.0156844865596518,0.20124008730319182,0.13637622583276385,-0.034555847297701156,0.09726199029561794,0.48989964246023593,0.5794512511936356,-0.03914786380747758,-0.00037384064157784794
438,0.01568564122852568,0.2012735370747319,0.13612441966557276,-0.03455583414985042,0.09797353461292112,0.48936256399581507,0.579307207267794,-0.03914461633945808,-0.0003747810038060457
439,0.0156867855438931,0.2013066891317523,0.1358725934661022,-0.034555820708275696,0.09868533439216706,0.48882551966883186,0.5791632913246156,-0.039141371755273685,-0.00037572138655876235
440,0.016513098427056686,0.20116632569496729,0.1367801789899915,-0.03867556124237396,0.09632168073295187,0.4907219678213585,0.5801814447229764,-0.0392058889995133,-0.00037666204357607064
441,0.01651441315756843,0.20120034392668446,0.13652819622455253,-0.03867554884217718,0.09703367911387938,0.49018480522426255,0.5800373307810824,-0.03920264046430649,-0.00037760289092088795
442,0.01651571564570506,0.20123404540813503,0.13627618857860616,-0.038675536239848374,0.09774583718231783,0.4896476056340261,0.579893273496402,-0.03919939297523418,-0.00037854389537969434
443,0.016517006156284597,0.20126743843658604,0.13602415907645962,-0.03867552335901295,0.09845819433002148,0.48911039933883244,0.5797493061670462,-0.03919614741582702,-0.00037948501194228347
444,0.01651828490617797,0.20130052902193732,0.1357721086397179,-0.03867551018326936,0.09917078418014831,0.48857320917168345,0.5796054508214158,-0.039192904342432916,-0.0003804261927001349
445,0.017336169508787802,0.20116074652272475,0.13665320381324403,-0.04275432827865363,0.0968798013896865,0.4904150113352881,0.5805990427097173,-0.039255917044041015,-0.0003813676250620187
446,0.017337618910600986,0.20119466368013386,0.1364009989723521,-0.04275431576574219,0.09759256352747928,0.4898776865815617,0.5804549800625548,-0.03925266975175183,-0.0003823092669438316
447,0.017339054660832465,0.20122826222391793,0.1361487702845773,-0.04275430290139036,0.09830547516646915,0.48934032148478146,0.5803109700713351,-0.03924942340890205,-0.0003832510833390455
448,0.01734047707488209,0.20126155071891094,0.13589652097067156,-0.042754289628702064,0.09901857694015011,0.48880294796512286,0.5801670471283801,-0.03924617892455387,-0.0003841930235466541
449,0.017341886407276266,0.20129453538997005,0.13564425209238215,-0.04275427594671223,0.09973190344271803,0.4882655900198727,0.5800232341387657,-0.03924293687627526,-0.00038513503530182135
450,0.01734328286305588,0.2013272210390067,0.13539196343204613,-0.04275426187163828,0.10044548416365126,0.4877282644598262,0.5798795475261402,-0.03923969767125179,-0.0003860770765564812
451,0.01816973997120569,0.20118413440598742,0.13628661216427007,-0.046876422297947355,0.09812127211068161,0.4896001354091516,0.5808890850829156,-0.03930364685575053,-0.00038701893401858875
452,0.018171311014448407,0.20121766856051382,0.1360341649536095,-0.04687640607614207,0.09883505481378663,0.4890626913035858,0.5807452035763968,-0.03930040371897974,-0.0003879610094412841
453,0.018172866875771902,0.20125088525494395,0.13578169328563128,-0.0468763883753485,0.09954899897268273,0.48852521072800426,0.5806013792639155,-0.039297161647726564,-0.0003889033079526971
454,0.01817440793283772,0.20128379276989675,0.13552920018257403,-0.04687636929770176,0.10026314391081936,0.4879877240394387,0.5804576453771813,-0.039293921522019847,-0.00038984577266198473
455,0.01817593448728561,0.20131639710336321,0.13527668657537692,-0.04687634896950378,0.10097752317910201,0.4874502541185022,0.5803140239276775,-0.03929068389653003,-0.0003907883444559246
456,0.01899380071379169,0.2011739336176194,0.13614737774654323,-0.050956669392822784,0.09872049159318365,0.4892735560703254,0.5813028695797595,-0.03935337485811163,-0.0003917311324143897
457,0.018995501762836386,0.20120735079695778,0.13589470733222997,-0.050956647833809404,0.09943505030550012,0.48873595383043206,0.5811590454560372,-0.03935013312184711,-0.00039267420443899294
458,0.018997186351352675,0.20124044886313647,0.13564201341393498,-0.05095662529235847,0.10014976174931449,0.4881983123587009,0.5810152751546894,-0.03934689236859177,-0.00039361750441485946
459,0.01899885489836975,0.2012732363257378,0.13538929917944742,-0.05095660182849269,0.10086466630952562,0.48766066340698005,0.5808715928377737,-0.03934365349933471,-0.00039456096291516575
460,0.019000507731006925,0.20130571936720992,0.13513656567797788,-0.05095657752622441,0.1015797983670832,0.48712303085082526,0.5807280212637689,-0.03934041708687339,-0.0003955045176221403
461,0.019002145109145253,0.20133790275445884,0.13488381269127198,-0.05095655246819989,0.10229518722855307,0.4865854314233141,0.5805845767553075,-0.03933718353525883,-0.00039644812068896103
462,0.019828417335044313,0.20119219094257224,0.13577022609090258,-0.05507934472773667,0.10000065145585936,0.4884442361492751,0.5815931014793256,-0.03940104832566323,-0.00039739189677664223
463,0.019830233833423496,0.2012252119927205,0.13551731130380773,-0.05507931930809775,0.10071625060924123,0.4879065201532287,0.5814494659978151,-0.03939781097144754,-0.00039833592678071563
464,0.0198320326975018,0.20125791507836935,0.13526437224903454,-0.055079293273360835,0.1014320149547446,0.4873687685418165,0.5813058887861042,-0.039394574706727546,-0.00039928016215225913
465,0.0198338143578558,0.2012903084303243,0.13501141192620816,-0.05507926664800913,0.10214798354851817,0.4868310115154889,0.5811624028683654,-0.03939134040537343,-0.0004002245388804387
466,0.019835579147675083,0.20132239800700294,0.1347584312619771,-0.05507923948424186,0.10286418971114956,0.4862932718484821,0.5810190301199454,-0.03938810861865126,-0.0004011689986500969
467,0.02065312984389509,0.20117739634886986,0.1356226151378554,-0.059159418895745136,0.10063336239215999,0.4881078129824776,0.5820097915115422,-0.03945090166238673,-0.00040211370016262417
468,0.020655073617036702,0.20121029017223996,0.13536947380280231,-0.05915939203282843,0.10134975706999459,0.4875699424444266,0.581866219221387,-0.03944766583771673,-0.0004030586642263989
469,0.020656998421804375,0.20124286439091948,0.13511630901724847,-0.05915936483994444,0.10206630856842186,0.4870320332207221,0.5817227016902881,-0.03944443101575166,-0.0004040038322032302
470,0.020658904729336035,0.2012751274703991,0.13486312395764466,-0.05915933731003291,0.1027830570046018,0.4864941169399862,0.5815792729078124,-0.03944119809325125,-0.0004049491372108232
471,0.020660792901928487,0.201307085556176,0.1346099196776642,-0.05915930946784855,0.10350003652668081,0.4859562174022327,0.5814359555170671,-0.039437967640314854,-0.00040589451939888194
472,0.020662663224875664,0.20133874338328572,0.13435669597330863,-0.059159281343320554,0.10421727623654224,0.4854183513030466,0.5812927657614914,-0.03943474005918653,-0.0004068399329523553
473,0.02148848227364757,0.20119059107128623,0.13523810975889938,-0.06328118008964158,0.10194630319552266,0.48727236511432087,0.5823061458044151,-0.039498893851755174,-0.0004077855163306218
474,0.02149053629887765,0.2012230798850554,0.13498471975084012,-0.06328115246929614,0.10266376228699907,0.48673438332096236,0.5821627672668489,-0.03949566251719087,-0.00040873133625941697
475,0.021492570121400954,0.2012552502168437,0.13473130545079143,-0.06328112458955859,0.10338139069284365,0.4861963661870916,0.5820194477494977,-0.03949243228785631,-0.000409677346560529
476,0.02149458422766947,0.20128711026238036,0.13447786986080984,-0.0632810964357506,0.10409922722515375,0.4856583438435559,0.5818762201567195,-0.03948920403483298,-0.00041062348578975455
477,0.021496578990035313,0.2013186659487517,0.13422441392201334,-0.0632810680264808,0.10481730498905202,0.4851203390332041,0.5817331062824268,-0.03948597830749089,-0.0004115696973412326
478,0.02149855470118421,0.20134992183789285,0.1339709373676124,-0.0632810393862214,0.1055356522352105,0.48458236770108987,0.5815901217332222,-0.0394827554924024,-0.0004125159376213186
479,0.02233166084205445,0.20119897178438903,0.13486676561368482,-0.06743973273844164,0.10323271440621125,0.486470336621364,0.5826240254228162,-0.03954814374863326,-0.0004134624938592199
480,0.022333824700482577,0.20123107780055252,0.13461311514855434,-0.06743970564275888,0.10395129356681523,0.48593224498180143,0.5824808475346647,-0.039544917102275486,-0.0004144092860121695
481,0.02233596711147357,0.20126286512596359,0.13435943909079157,-0.06743967870834389,0.10467004784805654,0.48539411542297106,0.5823377279616757,-0.03954169153973595,-0.0004153562547902632
482,0.022338088582776028,0.20129434197424112,0.1341057405419765,-0.0674396518647824,0.10538901588856225,0.48485597831064664,0.5821946998030809,-0.03953846793804994,-0.00041630334113831495
483,0.022340189500285056,0.20132551427335085,0.13385202053036563,-0.06743962508541866,0.10610823062001973,0.4843178566181908,0.582051784967815,-0.03953524684988071,-0.0004172504909475185
484,0.02316359650414525,0.20117565524058872,0.13472445694141905,-0.0715506445904061,0.10387361869492102,0.4861600041087886,0.5830683954768665,-0.03959960058927767,-0.0004181978682103372
485,0.02316588478482112,0.20120764196042393,0.13447056449893383,-0.07155061906277774,0.10459303847901233,0.48562174572662453,0.5829252764404202,-0.03959637535939648,-0.00041914548294679817
486,0.023168150132199514,0.20123930807460594,0.13421664752173473,-0.07155059354568594,0.10531262292401168,0.4850834458997967,0.582782211514073,-0.039593151110651294,-0.0004200932864677971
487,0.02317039311001519,0.20127066208049407,0.13396270931884327,-0.0715505679817356,0.10603241195106029,0.4845451366798127,0.5826392349637883,-0.03958992874805933,-0.00042104121758192886
488,0.023172614147373153,0.20130171013086604,0.13370875106482544,-0.07155054235690876,0.10675243949759601,0.4840068422537425,0.5824963696163786,-0.03958670884669464,-0.0004219892189046911
489,0.023174813580311277,0.20133245695593968,0.13345477266959485,-0.07155051666926847,0.10747273443951286,0.48346857965586054,0.5823536318583192,-0.03958349181250413,-0.00042293724580018014
490,0.024005592211843604,0.20117983916620524,0.13434361284564555,-0.07569864141974662,0.10520205413065442,0.48534955852396056,0.5833940128468622,-0.03964928582431831,-0.0004238854770788421
491,0.024007983756659308,0.2012114258963475,0.13408945689987234,-0.07569861679051192,0.10592258207843532,0.4848111756646769,0.5832510817036511,-0.03964606494005175,-0.00042483393176177603
492,0.024010351088101477,0.20124269303017916,0.13383527596984476,-0.07569859208266284,0.10664328581995515,0.48427275530752534,0.5831082090159575,-0.03964284514211281,-0.00042578256687899306
493,0.02401269478681602,0.20127364880150986,0.1335810731784303,-0.07569856724727957,0.10736420403109231,0.4837343279953097,0.582965427973507,-0.03963962730994285,-0.00042673132513144175
494,0.024015015293132207,0.20130429915022782,0.13332684957526708,-0.07569854227831198,0.10808536966185227,0.4831959168444052,0.5828227605581952,-0.03963641199793862,-0.0004276801517563732
495,0.02483618799692681,0.20115284300060754,0.13419386285498305,-0.07979928371240236,0.10587972176312889,0.48503488532416283,0.5838483417014547,-0.039701329047192334,-0.0004286292118507397
496,0.024838699627583092,0.20118430027023734,0.13393946292649844,-0.07979925965100892,0.1066010974802364,0.48449634020724963,0.5837054719585042,-0.03969810963842694,-0.00042957851355861774
497,0.02484118557868789,0.20121543626468155,0.1336850389919727,-0.07979923545328836,0.10732264006581983,0.4839577547308543,0.5835626571644149,-0.039694891230473574,-0.0004305280070693647
498,0.024843646485760776,0.2012462594574209,0.13343059434684912,-0.07979921107615429,0.10804438928516368,0.4834191608665925,0.5834199314906197,-0.0396916747260048,-0.0004314776305218756
499,0.024846082830022147,0.20127677597866356,0.1331761301625713,-0.07979918651837496,0.10876637894260628,0.4828805827584664,0.5832773176938502,-0.03968846069828829,-0.0004324273260169775
500,0.0248484949877029,0.2013069905382271,0.13292164635319403,-0.07979916178950208,0.10948863779759335,0.4823420374222135,0.5831348321116179,-0.03968524955198642,-0.00043337704846762036
501,0.025677104190836096,0.2011528564025028,0.13380645040189296,-0.08393719778208315,0.1072443624340813,0.4842234142014569,0.5841867483669823,-0.03975176872625238,-0.0004343269788756274
502,0.025679712552086627,0.20118390533521102,0.13355178441028118,-0.0839371739236221,0.10796686086393179,0.4836847512377724,0.584044071007161,-0.03974855376979492,-0.0004352771346392243
503,0.025682293979984734,0.20121463405304135,0.13329709379867527,-0.08393714990602255,0.10868953796247009,0.48314605168548364,0.5839014529428408,-0.03974533991899143,-0.0004362274720182536
504,0.025684849122776902,0.20124505076136412,0.13304238168172502,-0.0839371256882787,0.10941243221033112,0.4826073459913715,0.583758927264421,-0.03974212805095449,-0.00043717793333103607
505,0.02568737846933877,0.20127516137285034,0.1327876491108908,-0.08393710127139513,0.11013557639055757,0.482068657221825,0.5836165158756306,-0.039738918718118674,-0.000438128463524557
506,0.026506457528694634,0.20112228117497635,0.1336516880033174,-0.0880279445053009,0.10795429611756234,0.48391072540602165,0.5846555315293177,-0.03980468091732661,-0.0004390792304643571
507,0.026509181940726267,0.20115319461178796,0.1333967739451891,-0.08802792088313838,0.1086776580025304,0.48337190480411185,0.5845129189403595,-0.03980146751707037,-0.0004400302405449519
508,0.02651187794764987,0.20118378618153343,0.13314183608872884,-0.08802789707582015,0.10940119011504643,0.4828330444670839,0.5843703620498383,-0.039798255134511094,-0.00044098144326147333
509,0.026514546253822616,0.20121406433071948,0.132886877729649,-0.08802787304509554,0.11012493201155137,0.4822941762894534,0.5842278949472178,-0.03979504467051291,-0.0004419327764353461
510,0.026517187389840123,0.2012440351624613,0.13263190004840095,-0.08802784879404497,0.11084891731580757,0.4817553243839851,0.5840855403209334,-0.039791836696649055,-0.0004428841819213216
511,0.026519801769645662,0.20127370336174932,0.13237690297484855,-0.08802782433606482,0.11157317462646353,0.4812165057621066,0.5839433144601149,-0.03978863161634404,-0.00044383561440263587
512,0.02734636830815447,0.2011182463084523,0.13325970873545295,-0.09215605910170244,0.10935171445328597,0.4831036441405795,0.5850107274280572,-0.03985612613715973,-0.00044478725815150124
513,0.0273491831340764,0.20114874605601604,0.1330045237227592,-0.09215603545367111,0.11007621936526109,0.48256470951236163,0.5848683102788074,-0.03985291726164131,-0.0004457391286498425
514,0.02735196831264533,0.20117892498611073,0.13274931419282449,-0.09215601161956105,0.11080090651003162,0.48202573867158793,0.5847259530427188,-0.03984970950520609,-0.00044669118145625685
515,0.027354724558534795,0.20120879128231567,0.132494083271442,-0.09215598756104325,0.11152581416633132,0.48148676202354374,0.5845836887616753,-0.03984650374407913,-0.0004476433585743204
516,0.027357452407906845,0.20123835083331248,0.13223883202746667,-0.09215596328152637,0.11225097494004233,0.48094780263329273,0.5844415392925647,-0.039843300529556015,-0.0004485956047029457
517,0.027360152278564864,0.2012676081540906,0.13198356032737352,-0.09215593879469994,0.11297641660061326,0.48040887676756333,0.584299520298217,-0.039840100249642726,-0.0004495478765087776
518,0.028193308787419158,0.20110991545357718,0.13288209382409932,-0.09631698475867899,0.1107233737334134,0.4823349958805525,0.5853928299194043,-0.03990917467138217,-0.00045050036471825733
519,0.028196213962964102,0.20114002515846854,0.13262662579408813,-0.09631696109897847,0.11144907484594889,0.48179594990779806,0.585250614321157,-0.03990597048882494,-0.0004514530857544235
520,0.028199088119532884,0.2011698137835956,0.13237113203894915,-0.09631693725263901,0.11217496364386258,0.48125686525725,0.5851084578897736,-0.039902767404633444,-0.0004524059950494301
521,0.028201932007774582,0.2011992895362414,0.13211561578603848,-0.09631691318067935,0.11290107825341517,0.480717772576426,0.584966393892162,-0.039899566301639516,-0.0004533590341717704
