tc-huang/low_cost_robot/result/line.csv
,x,y,z,j0,j1,j2,j3,j4,j5
0,0.008728,0.105265,0.053893999999999984,2.0490962801440652e-07,1.948842015734718e-05,-6.923242613085934e-05,3.018465238817793e-05,-8.329169537214389e-07,-6.934196320654644e-08
1,0.007525415059738632,0.12226570986738639,0.07192648300126585,0.009838814631952155,-0.057690629053464317,0.10473693138991558,0.057796772063731267,-0.00366437390336057,-2.3279203441233111e-07
2,0.006271589024096388,0.13478927939245355,0.09010805943858183,0.018231567356086817,-0.1010939468827699,0.19102458645866838,0.11520743454711603,-0.007306730552640259,-4.4956312624845877e-07
3,0.005115129141517792,0.14348414749302965,0.10591762196565893,0.025190792036065644,-0.12888737047459062,0.25811386328515123,0.1673621616899459,-0.010617112668038518,-6.979168632940437e-07
4,0.004115199365698649,0.14960751430990876,0.11829207204809611,0.030846258529431642,-0.1430518494680109,0.3083703330389738,0.21226153656601998,-0.013468454325542749,-9.705641101369253e-07
5,0.003274846643386651,0.15423146501145693,0.1273413940738683,0.0353716163198003,-0.1469523353504722,0.34544454939488634,0.2500203451025775,-0.01586769727942848,-1.2660297615088674e-06
6,0.002576687723877159,0.15801861474069928,0.1336949918564552,0.03894252962054813,-0.14388167591926745,0.37288557796554417,0.28169488916380303,-0.01788152832658514,-1.5841980794850622e-06
7,0.0020003866290172504,0.1613130222913613,0.13805639848391876,0.041719468684739865,-0.136456889801616,0.39354675409826706,0.30851079822693606,-0.01958744999616972,-1.9247217254962176e-06
8,0.0015277129944747804,0.1642774880295852,0.1410189760848147,0.043843084621876055,-0.1265489436532722,0.4095117993592605,0.3315343803660898,-0.02105293733683441,-2.2867335349711486e-06
9,0.0011430039633870694,0.16698713119426598,0.14302762671969413,0.04543436150632738,-0.1154145953406461,0.4222266859725514,0.3515950065967678,-0.022330499167018496,-2.668992388159932e-06
10,0.0008326794922602025,0.16947885916488042,0.14439668324495591,0.04659615461138651,-0.10386183877214983,0.43266835584620594,0.36930770561277515,-0.02345909307054681,-3.0700960180147475e-06
11,0.0005848378456524018,0.1717742273221433,0.14534102230968002,0.04741502145825557,-0.09239013053847091,0.44148868993433105,0.3851214582000352,-0.024467173597578405,-3.488644718306709e-06
12,0.0003890376240223139,0.17388903439660444,0.1460046942913377,0.04796307501640947,-0.08129429145438613,0.44912132936733346,0.399364960298507,-0.025375583940929244,-3.923339665626064e-06
13,0.00023618135064765525,0.1758369740573562,0.14648310229768183,0.04829979472659167,-0.07073677705339516,0.455855903866906,0.4122823234880002,-0.026199812797215533,-4.3730296709113335e-06
14,0.00011842796380891456,0.17763083413033734,0.14683893437365023,0.04847375959600505,-0.06079623423850944,0.46188785537685006,0.42405875185391767,-0.026951618013163835,-4.836724151699601e-06
15,2.910035535403331e-05,0.17928277533245232,0.14711316610559683,0.048524268222184815,-0.051499429709938954,0.4673512383886554,0.43483830829486203,-0.027640150286158245,-5.313586532261956e-06
16,-3.742030398600285e-05,0.1808043167821419,0.1473324884931193,0.048482816414959586,-0.042841923189730687,0.47234007553426505,0.4447359904047982,-0.028272717163696316,-5.802917747787039e-06
17,-8.581011505496335e-05,0.18220626433295975,0.14751425275822494,0.048374414296895034,-0.034801279444450876,0.4769221762025325,0.4538458921317401,-0.02885529959240025,-6.304135890671831e-06
18,-0.00011992120768418348,0.18349865802627144,0.14766973199077155,0.048218736761251976,-0.02734540128062062,0.48114805110316616,0.46224673324813387,-0.02939290204822722,-6.816755508413351e-06
19,-0.00014289747333949294,0.18469075431831203,0.1478062587389157,0.04803111105878619,-0.020437704104484113,0.4850566586928008,0.4700056373724196,-0.029889791916357742,-7.340368425230974e-06
20,-0.0001572827440260863,0.18579103856170817,0.14792861915947902,0.047823352143830995,-0.014040263416882266,0.4886791135465815,0.47718074819799877,-0.03034966538989784,-7.874626948029245e-06
21,-0.00016511870077966315,0.1868072585711625,0.1480399587264094,0.04760446041780071,-0.008115672431154313,0.49204108677143277,0.48382307344213576,-0.030775764505904905,-8.419229719384177e-06
22,-0.00016803128407215026,0.1877464707804287,0.1481423685934561,0.04738119827270997,-0.0026280868293109593,0.49516436794665625,0.4899778122318664,-0.031170961481211325,-8.973910146276643e-06
23,-0.00016730544956978372,0.18861509254828668,0.1482372639659236,0.0471585620256845,0.0024562365327728125,0.49806788962299375,0.49568533355745203,-0.03153782094406862,-9.538427163319306e-06
24,-0.00016394880769384987,0.18941895619781488,0.14832562744699274,0.04694016502000026,0.007168710804510943,0.5007684070555276,0.5009819158914703,-0.03187864702244767,-1.0112558018235966e-05
25,-0.00015874508710282502,0.19016336198095088,0.14840816498779894,0.0467285462845659,0.011538375605283258,0.5032809563604652,0.5059003206260583,-0.0321955198840531,-1.0696092753804038e-05
26,-0.00015229855375784637,0.1908531283176353,0.14848540543558067,0.04652541749861409,0.015591960264571561,0.5056191698143974,0.5104702476205679,-0.032490324784095935,-1.12888300782684e-05
27,-0.00014507056800185884,0.19149263844476247,0.1485577637945936,0.04633185930386523,0.019354004878995787,0.5077954985895926,0.5147187052761648,-0.03276477567381284,-1.1890574349283345e-05
28,-0.00013740942475011335,0.19208588312057798,0.14862558122069744,0.046148476366862236,0.02284700908550201,0.5098213750670503,0.5186703171694615,-0.033020434766478354,-1.250113343509174e-05
29,-0.00012957453413789746,0.19263649934747007,0.14868915015705692,0.04597551908898443,0.02609159041585184,0.5117073352854971,0.5223475804473945,-0.03325872902587755,-1.3120317255380088e-05
30,-0.00012175588751025916,0.19314780526298755,0.14874873002490868,0.045812978523413865,0.029106641636476985,0.5134631146964985,0.5257710866603138,-0.033480964255952365,-1.3747936840123279e-05
31,-0.00011408963321387928,0.19362283145029963,0.1488045569452156,0.0456606598960061,0.03190948118330338,0.5150977256857083,0.5289597126836973,-0.033688337278718686,-1.4383803776363992e-05
32,-0.00010667046860015836,0.194064348966163,0.14885684971495705,0.04551823913527811,0.034515993700870426,0.5166195223181828,0.5319307873310377,-0.0338819465577505,-1.5027729939891366e-05
33,-9.95614448781653e-05,0.19447489439764576,0.14890581345480294,0.04538530598228793,0.036940759449839565,0.5180362558523091,0.5347002378553126,-0.03406280153533791,-1.567952743127199e-05
34,-9.280168291907285e-05,0.19485679225212385,0.14895164182613663,0.04526139655699183,0.03919717238058959,0.5193551233470002,0.5372827195564233,-0.03423183088911545,-1.633900865408201e-05
35,-8.64124118611755e-05,0.19521217496728582,0.148994518382876,0.045146017685532225,0.041297547253934155,0.5205828109083027,0.5396917310156603,-0.034389889869601814,-1.700598648799165e-05
36,-8.040166827966416e-05,0.19554300080469872,0.14903461741117052,0.045038664825088316,0.04325321649554646,0.5217255326237801,0.5419397169733281,-0.034537766847864595,-1.768027452110457e-05
37,-7.476793098380643e-05,0.19585106986534578,0.14907210447500274,0.04493883504299071,0.04507461760770891,0.5227890659136382,0.5440381604915581,-0.034676189178600124,-1.8361687315191438e-05
38,-6.950291406097788e-05,0.19613803844051883,0.14910713680031148,0.044846036200088125,0.0467713719993138,0.5237787838214666,0.5459976657610308,-0.034805828465768164,-1.9050040684630058e-05
39,-6.45936973492061e-05,0.19640543188768023,0.1491398635766095,0.04475979324206765,0.048352356075571055,0.5246996846332768,0.5478280326911417,-0.03492730530385716,-1.9745151975376716e-05
40,-6.002433783378579e-05,0.19665465619899336,0.14917042622168836,0.04467965230562376,0.04982576537913376,0.5255564191249847,0.5495383242501062,-0.035041193556739875,-2.0446840334495627e-05
41,-5.5777076350693906e-05,0.19688700841039375,0.14919895863448318,0.04460518318981064,0.05119917251042582,0.5263533156789434,0.5511369273823828,-0.035148024227134415,-2.1154926963935153e-05
42,-5.183323037327801e-05,0.19710368598135625,0.14922558744877168,0.04453598061889594,0.05247957948639488,0.5270944034690631,0.552631608217106,-0.03524828896237341,-2.1869235354598952e-05
43,-4.817384462075039e-05,0.1973057952598249,0.1492504322930749,0.04447166462519798,0.053673465129185235,0.5277834338847943,0.5540295621870333,-0.0353424432361251,-2.2589591498488556e-05
44,-4.478015594745928e-05,0.19749435913295987,0.1492736060579743,0.044411880303515,0.05478682801226506,0.5284239003425998,0.5553374595985447,-0.03543090924063122,-2.331582407795284e-05
45,-4.163391676376832e-05,0.1976703239522317,0.1492952151698479,0.044356297128595915,0.055825225432764976,0.5290190566168683,0.556561487126387,-0.03551407851972972,-2.404776463196624e-05
46,-3.871761152458332e-05,0.1978345658107938,0.14931535986897038,0.04430460798021585,0.0567938088256979,0.5295719338088439,0.5577073856498032,-0.035592314369264695,-2.4785247699980245e-05
47,-3.601459312210006e-05,0.1979878962417898,0.14933413448955657,0.04425652798403504,0.05769735598830221,0.530085356061035,0.5587804847976817,-0.03566595402834008,-2.5528110944300093e-05
48,-3.3509159939193976e-05,0.19813106739816133,0.1493516277393336,0.0442117932483131,0.05854030044069707,0.53056195511505,0.5597857345280154,-0.03573531068215772,-2.6276195252200835e-05
49,-3.1186589536568755e-05,0.19826477676744547,0.14936792297643706,0.044170159554946256,0.05932675821191183,0.531004183802464,0.5607277340302229,-0.0358006752948259,-2.7029344819149076e-05
50,-2.9033141197475944e-05,0.1983896714688818,0.14938309848173043,0.04413140104678033,0.06006055230766758,0.5314143285508935,0.5616107582068744,-0.0358623182884751,-2.7787407214564484e-05
51,-2.7036036625687106e-05,0.19850635217473486,0.14939722772497077,0.04409530894060623,0.060745235087556276,0.5317945209807561,0.5624387819633822,-0.03592049108322774,-2.855023343157203e-05
52,-2.5183425814801624e-05,0.19861537669301982,0.14941037962356293,0.044061690285782294,0.06138410875402153,0.5321467486621018,0.5632155025096909,-0.035975427511001155,-2.931767792216667e-05
53,-2.3464343342115106e-05,0.19871726324467082,0.14942261879293883,0.04403036678135152,0.06198024413336157,0.5324728650953546,0.5639443598564466,-0.03602734511474643,-3.008959861916361e-05
54,-2.186865897916678e-05,0.19881249346455526,0.14943400578785448,0.044001173659284035,0.06253649790947527,0.5327745989747082,0.5646285556691292,-0.03607644634351402,-3.086585694624106e-05
55,-2.0387025465769433e-05,0.1989015151525495,0.1494445973341198,0.04397395863764729,0.06305552845390644,0.5330535627882592,0.5652710706268722,-0.036122919652668,-3.164631781729692e-05
56,-1.9010825496573736e-05,0.1989847447980756,0.14945444655046283,0.0439485809447543,0.06353981038062266,0.5333112608046757,0.5658746804178619,-0.03616694051762593,-3.243084962626802e-05
57,-1.7732119363093532e-05,0.1990625698990282,0.1494636031603825,0.04392491041340363,0.06399164794062227,0.5335490964922693,0.5664419704900643,-0.03620867236866448,-3.321932422846901e-05
58,-1.6543594237795195e-05,0.19913535109383515,0.1494721136939742,0.04390282664300257,0.06441318735967508,0.5337683794127248,0.5669753496643613,-0.03624826745358812,-3.4011616914427946e-05
59,-1.5438515745324483e-05,0.19920342412346426,0.14948002167980864,0.04388221822650115,0.06480642821207235,0.5339703316284254,0.5674770627067983,-0.036285867634398346,-3.480760637711577e-05
60,-1.441068221329396e-05,0.1992671016384826,0.14948736782702687,0.04386298203854052,0.06517323391401551,0.534156093659267,0.5679492019473997,-0.03632160512351276,-3.560717467338796e-05
61,-1.3454381810331165e-05,0.19932667486475947,0.14949419019787777,0.04384502258094244,0.06551534141206528,0.5343267300220548,0.568393718024759,-0.03635560316455934,-3.6410207180386594e-05
62,-1.5226124245271318e-05,0.19936708163330882,0.14927419400083702,0.04384502258067514,0.06611566602340258,0.5338344837800121,0.5682503901830799,-0.03635238086599196,-3.721647334066464e-05
63,-1.3549477092665574e-05,0.19941088287894757,0.1493584117386494,0.0438269289858033,0.06623028930812758,0.5341556529105823,0.5687508528789333,-0.036389933160765504,-3.80259982503943e-05
64,-1.2242133221518e-05,0.19945520916996975,0.14941451962726024,0.04381058382435873,0.06639520554751639,0.5344047580082304,0.5691974000544244,-0.03642408259528613,-3.883867842197891e-05
65,-1.4042615362419575e-05,0.19949629432407964,0.14919179827413107,0.04381058569436051,0.06700442145381774,0.5339085676266534,0.5690533675400462,-0.03642084290494439,-3.96542896485605e-05
66,-1.2187834084296731e-05,0.1995278570665129,0.1493085602635939,0.04379430726068998,0.06698828376413708,0.5342740098600309,0.5695407504411467,-0.03645758966059408,-4.047286190362967e-05
67,-1.0816967361883603e-05,0.1995621562523136,0.1493854071453652,0.04377986332470117,0.06705605043455301,0.534543912363929,0.5699646168841642,-0.03649032598367908,-4.1294302886810815e-05
68,-1.2645147472422659e-05,0.19960389538138346,0.1491602304089497,0.04377986668883003,0.06767323755231025,0.5340441513161571,0.5698199221359613,-0.036487069998780056,-4.211840199099219e-05
69,-1.0784152103123293e-05,0.1996268483415209,0.14929106813438955,0.04376546151874998,0.06757987099043115,0.5344175153708821,0.5702800904762586,-0.036522115798825326,-4.29451901738664e-05
70,-1.2625435843682808e-05,0.1996688957783327,0.149064404176152,0.043765465873209286,0.06820192891193186,0.5339155714649013,0.570135022048632,-0.036518850534392126,-4.377446184323754e-05
71,-1.0478474064054034e-05,0.19968349259061663,0.14923051461218342,0.04375146538232175,0.06799721664793926,0.5343531978207715,0.5706125256411565,-0.03655500514923406,-4.4606254285931016e-05
72,-8.98882350635049e-06,0.19970404343988496,0.14933887272920093,0.04373945996516123,0.06792655403719478,0.5346595350963952,0.5710113983701719,-0.036586192768746466,-4.544049170458327e-05
73,-1.0856669663269342e-05,0.19974671789963766,0.14911014706016884,0.04373946533469863,0.06855525330776292,0.5341545763222119,0.5708657371189519,-0.03658291300624351,-4.6276983337554574e-05
74,-8.965359388494326e-06,0.19975797638231607,0.14926236022802997,0.043727487213436694,0.0683531449553152,0.5345445230450219,0.5712934238435542,-0.036615934753449535,-4.711576446498555e-05
75,-1.0844076406493416e-05,0.19980090749056462,0.14903238760846027,0.04372749334031386,0.06898590392446065,0.5340377254808473,0.5711474389233843,-0.03661264696266894,-4.79566480067872e-05
76,-8.717338071602063e-06,0.19980529601279687,0.14921326593990344,0.04371584366031509,0.06869278778314392,0.5344795300232128,0.5715886176466007,-0.03664653266748912,-4.8799674157611895e-05
77,-7.289529100540891e-06,0.199816959592652,0.1493308828928405,0.04370610679357566,0.06855119265770454,0.5347801807659956,0.5719486513766795,-0.036675291696239475,-4.9644780183672835e-05
78,-9.191754892186495e-06,0.19986044569313421,0.14909918397461697,0.04370611366598512,0.06918947793435737,0.5342708442879873,0.5718021490583441,-0.03667199128791361,-5.0491794199818305e-05
79,-7.370307890150474e-06,0.19986361987590956,0.14925825857319888,0.04369626531710726,0.06892547463779587,0.5346514386291009,0.5721912869768363,-0.03670260106734028,-5.134075263026699e-05
80,-9.281045427201803e-06,0.19990730764664938,0.14902551642666972,0.04369627280492136,0.0695671437985366,0.5341405596216391,0.5720445117361828,-0.036699293886725035,-5.219148630262192e-05
81,-7.225908238783253e-06,0.1999042708416069,0.14921164641725354,0.043686614801887756,0.06921895744112924,0.5345709645663711,0.572448131059134,-0.03673082849228842,-5.304403716306183e-05
82,-5.8801463697858575e-06,0.1999092465029848,0.14933242837507368,0.04367875993677857,0.06903032669631597,0.5348573182533738,0.572771186681884,-0.0367572725305322,-5.389835428530759e-05
83,-7.811328561635293e-06,0.199953416827985,0.14909824323211532,0.04367876799854399,0.06967659525381255,0.5343443083136639,0.5726239677490222,-0.03675395455540523,-5.475428351987676e-05
84,-6.063586421317484e-06,0.19995032775128418,0.14926010685922605,0.043670664800015614,0.06936886794394423,0.5347109949103619,0.5729781031233556,-0.03678237269305302,-5.56118625623285e-05
85,-8.00119449031328e-06,0.1999946509866935,0.1490250498541263,0.043670673378808186,0.07001795837515759,0.5341966944653813,0.5728306579161598,-0.036779049096991916,-5.647093874447578e-05
86,-6.012405963579277e-06,0.19998574306978914,0.14921367179139364,0.04366263618030228,0.06962901102193486,0.5346137002909376,0.5732012075046798,-0.03680851277557305,-5.733155585279995e-05
87,-4.736785735402066e-06,0.19998536287943014,0.149335876144517,0.043656308252332715,0.06940455688775608,0.5348856569972607,0.5734923787986307,-0.0368329602788877,-5.8193673514274005e-05
88,-6.692155648600762e-06,0.20003010514657538,0.1490996138851765,0.04365631728138907,0.07005747551019219,0.5343695706590409,0.5733445556973176,-0.0368296275121382,-5.905715332887723e-05
89,-5.0048334434404235e-06,0.2000219466518626,0.14926302172387712,0.04364962820543722,0.06971554262800644,0.5347231029372177,0.5736689056890002,-0.03685618047215206,-5.9922034360451e-05
90,-6.964861526977291e-06,0.20006680043586267,0.14902603111591897,0.04364963767690365,0.07037081512900084,0.534205938198474,0.573520896844946,-0.03685284308397324,-6.0788178369935245e-05
91,-5.029003568023625e-06,0.2000531060210725,0.14921622965895817,0.043642914065650885,0.06994939145841465,0.5346108020606093,0.5738635573829293,-0.03688056020878867,-6.165563090040883e-05
92,-3.8089516722333155e-06,0.20004834049300382,0.1493392972370869,0.04363782531707688,0.06969609684627381,0.5348701574689609,0.5741280029900169,-0.036903334244858144,-6.252436068075562e-05
93,-5.7844733668066875e-06,0.20009355954034996,0.149101300267807,0.04363783514281814,0.07035455500391107,0.53435149635614,0.5739796726605317,-0.036899989077002905,-6.339424282429843e-05
94,-4.144511891825131e-06,0.20008123475487177,0.14926578987645814,0.043632295221426406,0.06998481477721101,0.5346937055166782,0.5742791583042524,-0.03692498510943707,-6.426531766750152e-05
95,-6.123210919320443e-06,0.20012653060287183,0.1490271845124727,0.04363230543021917,0.07064523670640949,0.5341741435859267,0.5741306766040186,-0.03692163616744281,-6.513745925231306e-05
96,-4.228618345730739e-06,0.20010889249142225,0.14921856694325947,0.04362665099759739,0.07019724053337949,0.534568681962509,0.5744501209862266,-0.03694789949960275,-6.601071467743038e-05
97,-3.0522947272069653e-06,0.20010050873073998,0.149342270370673,0.04362257285119124,0.0699202688654432,0.5348174228598236,0.574692357297799,-0.036969283012967404,-6.688506037503118e-05
98,-5.044588691330981e-06,0.20014612479230748,0.14910282482059029,0.04362258333701295,0.07058334069891962,0.5342966066559882,0.5745436016889917,-0.036965927464097964,-6.776038286545421e-05
99,-3.4418160267685877e-06,0.20013035783675304,0.14926816417814845,0.04361798206290957,0.07019069277481135,0.5346293290188348,0.5748224523706242,-0.036989631549671616,-6.863672360028951e-05
100,-5.436050807456488e-06,0.20017602168512216,0.14902821041581402,0.04361799288347863,0.07085540302464814,0.5341077603645887,0.5746735742603655,-0.036986272938156595,-6.951396694673317e-05
101,-3.5738721932106546e-06,0.20015512228264437,0.1492205479459235,0.04361321311398698,0.07038546675600162,0.5344936817959434,0.574973768796726,-0.0370113309984493,-7.039216134446994e-05
102,-2.432295562683831e-06,0.20014374509440153,0.1493447611476369,0.0436099630719856,0.07008892711978562,0.53473358503503,0.5751975966668847,-0.03703156211543622,-7.127128969462479e-05
103,-4.438540524568518e-06,0.2001896915258705,0.1491041059643631,0.043609974106354754,0.07075584038761652,0.5342109642925422,0.5750484845257263,-0.037028197879847985,-7.215124807242303e-05
104,-2.865319617584468e-06,0.2001710751984689,0.14927014226998764,0.04360614292778169,0.07034423548800194,0.5345358037955951,0.5753102397704127,-0.037050831777566046,-7.303207889146587e-05
105,-4.872473786569388e-06,0.2002170451939064,0.1490290625172437,0.04360615425716051,0.07101251575187371,0.5340125544679546,0.5751610292870228,-0.03704746507465545,-7.391367514897839e-05
106,-3.0360913375812593e-06,0.20019344508474485,0.1492221903461447,0.04360209291980522,0.07052440761315248,0.5343913261400031,0.5754452807438782,-0.037071525052088376,-7.479608643666205e-05
107,-1.922440395487994e-06,0.2001795887380127,0.14934682483391595,0.04359952388347902,0.07021165831301096,0.5346238968725804,0.5756538611663187,-0.03709080180079735,-7.567930107341146e-05
108,-3.940283035640951e-06,0.2002258099120733,0.14910515950919007,0.04359953537447016,0.0708817687673656,0.5340997642314336,0.5755044499984323,-0.037087430295526254,-7.656322310463282e-05
109,-2.390821548561503e-06,0.20020483304819647,0.1492717758664517,0.043596338054679044,0.07045445092413471,0.534418069741404,0.5757520483713944,-0.03710917810085373,-7.744789577585653e-05
110,-1.459896359270324e-06,0.20019233408299703,0.14937926559688597,0.043594387935821884,0.0701787117306198,0.5346103105758503,0.5759345557245801,-0.037126811628810555,-7.83333055762215e-05
111,-3.4852599003157986e-06,0.2002387322543121,0.14913707717147712,0.04359439962638105,0.07085044606593471,0.5340853772288688,0.5757849665124044,-0.03712343582530439,-7.921935976806052e-05
112,-2.0486569153018233e-06,0.20021824620248305,0.1492928054962429,0.04359166029449182,0.07044439204151877,0.5343768347711751,0.576013676944899,-0.03714399439062585,-8.010609729033732e-05
113,-4.0730275623068746e-06,0.20026462331912528,0.1490503001077078,0.043591672253537814,0.07111714873452663,0.5338514335683004,0.5758640252306925,-0.037140616991876714,-8.099342261984459e-05
114,-2.326936232177265e-06,0.20023874732810665,0.1492372183648639,0.0435885590136636,0.07062525105174901,0.5342061668606172,0.5761209354595516,-0.03716296125193573,-8.188138504868286e-05
115,-1.2812230207517178e-06,0.2002225219738426,0.14935773792268245,0.043586846879377764,0.07030452199816407,0.5344198756790597,0.5763057647585086,-0.03718074891505417,-8.276997974980438e-05
116,-3.314001532622908e-06,0.20026909637658893,0.14911479553317608,0.04358685895684317,0.07097863961427317,0.5338938117454483,0.5761559625726311,-0.03717736793934311,-8.36591219019423e-05
117,-1.8116060343719917e-06,0.20024564892370061,0.14927915346516146,0.04358443574859907,0.07053966102266847,0.5341977588584075,0.5763829411466729,-0.03719782369970121,-8.45488558494224e-05
118,-9.204950151215155e-07,0.20023075921776337,0.14938509086502022,0.04358320632093171,0.07025152243540904,0.5343777814836586,0.5765467651116918,-0.03721428728802914,-8.54391746211479e-05
119,-2.9590283308761345e-06,0.2002774688357969,0.14914175789386006,0.043583218546547405,0.07092684355545115,0.5338511134360805,0.5763968277449248,-0.03721090306538266,-8.632999519419035e-05
120,-1.5517799177942188e-06,0.20025461017478585,0.14929684130602963,0.043581143171236666,0.07050703229745746,0.5341327720515198,0.5766088248547124,-0.0372304154162123,-8.722135790154558e-05
121,-3.5882830805951046e-06,0.200301274420693,0.14905327096570745,0.04358115562848305,0.07118312031825381,0.533605755645922,0.5764588498685085,-0.037227030210225075,-8.811317587884864e-05
122,-1.865017770709583e-06,0.20027308868096133,0.1492401020663658,0.04357865966114399,0.07067694687854881,0.5339523492688842,0.5767005870095868,-0.037248424878087716,-8.900550002096566e-05
123,-8.426699549327066e-07,0.20025471122027289,0.14936048505100138,0.04357753343151203,0.07034296639985739,0.5341583512104799,0.5768711675307294,-0.03726532113327638,-8.989833101217432e-05
124,-2.8862656623069444e-06,0.20030154160595026,0.14911658763254892,0.04357754595662057,0.07102006431297929,0.5336308339621278,0.5767210756004119,-0.03726193317510164,-9.079159174669944e-05
125,-1.402704297166768e-06,0.2002760180567726,0.14928115478618037,0.04357566909986727,0.07056775836233567,0.5339282200169793,0.5769350007254097,-0.03728157242964277,-9.168532779534538e-05
126,-5.316615521661419e-07,0.20025920521935547,0.1493871566871774,0.0435749591088967,0.07026745761271182,0.5341018445424492,0.5770864742391886,-0.03729726373191661,-9.257953688791917e-05
127,-2.5798445962808836e-06,0.2003061431627836,0.14914296706631502,0.04357497173532723,0.07094544359608335,0.5335738675376283,0.5769362763893998,-0.03729387324707464,-9.347414265070877e-05
128,-1.1890505521600786e-06,0.20028143679333624,0.14929836066692734,0.04357338099025683,0.07051355771173494,0.533850009409384,0.5771369101956781,-0.037312675124015815,-9.436918648012881e-05
129,-3.762321261714316e-07,0.2002650067716636,0.1493984283878157,0.04357287901876268,0.07022549367466337,0.5340093713033799,0.5772787901810603,-0.03732776277987284,-9.526466594349896e-05
130,-2.427824279598728e-06,0.2003120246416592,0.1491539783537165,0.043572891761482095,0.07090427024044596,0.5334809825743989,0.5771285015338863,-0.03732437012538893,-9.616050696004321e-05
131,-1.0719553135921794e-06,0.20028740074980117,0.14930563325516116,0.04357145780266876,0.07047913266466437,0.533747604843984,0.5773220920929018,-0.037342729363537275,-9.70567504559979e-05
132,-3.120355883641686e-06,0.20033434605159678,0.1490610240110483,0.04357147074650552,0.07115842681837072,0.5332189860081382,0.5771717917883515,-0.037339336361530105,-9.795331802913008e-05
133,-1.431884755074414e-06,0.20030429943963296,0.14924597207346593,0.04356955378997471,0.07064378044102586,0.5335542535920469,0.5773976457565196,-0.03735973668391683,-9.88502621046377e-05
134,-4.387181020753736e-07,0.20028411350675884,0.14936506596005922,0.04356896737522146,0.07030060571451349,0.5337506811822114,0.5775538767285706,-0.037375735303271776,-9.974758886112358e-05
135,-2.492775535290273e-06,0.20033119106848413,0.14912023735030208,0.04356898034223188,0.07098056815626486,0.5332217218626121,0.5774034944797699,-0.037372340407279235,-0.00010064522877981907
136,-1.030251282591911e-06,0.20030386375268147,0.14928426950531215,0.043567601254805105,0.07051787375539471,0.5335115093032331,0.577604636379683,-0.03739118036267999,-0.00010154322896417885
137,-1.7928820985994853e-07,0.20028535002397177,0.14938986101342025,0.04356736208034988,0.0702075823595605,0.5336782307375004,0.5777442481945213,-0.037406130403542584,-0.00010244159194881236
138,-2.236735352058837e-06,0.2003325068617997,0.14914483636438952,0.04356737510399076,0.0708881261734899,0.5331489541887351,0.5775937899992518,-0.03740273371763995,-0.00010334024782786928
139,-8.613074305458684e-07,0.20030614100216312,0.14930023276692267,0.043566222320208396,0.07044585018724292,0.5334193988128474,0.577783669916523,-0.03742086375897066,-0.00010423923942558486
140,-6.450971149797591e-08,0.2002881661931289,0.14940024465643012,0.04356613681761984,0.07014818154459848,0.5335733182920402,0.5779154262365672,-0.0374353192264269,-0.00010513856850946988
141,-2.1243274704180193e-06,0.20033537842746507,0.14915504558135792,0.04356614991548391,0.07082924050836967,0.5330437569863787,0.5777649032499644,-0.03743192101080875,-0.00010603816654620153
142,-7.811950245824664e-07,0.20030926160277257,0.149306905908784,0.04356510447185676,0.0703944143715709,0.5333057802613408,0.5779492347112002,-0.0374497021746375,-0.0001069380757625651
143,-4.2487145190950315e-09,0.2002913724906376,0.14940462841667726,0.043565099664743444,0.07010107079468234,0.533453979962073,0.5780768930365174,-0.03746390041210814,-0.00010783829881249532
144,-2.0659188652658728e-06,0.2003386280057967,0.14915927392038075,0.04356511283999078,0.070782588449113,0.5329241644670831,0.57792631489237,-0.037460500898387705,-0.00010873876881815301
145,-7.34105857552389e-07,0.20031248151311098,0.14930971239372468,0.04356413048356255,0.0703499429681122,0.5331823519185729,0.5781075765889719,-0.03747808967849999,-0.00010963952841957895
146,3.587497211191698e-08,0.20029450583720768,0.14940650996580934,0.043564179395333164,0.0700575832228583,0.5333278223367628,0.578232797536434,-0.03749213546358657,-0.00011054058136749621
147,-2.0273383722433508e-06,0.20034179742710628,0.14916101666228615,0.04356419264399859,0.07073950935421751,0.5327977792222822,0.5780821716419936,-0.03748873483202524,-0.00011144186215664479
148,-6.992092741464617e-07,0.20031552089236812,0.1493109070622201,0.04356325701619576,0.07030696023168272,0.5330540763830633,0.5782614843764663,-0.03750620190256556,-0.00011234341399129973
149,6.835097252338301e-08,0.20029740125279072,0.14940734401176203,0.04356334938803281,0.07001428964425051,0.5331981012147923,0.5783850447341526,-0.03752014416935667,-0.00011324524157638064
150,-1.996189477608719e-06,0.200344723892302,0.14916172650361376,0.04356336270333938,0.07069657908220914,0.5326678533562507,0.5782343767742355,-0.03751674255916393,-0.00011414728046266487
151,-6.692089870958748e-07,0.20031828921609257,0.14931142762353727,0.043562467224158935,0.07026335282455431,0.5329231035830395,0.5784122860565302,-0.03753412225545473,-0.00011504957436220434
152,9.735449090029352e-08,0.20030001425009156,0.1494077360469069,0.04356259839190262,0.06996991590541259,0.5330662521962601,0.5785345849531113,-0.03754798609254889,-0.00011595212876020662
153,-1.9683434590066565e-06,0.2003473639971053,0.14916200725218995,0.043562611766443556,0.07065252797038932,0.5325358194588902,0.5783838794426496,-0.037544583614656915,-0.00011685488002222415
154,-6.418247624311035e-07,0.20032077150649977,0.14931166435790405,0.04356175291810656,0.07021838485273277,0.5327904038682676,0.5785606822893182,-0.03756189458684041,-0.000117757872288677
155,1.240779113282145e-07,0.2003023475092711,0.14940793856625073,0.04356191982002073,0.06992406511725574,0.532932944501758,0.57868195294387,-0.03757569461671923,-0.00011866111168804859
156,-1.9426350979911272e-06,0.20034972105103543,0.14916210996878174,0.04356193324673308,0.07060696322485084,0.5324023443212211,0.5785312136120996,-0.0375722913629169,-0.00011956453523062098
157,-6.164952946700192e-07,0.2003229814839241,0.14931178001268858,0.0435611082700679,0.07017187583756343,0.5326564482836903,0.5787070955452427,-0.037589545230534926,-0.0001204681874230081
158,1.4875605079157916e-07,0.2003044208036227,0.14940805729188317,0.043561308163738086,0.06987668922129185,0.5327985203019403,0.5788274943743721,-0.03760329123689735,-0.00012137207493777098
159,-1.918848235365686e-06,0.2003518152582318,0.14916213913250642,0.043561321636262675,0.07055984052031919,0.5322677681069753,0.578676724399905,-0.03759988728549104,-0.0001222761353086431
160,-5.931567000905247e-07,0.20032494245084137,0.14931184273039919,0.04356052786248834,0.07012386138229149,0.5325214924346806,0.5788518173716238,-0.03761709229501976,-0.0001231804133650323
161,1.7139152359325893e-07,0.20030625882422123,0.14940813686803264,0.04356075801245101,0.0698278714448984,0.5326631783583214,0.578971461959519,-0.03763079161931867,-0.00012408491625102693
162,-1.896994734500862e-06,0.20035367164405318,0.14916213829596078,0.04356077152520706,0.07051124646966932,0.5321322878741975,0.5788206641095789,-0.03762738703851112,-0.00012498958193308716
163,-5.71825608675601e-07,0.20032667964028986,0.1493118812802071,0.04356000626636877,0.07007445401989111,0.532385695407373,0.5789950714307592,-0.03764454963656434,-0.00012589445553311165
164,1.919853960218043e-07,0.2003078863894841,0.14940819647195938,0.04356026394076605,0.06977773759846506,0.5325270512348199,0.5791140571247508,-0.037658208224722246,-0.00012679954461121656
165,-1.8770856089070712e-06,0.20035531530634523,0.14916212566944834,0.043560277488907034,0.07046130993911298,0.5319960347096907,0.5789632338395255,-0.03765480307467053,-0.00012770478749491877
166,-5.524810520862039e-07,0.20032821728435132,0.14931190800851019,0.043559538086960996,0.07002378695498732,0.5322491700123203,0.5791370412901764,-0.03767192860861769,-0.00012861022957638197
167,2.1059014751901445e-07,0.20030932668453166,0.1494082446167371,0.043559820625444425,0.06972642065836931,0.5323902381627562,0.5792554488133743,-0.037685551490708145,-0.00012951587878711341
168,-1.8590788395398197e-06,0.20035676967278632,0.14916210890518514,0.04355983420477359,0.07041016665443722,0.5318591065456906,0.5791046022603834,-0.03768214582485514,-0.00013042167375643183
169,-5.350486918971609e-07,0.20032957761025716,0.14931192837959142,0.04355911810220504,0.06997199203161836,0.5321120043878892,0.579277883367253,-0.03769923887525977,-0.00013132766012939422
170,2.2730589940758023e-07,0.2003106007290886,0.14940828530988945,0.043559422979093244,0.06967404729635829,0.5322528193825553,0.5793957826123819,-0.03771283040423915,-0.0001322338461715002
171,-1.8428835238705477e-06,0.20035805597736436,0.1491620912421317,0.04355943658597326,0.07035794575621462,0.5317215824703695,0.5792449147245556,-0.037709424270248613,-0.000133140170763301
172,-5.194141810636183e-07,0.2003307806101618,0.14931194494599395,0.04355874137882721,0.06991919174764727,0.5319742716164533,0.5794177335363648,-0.03772648882541187,-0.00013404667978838465
173,2.422635590028713e-07,0.2003117273308554,0.14940832062090975,0.04355906624392336,0.06962073336949508,0.5321148627068812,0.5795351856978437,-0.03774005281105393,-0.00013495338181401925
174,-1.8283769451805237e-06,0.2003591932185136,0.1491620740625836,0.043559079875193335,0.07030476531581009,0.5315835292694686,0.5793842982024757,-0.03773664625152257,-0.00013586021592797086
175,-5.05440422997154e-07,0.20033184410944108,0.14931195900482538,0.04355840334320335,0.06986549696054985,0.5318360342842374,0.5795567109563411,-0.037753685812098765,-0.0001367672282399958
176,2.5560894485396335e-07,0.20031272321938084,0.14940835175640535,0.04355874604151565,0.0695665830000896,0.5319764267802162,0.5796737699061336,-0.037767225607269216,-0.00013767442759088396
177,-1.8154205892193312e-06,0.20036019829613247,0.14916205795822537,0.043558759694419615,0.07025073144022934,0.5314450046698779,0.5795228643483722,-0.03776381866030507,-0.00013858175323686067
178,-4.929814362477497e-07,0.20033278393931847,0.14931197129228818,0.04355809981270862,0.0698110068343397,0.5316973468736536,0.5796949206147961,-0.03778083631105684,-0.00013948925150294124
179,2.674912287182682e-07,0.20031360323660402,0.14940837951448688,0.04355845838880039,0.0695116890329435,0.5318375629028542,0.5798116339062183,-0.03779435487456231,-0.00014039693147842978
180,-1.8038718095740591e-06,0.20036108620451554,0.1491620431767092,0.043558472060927216,0.07019593875249194,0.5313060591508879,0.5796607116689733,-0.037790947574275036,-0.00014130473255367148
181,-4.818917638633666e-07,0.2003336141357029,0.14931198227800785,0.043557826999196796,0.06975580961070706,0.531558257196245,0.5798324552267289,-0.03780794603882542,-0.00014221270125917496
182,2.7805553472030897e-07,0.2003143805349637,0.14940840448040957,0.04355819969169426,0.06945613396551292,0.5316983162028933,0.579948864892762,-0.03782144598533956,-0.00014312084691050058
183,-1.7935913167099402e-06,0.20036187023243807,0.14916202981045407,0.04355821338092771,0.07014047134291566,0.5311667371055212,0.5797979272140197,-0.03781803836226703,-0.00014402910900158155
184,-4.720321998205601e-07,0.20033434713391862,0.14931199229239966,0.04355758149503458,0.06969998362923494,0.5314188073751188,0.5799693967657384,-0.03783502004783787,-0.0001449375342596139
185,2.8743867724109057e-07,0.2003150667646392,0.14940842711387042,0.04355796672546965,0.06939999098762639,0.5315587264883733,0.5800855399871191,-0.03784850368965018,-0.00014584613220654344
186,-1.784447515521502e-06,0.20036256215210718,0.14916201787788272,0.04355798042994692,0.07008440382795422,0.5310270776834696,0.57993458797522,-0.037845095771134915,-0.00014675484241269686
187,-4.632728996239316e-07,0.20033499394855653,0.1493120015839913,0.04355736024934762,0.06964359836919169,0.5312790345944384,0.580105817755332,-0.037862062806528714,-0.00014766371179398695
188,2.9576703029256246e-07,0.20031567224396207,0.14940844779050794,0.04355775660817301,0.06934332499035369,0.5314188289233733,0.5802217274350284,-0.03787553218942284,-0.0001485727500609792
189,-1.7763187020528037e-06,0.20036317239108195,0.14916200735952329,0.043557770326250175,0.07002780237629286,0.5308871154591049,0.5800707620822533,-0.03787212399994683,-0.0001494818968361458
190,-4.5549477596402294e-07,0.20033556433555294,0.14931201034702493,0.04355716053959689,0.06958671542823132,0.5311389717118064,0.5802417823836782,-0.03788907826843543,-0.00015039119921689015
191,3.031557524518433e-07,0.20031620611199394,0.14940846682366918,0.04355756677117805,0.06928619349482616,0.5312786545929546,0.5803574876476573,-0.0379025352029503,-0.00015130066708650097
192,-1.769093896960075e-06,0.20036371018619423,0.14916199821495374,0.04355758050140119,0.06997072565315057,0.5307468809892462,0.5802065098423541,-0.037899126764433834,-0.0001522102400979665
193,-4.4858983246683776e-07,0.200336066936675,0.14931201873616234,0.04355697994170182,0.06952938941139192,0.5309986477781545,0.5803773474772519,-0.03791606993251793,-0.00015311996552362447
194,3.097088281398333e-07,0.20031667646414267,0.14940848447735908,0.043557394929371954,0.06922864748854332,0.5311382309884308,0.580492874113934,-0.03792951602137141,-0.00015402985340525713
195,-1.7626728561750613e-06,0.20036418372036435,0.14916199039143496,0.04355740867045275,0.06991322567048165,0.5306064012920272,0.580341884651366,-0.03792610735344044,-0.00015493984340706656
196,-4.4246087547474e-07,0.20033650940769585,0.14931202687535228,0.04355681630062285,0.06947166872683684,0.5308580884879078,0.5805125633561302,-0.03794304089611998,-0.00015584998297037795
197,3.155195708644948e-07,0.20031709047230736,0.14940850097498543,0.04355723905241557,0.06917073217096989,0.5309975824300351,0.5806279342033167,-0.03795647755834712,-0.00015676028228272658
198,-1.7569656138747766e-06,0.20036460024382038,0.14916198382879153,0.043557252803210635,0.06985534854503478,0.5304657002638382,0.5804769337953741,-0.0379530686785726,-0.00015767068100230148
199,-4.3702088702631675e-07,0.20033689853185735,0.1493120348638589,0.04355666770246749,0.06941359629344439,0.5307173165726089,0.5806474745874568,-0.03796999390160494,-0.00015858122673402132
200,3.2067136438926336e-07,0.20031745449116994,0.1494085165058876,0.043557097337843124,0.06911248761531957,0.5308567304375835,0.5807627098735778,-0.03798342239384027,-0.0001594919297997659
201,-1.7518917826810435e-06,0.20036496618135083,0.14916197846247864,0.043557111097336364,0.06979713517130896,0.5303247990448617,0.5806116991574769,-0.03798001331795255,-0.00016040272983633338
202,-4.321922355944932e-07,0.20033724032021785,0.14931204278075544,0.04355653244865058,0.0693552101681623,0.5305763521467594,0.5807821206501613,-0.037996931377481794,-0.00016131367460734577
203,3.2523850430638684e-07,0.20031777415217605,0.14940853123053893,0.043556968186349104,0.0690539493547948,0.5307156940566249,0.5808972382955024,-0.03801035281274067,-0.0001622247745588114
204,-1.7473797489413537e-06,0.20036528722714675,0.14916197422568378,0.04355698195363651,0.06973862181780673,0.5301837163406272,0.5807462178415786,-0.03800694355482159,-0.00016313596929241092
205,-4.2790583091537743e-07,0.2003375401003739,0.1493120506884755,0.04355640903231482,0.06929654410151542,0.5304352130124013,0.5809165365218404,-0.038023855474701565,-0.00016404730672603716
206,3.292870586315069e-07,0.2003180544466182,0.14940854528484862,0.0435568501793601,0.06899514890147988,0.5305744901459106,0.5810315524045809,-0.03803727083896322,-0.00016495879742067814
207,-1.743365845158218e-06,0.2003655684286557,0.1491619710508494,0.04355686395363666,0.06967984065490111,0.5300424687053628,0.5808805227232712,-0.038033861411618186,-0.00016587038093064218
208,-4.2410028494588303e-07,0.20033780259489656,0.1493120586357128,0.04355629611702713,0.06923762802925085,0.5302939149276918,0.5810507531971589,-0.03805076809870648,-0.00016678210532407775
209,3.32875701224665e-07,0.20031829979908725,0.1494085587837863,0.04355674205884557,0.06893611420549453,0.5304331336309959,0.5811656813884112,-0.03806417826556109,-0.0001676939812687608
210,-1.739793546078408e-06,0.20036581426072403,0.14916196887080913,0.043556755839393856,0.0696208202220301,0.5299010707919037,0.5810146429365095,-0.038060768680073256,-0.00016860594826068525
211,-4.207211130227012e-07,0.20033803199068292,0.14931206665982807,0.04355619251765933,0.06917848850740045,0.5301524718438843,0.581184798145907,-0.03807767093773812,-0.00016951805451462118
212,3.360564935937435e-07,0.20031851413241486,0.1494085718244663,0.04355664270924384,0.0688768700612665,0.5302916377280807,0.581299651117421,-0.03809107668132744,-0.0001704303107977948
213,-1.7366127132885378e-06,0.20036602869115738,0.14916196761964176,0.04355665649542409,0.06956158584117397,0.5297595355722252,0.5811486043036826,-0.03808766694779586,-0.00017134265653811727
214,-4.1771999231225015e-07,0.20033823200028017,0.14931207478886135,0.04355609718330707,0.06911914909728444,0.5300108961145193,0.5813186957178322,-0.0381045654878475,-0.00017225514009368991
215,3.388756039338775e-07,0.20031870092510187,0.14940858448878153,0.043556551141341986,0.06881743846704244,0.5301500141416471,0.5814334845255863,-0.03811796749430015,-0.00017316777232461946
216,-1.7337788998372794e-06,0.20036621523870313,0.1491619672333075,0.04355656493258337,0.069502159982821,0.5296178745321118,0.5812824297157488,-0.03811455762176353,-0.00017408049258201116
217,-4.15054084471414e-07,0.2003384059161217,0.1493120830432198,0.04355600918207635,0.06905963070625074,0.5298691986801402,0.5814524675005116,-0.038131453074995936,-0.0001749933493643218
218,3.4137395992991926e-07,0.2003188632621089,0.14940859684565966,0.04355646647793496,0.06875783894305737,0.5300082732390086,0.5815672019470182,-0.03814485195253474,-0.00017590635361865598
219,-1.7312527185809126e-06,0.20036637702433657,0.14916196765011489,0.043556480273727945,0.06944256258991963,0.5294760978430488,0.5814161394682992,-0.03814144194908229,-0.00017681944461152394
220,-4.126854235286803e-07,0.20033855665850114,0.14931209143709306,0.043555927687561925,0.06899995188928218,0.5297273892314306,0.5815861326357666,-0.03815833487458904,-0.00017773267097904695
221,3.435878364356493e-07,0.20031900387978535,0.14940860895299307,0.043556387941089306,0.06869808881316031,0.5298664242044979,0.5817008214135876,-0.03817173116246599,-0.0001786460437500588
222,-1.7289992734126e-06,0.20036651681663453,0.14916196881104807,0.043556401740978905,0.06938281136468429,0.5293342145140264,0.5815497515587135,-0.038168321035336746,-0.0001795595020995193
223,-4.1058036645905127e-07,0.20033868681801575,0.1493120999796386,0.04355585196684624,0.06894012911600612,0.5295854763533279,0.5817197080994763,-0.03818521192874507,-0.00018047309479878244
224,3.455493815225988e-07,0.20031912520562,0.14940862085929296,0.043556314840845024,0.06863820345413187,0.5297244751756969,0.5818343589181467,-0.038198606105141544,-0.00018138683295369383
225,-1.7269876502242626e-06,0.2003666370719224,0.14916197065998513,0.043556328644424845,0.0693229220225532,0.5291922325256332,0.5816832819489617,-0.038195195860813304,-0.00018230065564145144
226,-4.08709102561744e-07,0.200338798693122,0.14931210867597267,0.04355578136985779,0.06888017700711369,0.5294434676523505,0.5818532089490671,-0.038212085161563145,-0.00018321461176644516
227,3.4728708544606163e-07,0.20031922939341418,0.1494086326051045,0.04355624656520067,0.06857819651643669,0.529582433363822,0.5819678286473652,-0.0382254776505764,-0.00018412871250730764
228,-1.7251904630786324e-06,0.200366739969804,0.1491619731438276,0.04355626037210763,0.06926290851709722,0.5290501589485286,0.5818167447980638,-0.03822206729484543,-0.00018504289683792736
229,-4.070452166177879e-07,0.20033889432337273,0.14931211752799778,0.043555715319940694,0.0688201085437271,0.5293013698691202,0.5819866485424513,-0.038238955392625534,-0.00018595721379374697
230,3.4882619773593526e-07,0.2003193183544126,0.14940864422421762,0.04355618257124016,0.06851808011971543,0.5294403051601275,0.5821012431877217,-0.03825234657044813,-0.00018687167462240356
231,-1.7235834507377257e-06,0.20036682744461115,0.1491619762125598,0.0435561963811498,0.06920278323923429,0.5289080000481298,0.5819501526677435,-0.03824893610850051,-0.0001877862181895215
232,-4.055653008939661e-07,0.20033897551883723,0.1493121265350891,0.04355565330550061,0.06875993525284123,0.5291591889778134,0.5821200387317389,-0.03826582334894011,-0.000188700893659805
233,3.5018909737803694e-07,0.20031939378485905,0.14940865574470136,0.0435561223772734,0.06845786502593544,0.5292980962299648,0.5822346137077798,-0.03827921354932659,-0.00018961571234650938
234,-1.722145118622856e-06,0.20036690121324408,0.1491619798192522,0.04355613618989575,0.06914255719371437,0.5287657613771348,0.5820835167044026,-0.03827580298580212,-0.00019053061300256945
235,-4.042486109762794e-07,0.2003390438861461,0.14931213569466442,0.043555594872605866,0.06869966737159929,0.5290169302740783,0.5822533900346615,-0.03829268967550517,-0.00019144564492033618
236,3.5139562105067357e-07,0.20031945719039213,0.149408667189788,0.04355606555587596,0.06839756079277713,0.5291558115959482,0.582367950119503,-0.03830607919460889,-0.00019236081947564913
237,-1.720856421496414e-06,0.20036696279982302,0.14916198392002183,0.043556079370951815,0.0690822401554915,0.5286234478573111,0.5822168468001645,-0.03830266853365834,-0.00019327607530480144
238,-4.0307676081249855e-07,0.20033910085155357,0.14931214500265438,0.04355553961843506,0.06863931399284215,0.528874598452768,0.5823867117862959,-0.03831955494465704,-0.0001941914618263338
239,3.524633539232769e-07,0.2003195099076481,0.14940867857862722,0.0435560117277252,0.06833717590953438,0.529013455711498,0.5825012612210464,-0.038332944045310534,-0.00019510699047595466
240,-1.7197004824167153e-06,0.20036701355751918,0.14916198847395967,0.04355602554502285,0.06902184080829822,0.5284810638518046,0.5823501517354237,-0.03832953329064688,-0.0001960225997697845
241,-4.020334526417396e-07,0.200339147681361,0.149312154453888,0.04355548718547452,0.06857888319408648,0.5287321976766824,0.5825200122733758,-0.0383464196643421,-0.00019693833925124032
242,3.5340788710324506e-07,0.20031955312339125,0.1494086899269289,0.043555960556141755,0.06827671791754267,0.5288710325258881,0.5826345548231697,-0.038359808579845577,-0.00019785422041346774
243,-1.7186623439994705e-06,0.2003670546878903,0.14916199344303338,0.04355597437545406,0.06896136686746812,0.5283386132290822,0.5824834393050415,-0.03835639773478993,-0.00019877018164926098
244,-4.0110423795564065e-07,0.20033918550000632,0.14931216404240902,0.04355543725637961,0.06851838215183718,0.5285897316373671,0.5826532988532072,-0.038373284285438264,-0.0001996862726257299
245,3.5424304559508735e-07,0.20031958789146073,0.1494087012475107,0.04355591174225538,0.06821619351691104,0.5287285455417862,0.5827678378611709,-0.03838667322291336,-0.00020060250489128045
246,-1.7177287483160705e-06,0.20036708725801,0.1491619987919715,0.04355592556339712,0.06890082518881183,0.5281960994194819,0.5826167164300845,-0.038383262290436045,-0.00020151881671256181
247,-4.0027630595056846e-07,0.20033921530608947,0.14931217376173186,0.04355538954942356,0.06845781724291569,0.5284472036088977,0.5827865780589712,-0.038400149208236166,-0.00020243525787931135
248,3.549810899854469e-07,0.20031961514778177,0.14940871255076354,0.04355586502072335,0.0681556086611321,0.5285859978661653,0.582901116494014,-0.03841353835159527,-0.00020335183999324572
249,-1.7168879421708763e-06,0.2003671122156438,0.14916200448813627,0.04355587884352893,0.0688402218651468,0.5280535254652374,0.5827499892567781,-0.038410127334352624,-0.00020426850119235166
250,-3.9953829631712845e-07,0.2003392379865713,0.14931218360504833,0.043555343814466345,0.06839719413429449,0.5283046164954679,0.5829198556929867,-0.038427014788177456,-0.00020518529138803432
251,3.556328949990556e-07,0.20031963572366857,0.14940872384504816,0.04355582015593781,0.06809496864095875,0.5284433922553561,0.5830343961921303,-0.0384404043007532,-0.00020610222223357483
252,-1.7161295048397085e-06,0.2003671304026976,0.14916201050138753,0.043555833980259154,0.06877956231189292,0.5279108940647358,0.5828832632441522,-0.03843699320112052,-0.00020701923173604885
253,-3.988801335810116e-07,0.20033925432935623,0.14931219356539338,0.04355529982938359,0.06833651786275266,0.5281619728734994,0.5830531369093241,-0.03845388134093623,-0.00020793636992766596
254,3.562081074964807e-07,0.20031965035761146,0.14940873513703012,0.04355577693866584,0.06803427815877705,0.528300731154919,0.5831676818152004,-0.03846727136781028,-0.0002088536485117085
255,-1.7154441956683184e-06,0.20036714256713706,0.14916201680394336,0.043555790764370536,0.06871885134298435,0.5277682076116784,0.5830165432416821,-0.03846386018791134,-0.0002097710053623311
256,-3.9829288054661627e-07,0.20033926503444366,0.14931220363577508,0.043555257396902865,0.06827579290551725,0.5280192750289132,0.5831864262869956,-0.03848074914691944,-0.00021068849063177078
257,3.567152862963066e-07,0.20031965970572482,0.14940874643196472,0.04355573518307259,0.0679735413945619,0.5281580167349421,0.5833009776810707,-0.03849413981698543,-0.00021160611607191183
258,-1.7148238192713633e-06,0.20036714937355313,0.14916202337023854,0.043555749010042256,0.06865809323820286,0.527625468229741,0.5831498335580807,-0.03849072855871888,-0.00021252381942219148
259,-3.977686085475385e-07,0.20033927072381366,0.14931221380927776,0.043555216341800235,0.0682150232429189,0.5278765249901232,0.5833197278948096,-0.03850761845525337,-0.00021344165095417604
260,3.5716202598061464e-07,0.2003196643510089,0.14940875773393825,0.04355569472408321,0.0679127620643765,0.5280152509212913,0.5834342876268244,-0.038521009883044556,-0.00021435962246709798
261,-1.7142611062276672e-06,0.20036715141252845,0.1491620301767843,0.04355570855221196,0.06859729180291087,0.5274826778032536,0.5832831380222566,-0.03851759854810756,-0.00021527767156407225
262,-3.973002826651237e-07,0.20033927195019066,0.14931222407913963,0.04355517650841586,0.0681542124139737,0.5277337245572462,0.5834530453488451,-0.03853448948731551,-0.00021619584863536624
263,3.575550664479746e-07,0.20031966481156138,0.14940876904607078,0.04355565541504487,0.06785194347226711,0.5278724354232817,0.5835676150629081,-0.03854788177462421,-0.00021711416552643872
264,-1.7137496075517872e-06,0.20036714920894297,0.14916203720203078,0.043555669244238045,0.06853645042105018,0.5273398380043606,0.5834164600373409,-0.038544470364533616,-0.0002180325597026477
265,-3.9688166009188564e-07,0.20033926920481504,0.14931223443881203,0.04355513775845198,0.06809336356569667,0.5275908753279683,0.5835863818633962,-0.038561362439864036,-0.00021895108167239828
266,3.579003899356614e-07,0.20031966154785782,0.14940878037068814,0.04355561712565437,0.06779108855630454,0.527729571758185,0.5837009630211123,-0.03857475567717688,-0.00021986974332637016
267,-1.7132836012609398e-06,0.20036714322933954,0.14916204442623263,0.0435556309558273,0.06847557210217206,0.5271969503170704,0.5835498026285767,-0.03857134419328817,-0.00022078848199088237
268,-3.9650720016441016e-07,0.20033926292433485,0.14931224488200187,0.04355509996902085,0.06803247949685941,0.527447978720454,0.583719740296133,-0.03858823748781127,-0.00022170734829197132
269,3.5820330691882507e-07,0.20031965496921014,0.14940879170946614,0.04355557974012084,0.06773019992943866,0.5275866612729395,0.5838343341971094,-0.038601631755581345,-0.0002226263541646369
270,-1.7128580097162949e-06,0.20036713388845684,0.14916205183132059,0.04355559357119782,0.06841465952317634,0.5270540160585554,0.5836831684857774,-0.038598220199105596,-0.00022354543679501337
271,-3.961719847230677e-07,0.20033925349691833,0.14931225540270227,0.04355506303091407,0.06797156269682482,0.5273050359936379,0.5838531231881445,-0.03861511478668199,-0.00022446464692631366
272,3.584685321911252e-07,0.20031964543949363,0.14940880306355223,0.04355554315553675,0.06766927991575579,0.5274437051633812,0.5839677309881715,-0.03862851015645659,-0.0002253839965370529
273,-1.7124683264263182e-06,0.20036712155502454,0.14916205940077784,0.043555556987450096,0.06835371506536086,0.5269110363980168,0.583816560000972,-0.03862509852847565,-0.00022630342267215462
274,-3.958716475616769e-07,0.20033924126767688,0.1493122659952109,0.04355502684706791,0.06791061538001596,0.5271620482652027,0.5839865327994457,-0.03864199447479267,-0.00022722297619160204
275,3.5870025223705415e-07,0.20031963328222885,0.14940881443366674,0.04355550728043327,0.0676083305826605,0.5273007044912861,0.5841011555266212,-0.038655391010213216,-0.00022814266911670223
276,-1.712110551242707e-06,0.20036710655690482,0.14916206711952287,0.043555521113122435,0.06829274084731203,0.5267680123733977,0.5839499793017913,-0.038651979311693306,-0.00022906243835025264
277,-3.956023119731228e-07,0.20033922654347625,0.1493122766541417,0.04355499133120232,0.06784963951651557,0.5270190165275096,0.5841199711404699,-0.03866887667518372,-0.00022998233486864065
278,3.589021849229046e-07,0.20031961878508925,0.14940882582018777,0.043555472033498965,0.06754735376944432,0.5271576601994713,0.5842346097095,-0.03868227443287245,-0.00023090237073531935
279,-1.7117811329809413e-06,0.20036708918565493,0.1491620749737979,0.04355548586690982,0.06823173875410796,0.5266249449061902,0.5840834282810782,-0.03867886266467631,-0.00023182248271014057
280,-3.9536053540040195e-07,0.2003392095972053,0.14931228737442814,0.0435549564066136,0.06778863685923339,0.526875941661714,0.5842534400000023,-0.03869576149733284,-0.00023274272188556893
281,3.590776324006312e-07,0.2003196022039026,0.14940883722322254,0.0435554373424433,0.06748635111264924,0.5270145731251822,0.5843680952248876,-0.038709160527679226,-0.00023366310036662384
282,-1.7114769186163045e-06,0.20036706970057586,0.14916208295106498,0.04355545117652745,0.06817071046324978,0.526481834814559,0.5842169086231555,-0.03870574869057702,-0.00023458355476947844
283,-3.951432604133373e-07,0.20033919067156541,0.14931229815132244,0.043554922005103594,0.06772760896802947,0.5267328244502797,0.5843869409699626,-0.0387226490386747,-0.00023550413630238207
284,3.5922952793844554e-07,0.20031958376620074,0.14940884864266557,0.04355540314298825,0.0674253240685905,0.5268714440119574,0.5845016135752533,-0.03873604938653304,-0.00023642485711140168
285,-1.7111951082443913e-06,0.20036704833230642,0.14916209103990724,0.043555416977702405,0.06810965746769267,0.5263386828249713,0.584350421827131,-0.03873263748121207,-0.0002373456536683762
286,-3.9494777127457165e-07,0.200339169982433,0.14931230898038994,0.04355488806602927,0.06766655723113835,0.5265896655880704,0.5845204754673934,-0.03874953938594884,-0.00023826657729707755
287,3.593604775168832e-07,0.20031956367437198,0.1494088600782475,0.04355536937797357,0.06736427393335802,0.526728273520151,0.5846351660981767,-0.038762941091257094,-0.00023918764018415468
288,-1.7109332152223655e-06,0.20036702528601338,0.1491620992299374,0.04355538321327903,0.0680485810963019,0.526195489582507,0.5844839692275765,-0.03875952911833055,-0.0002401087786565261
289,-3.9477165543564535e-07,0.2003391477218453,0.14931231985750099,0.04355485453545971,0.06760548288419722,0.5264464656921852,0.584654044753973,-0.03877643261639554,-0.00024103004415325255
290,3.594727965737163e-07,0.2003195421084582,0.1494088715295757,0.043555335996562854,0.06730320186058146,0.5265850622362613,0.5847687539847358,-0.038789835714724455,-0.0002419514489011481
291,-1.7106890308231024e-06,0.20036700074422403,0.1491621075117119,0.04355534983242501,0.06798748253202502,0.5260522556599994,0.5846175520128788,-0.03878642367473919,-0.0002428729290816865
292,-3.9461276942539397e-07,0.20033912406065085,0.14931233077881967,0.04355482136542765,0.06754438702714945,0.5263032253106804,0.5847876499533341,-0.03880332879881681,-0.00024379453624900747
293,3.5956854269915406e-07,0.2003195192286395,0.14940888299616628,0.04355530295353875,0.06724210887721138,0.5264418106812062,0.5849023782958304,-0.038816733321857214,-0.00024471628266971757
294,-1.7104605929277664e-06,0.20036697486934085,0.14916211587665185,0.04355531678992667,0.0679263628280372,0.5259089815661405,0.5847511712415295,-0.03881332121530076,-0.0002456381043793751
295,-3.9446920859116663e-07,0.20033909915086281,0.14931234174079183,0.04355478851326528,0.067483270639262,0.5261599449303035,0.5849212920664367,-0.03883022799451803,-0.00024656005304701307
296,3.5964954455194875e-07,0.20031949517743974,0.14940889447747194,0.04355527020867745,0.06718099589753973,0.5262985193176619,0.5850360399766705,-0.0388436339705133,-0.00024748214097869496
297,-1.7102461582676337e-06,0.20036694780587572,0.14916212431696857,0.043555284045563455,0.06786522292208756,0.5257656677526693,0.5848848278565847,-0.038840221797820096,-0.000248404304063644
298,-3.943392802886747e-07,0.2003390731277498,0.14931235274013122,0.04355475594101454,0.06742213459246943,0.5260166249833546,0.5850549719852157,-0.03885713025814359,-0.0002493265940856197
299,3.597174275350376e-07,0.20031947008168582,0.1494089059729029,0.04355523772619322,0.06711986373565737,0.5261551885565743,0.585169739869641,-0.03887053771227356,-0.0002502490233898423
300,-1.7100441778144376e-06,0.2003669196824332,0.1491621328255958,0.04355525156355258,0.06780406364924838,0.525622314620747,0.5850185226985013,-0.03886712547383055,-0.0002511715277188236
301,-3.9422148010673924e-07,0.20033904611169193,0.14931236377380527,0.043554723614903576,0.06736097966323085,0.5258732658537735,0.5851886905046982,-0.038884035638418676,-0.0002520941589709021
302,3.597736365525128e-07,0.20031944405424748,0.14940891748184465,0.043555205474245344,0.06705871311652399,0.5260118187629363,0.5853034787257249,-0.038897444593140464,-0.00025301692953018574
303,-1.7098532749792311e-06,0.20036689061347307,0.1491621413961262,0.04355521931205594,0.06774288575324591,0.5254789225266137,0.5851522565165379,-0.038894032289292085,-0.0002539397749921372
304,-3.941144707565736e-07,0.20033901820983022,0.1493123748390206,0.0435546915048818,0.06729980654306955,0.5257298678825403,0.5853224483337651,-0.038910944178807826,-0.0002548627473695418
305,3.598194562026702e-07,0.20031941719558324,0.14940892900367225,0.04355517342450013,0.06699754468580728,0.5258684102609158,0.5854372572146472,-0.03892435465415845,-0.0002557858590851539
306,-1.7096722262606792e-06,0.20036686070087587,0.14916215002275368,0.0435551872627422,0.06768168989653314,0.5253354917866064,0.5852860299788769,-0.03892094228521114,-0.0002567090455870855
307,-3.940170633853421e-07,0.20033898951753182,0.14931238593320825,0.043554659584207026,0.06723861584793994,0.5255864313724681,0.5854562461047074,-0.03893785591809967,-0.0002576323590024521
308,3.5985602870811095e-07,0.2003193895951138,0.1494089405377611,0.043555141551741984,0.0669363590186282,0.5257249633384042,0.5855710759338858,-0.03895126793196477,-0.00025855581179243806
309,-1.709499944084307e-06,0.20036683003533395,0.14916215870021934,0.04355515539039784,0.06762047666924385,0.5251920226816125,0.5854198436816157,-0.03894785549819094,-0.0002594793392575337
310,-3.9392820096271347e-07,0.20033896011969193,0.14931239705400962,0.04355462782907865,0.06717740812655529,0.5254429565924571,0.5855900843817151,-0.03896477089092615,-0.00026040299363908114
311,3.598843697962678e-07,0.20031936133244227,0.14940895208349525,0.04355510983352786,0.06687515662733544,0.5255814782510573,0.585704935416675,-0.03897818445927865,-0.00026132678743649983
312,-1.7093354616054546e-06,0.20036679869758744,0.14916216742376287,0.04355512367258169,0.0675592465971541,0.5250485154610218,0.5855536981567538,-0.038974771960920314,-0.00026225065580241596
313,-3.9384694356693617e-07,0.2003389300918905,0.14931240819926167,0.043554596218311925,0.06711618386779128,0.5252994437812702,0.5857239636684191,-0.03899168912822367,-0.0002631746510923065
314,3.599053828191867e-07,0.2003193324784384,0.1494089636402741,0.0435550782498804,0.06681393796841689,0.5254379552258799,0.5858388361391164,-0.039005104265335794,-0.0002640987858436521
315,-1.7091779191888423e-06,0.20036676675952336,0.14916217618907696,0.04355509208931808,0.06749800014876085,0.5249049703462348,0.5856875938792884,-0.03900169170260773,-0.0002650229950609967
316,-3.937724553058908e-07,0.20033889950142073,0.14931241936698378,0.04355456473304851,0.06705494350726963,0.5251558931508856,0.5858578844145912,-0.039018610657642734,-0.0002659473312138718
317,3.599198712608831e-07,0.20031930309620277,0.14940897520751756,0.043555046783015146,0.06675270344864616,0.5252943944644107,0.5859727785264974,-0.03903202737627432,-0.0002668718068776618
318,-1.7090265524450504e-06,0.2003667342851515,0.14916218499226624,0.04355506062282405,0.06743673774157818,0.524761387533777,0.5858215312735183,-0.03902861474936697,-0.0002677963569086334
319,-3.937039927404129e-07,0.2003388684082028,0.14931243055536428,0.04355453335649925,0.0669936874332121,0.5250123048894734,0.5859918470220974,-0.03904553550391183,-0.0002687210338903009
320,3.5992854987253187e-07,0.20031927324192328,0.1494089867846691,0.04355501541709827,0.06669145343054789,0.5251507961455492,0.5861067629589055,-0.039058953815477665,-0.00026964585043581237
321,-1.7088806815923271e-06,0.2003667013314735,0.14916219382980964,0.04355502925726709,0.06737545974773643,0.5246177671980634,0.5859555107186473,-0.03905554112455968,-0.0002705707412529816
322,-3.9364089456268847e-07,0.20033883686559661,0.1493124417627479,0.04355450207371561,0.06693241599164773,0.5248686791640379,0.5861258518501895,-0.0390724636891607,-0.0002714957590392433
323,3.599320545222273e-07,0.20031924296563708,0.1494089983711985,0.04355498413803109,0.06663018823725839,0.5250071604280668,0.5862407897762182,-0.03908588360387919,-0.0002724209164453823
324,-1.7087397020274994e-06,0.2003666679492535,0.14916220269852515,0.04355499797854975,0.06731416649896257,0.524474109493855,0.5860895325537617,-0.03908247084909976,-0.0002733461480306022
325,-3.9358257248114925e-07,0.20033880492112377,0.14931245298762388,0.04355447087138655,0.06687112949104355,0.5247250161227665,0.5862598992202073,-0.03909939523320766,-0.0002742715066062033
326,3.599309509813575e-07,0.20031921231190716,0.14940900996660308,0.0435549529332588,0.06656890815684932,0.5248634874528382,0.586374859282539,-0.03911281676023299,-0.0002751970048604931
327,-1.7086030759715445e-06,0.2003666341837051,0.14916221159553897,0.04355496677411826,0.06725285829101109,0.5243304145584388,0.5862235970822579,-0.03910940394172386,-0.0002761225772039237
328,-3.935285030854871e-07,0.2003387726171102,0.14931246422861474,0.04355443973765796,0.06680982820642509,0.5245813158971139,0.5863939894197594,-0.039126330153814864,-0.0002770482765616131
329,3.5992574267274674e-07,0.200319181320425,0.14940902157040867,0.04355492179160012,0.0665076134461738,0.5247197773448214,0.5865089717501392,-0.039139753301354434,-0.0002779741156592894
330,-1.7084703249937994e-06,0.20036660007510157,0.14916222051825617,0.043554935632792335,0.06719153538760585,0.5241866825135646,0.5863577045757742,-0.03913634041923177,-0.0002789000287585253
331,-3.934782206475515e-07,0.20033873999125745,0.14931247548446555,0.04355440866197212,0.06674851238304112,0.5244375786036557,0.5865281227064385,-0.03915326846691528,-0.00027982606889821537
332,3.599168776121514e-07,0.20031915002654585,0.14940903318216978,0.04355489070309619,0.06644630433428826,0.5245760302148205,0.5866431274229644,-0.03916669324233407,-0.0002807522488414157
333,-1.7083410234547056e-06,0.2003665656593181,0.1491622294643349,0.04355490454461394,0.06713019802394776,0.5240429134671666,0.5864918552776903,-0.039163280296700104,-0.0002816785027007056
334,-3.934313107523124e-07,0.20033870707714993,0.1493124867540341,0.043554377634925014,0.06668718223962548,0.5242938043457334,0.5866622993111271,-0.03918021018681432,-0.0002826048836287199
335,3.59904754541375e-07,0.20031911846176512,0.14940904480146927,0.04355485965887592,0.06638498102549703,0.5244322461610481,0.5867773265197512,-0.039193636596727754,-0.0002835314044257599
336,-1.7082147926233623e-06,0.20036653096831536,0.14916223843166218,0.043554873500712764,0.06706884640983606,0.5238991075148912,0.5866260494062362,-0.03919022358767224,-0.0002844579990553079
337,-3.933874045368435e-07,0.20033867390470791,0.1493124980362814,0.04355434664813934,0.06662583797129877,0.5241499932149176,0.5867965194409341,-0.03920715532636924,-0.0002853847207837085
338,3.598897283726976e-07,0.20031908665414166,0.14940905642791796,0.043554828651036416,0.06632364370206122,0.5242884252705174,0.5869115692367983,-0.03922058337672564,-0.0002863115824484332
339,-1.7080912954802949e-06,0.20036649603056816,0.14916224741833223,0.0435548424931866,0.06700748073244571,0.5237552647414563,0.5867602871572578,-0.03921717030432718,-0.00028723851786377426
340,-3.9334617373421726e-07,0.20033864050058842,0.14931250933026355,0.04355431569415177,0.0665644797521511,0.524006145292308,0.5869307832818084,-0.03923410389714846,-0.0002881655804097597
341,3.598721150452344e-07,0.20031905462867483,0.14940906806115384,0.04355479767253661,0.06626229252661016,0.5241445676202775,0.5870458557504326,-0.03924753359330249,-0.0002890927829609634
342,-1.7079702320831405e-06,0.2003664608714479,0.14916225642262662,0.04355481151499498,0.06694610115880034,0.5236113852218579,0.5868945687066768,-0.039244120457629705,-0.000290020059182404
343,-3.933073261267947e-07,0.20033860688854316,0.1493125206351229,0.043554284766312464,0.06650310773754088,0.5238622606496887,0.5870650910008628,-0.03926105590957345,-0.0002909474625677705
344,3.598521958339887e-07,0.20031902240763988,0.14940907970084066,0.04355476671710264,0.0662009276442871,0.5240006732785111,0.5871801862192011,-0.03927448725635132,-0.00029187500602867824
345,-1.7078513354779057e-06,0.20036642551356246,0.14916226544299646,0.04355478055986461,0.06688470783797276,0.5234674690224432,0.5870288942126779,-0.03927107405746392,-0.0002928026230807957
346,-3.932706015693718e-07,0.20033857308973732,0.14931253195008123,0.04355425385869587,0.06644172206614082,0.5237183393505542,0.5871994427484413,-0.03928801137304473,-0.0002937303673314551
347,3.5983022116103935e-07,0.200318990010886,0.14940909134666722,0.04355473577914368,0.06613954918465915,0.5238567423055124,0.5873145607858218,-0.039301444374802263,-0.0002946582517292577
348,-1.7077343680343623e-06,0.20036638997705858,0.14916227447804603,0.043554749622205124,0.06682330090304399,0.5233235162018648,0.5871632638176547,-0.03929803111275197,-0.00029558620964045384
349,-3.932357684512111e-07,0.20033853912303182,0.14931254327443294,0.04355422296602126,0.066380322861759,0.5235743814510249,0.5873338386599579,-0.03931497029605406,-0.00029651429478600317
350,3.598064140120788e-07,0.200318957456102,0.14940910299834587,0.04355470485367705,0.06607815726341765,0.5237127747545552,0.587448979578919,-0.03932840495672829,-0.00029744252015144327
351,-1.7076191182073194e-06,0.20036635427989083,0.1491622835265181,0.04355471869703431,0.0667618804728476,0.5231795268119281,0.5872976776499418,-0.0393249916315597,-0.0002983708189535438
352,-3.9320262056139615e-07,0.20033850500523565,0.14931255460753812,0.04355419208358209,0.066318910234961,0.5234303870006561,0.5874682788575329,-0.039341932686284116,-0.0002992992450268797
353,3.597809729617707e-07,0.20031892475905247,0.14940911465561157,0.043554673936261626,0.06601675198389213,0.5235687706726649,0.5875834427145666,-0.03935536900943925,-0.0003002278113938789
354,-1.7075053976699922e-06,0.2003663184380618,0.14916229258728014,0.04355468777991142,0.066700446653523,0.5230355008983459,0.5874321358253538,-0.03935195562119055,-0.0003011564511217745
355,-3.9317097426296715e-07,0.2003384707513302,0.14931256594881712,0.04355416120718308,0.06625748428451364,0.5232863560431628,0.5876027634514485,-0.03936889855069727,-0.00030208521815874704
356,3.597540748564998e-07,0.20031889193378788,0.14940912631821984,0.04355464302293851,0.06595533343839835,0.5234247301013053,0.5877179502976629,-0.03938233653956551,-0.00030301412556407443
357,-1.7073930387292643e-06,0.20036628246583482,0.14916230165931252,0.04355465686687791,0.06663899953989842,0.522891438501408,0.5875666384485567,-0.03937892308826921,-0.00030394310625540144
358,-3.931406660270115e-07,0.20033843637466875,0.1493125772977451,0.0435541303330843,0.06619604509867023,0.5231422886170592,0.5877372925414438,-0.03939586789561452,-0.00030487221429450725
359,3.59725877207423e-07,0.20031885899283217,0.1494091379859465,0.04355461211017831,0.06589390170943775,0.5232806530769897,0.5878525024231523,-0.03940930755313245,-0.00030580146277748134
360,-1.7072818920549349e-06,0.2003662463759239,0.14916231074169745,0.043554625954404694,0.06657753921672206,0.5227473396565777,0.5877011856142877,-0.03940589403881593,-0.0003067307844723345
361,-3.9311155020180927e-07,0.20033840188715407,0.14931258865384706,0.0435540994579514,0.0661345927563158,0.522998184756232,0.5878718662178692,-0.03942284072678574,-0.00030766023355443894
362,3.596965203059646e-07,0.20031882594734865,0.14940914965858532,0.04355458119483422,0.06583245687076696,0.523136539631824,0.5879870991771143,-0.03943628205562667,-0.0003085898231566623
363,-1.7071718246856535e-06,0.2003662101796628,0.14916231983360898,0.04355459503934526,0.06651606575975948,0.5226032043950227,0.5878357774084405,-0.039432868478312774,-0.0003095194858973389
364,-3.9308349706126955e-07,0.20033836729939697,0.14931260001669333,0.04355406857881126,0.06607312732798669,0.5228540444904471,0.5880064845627111,-0.03944981704945219,-0.00031044927606543047
365,3.5966612913721635e-07,0.20031879280728937,0.1494091613359475,0.04355455027410016,0.06577099898834941,0.5229923897939909,0.5881217406377309,-0.03946326005205496,-0.0003113792068305518
366,-1.7070627181823075e-06,0.20036617388715539,0.1491623289343038,0.04355456411889375,0.06645457923677046,0.5224590327440861,0.5879704139090313,-0.039459846411762416,-0.00031230921066132154
367,-3.930563910545942e-07,0.20033833262085665,0.1493126113858954,0.043554037693012526,0.06601164887677881,0.5227098678458022,0.5881411476505057,-0.03947679686840213,-0.0003132393419602902
368,3.596348150426698e-07,0.20031875958152623,0.14940917301786022,0.043554519345473615,0.06570952812120315,0.5228482035881789,0.5882564268761501,-0.039490241546996714,-0.00031416961393379106
369,-1.706954467062434e-06,0.20036613750740975,0.14916233804311324,0.04355453319054791,0.06639307970837931,0.5223148247277061,0.5881050951870593,-0.03948682784374063,-0.0003150999589006918
370,-3.9303012923114916e-07,0.20033829785996676,0.1493126227611021,0.043554006798190555,0.06595015745915657,0.5225656548451284,0.5882758555491528,-0.039503780188020345,-0.00031603043137713185
371,3.596026772190175e-07,0.20031872627796896,0.14940918470416534,0.04355448840672253,0.06564804432215596,0.5227039810359657,0.5883911579572524,-0.039517226544650674,-0.0003169610446061364
372,-1.706846977363001e-06,0.2003661010484575,0.14916234715943627,0.04355450225207587,0.06633156722885003,0.5221705803667894,0.5882398213072726,-0.03951381277844287,-0.0003178917307567905
373,-3.9300461987523683e-07,0.20033826302424623,0.1493126341419961,0.04355397589223608,0.06588865312567367,0.5224214055083488,0.5884106083206391,-0.039530767012332206,-0.0003188225444588233
374,3.595698040564921e-07,0.20031869290367002,0.14940919639471845,0.0435544574558558,0.06558654763851846,0.522559722156159,0.5885259339403349,-0.039544215048876494,-0.00031975349899192865
375,-1.706740165383601e-06,0.20036606451745986,0.1491623562827319,0.04355447130148669,0.06627004184677743,0.5220262996795438,0.5883745923288493,-0.03954080121972588,-0.0003206845263753786
376,-3.929797812718405e-07,0.2003382281203997,0.14931264552829104,0.04355394497326741,0.06582713592161475,0.5222771198527963,0.5885454060216828,-0.03955775734504291,-0.00032161568135249485
377,3.595362743236824e-07,0.20031865946491767,0.1494092080893878,0.04355442649109703,0.06552503811268279,0.522415426965099,0.5886607548797194,-0.03957120706323171,-0.0003225469772396179
378,-1.7066339565554103e-06,0.20036602792080238,0.1491623654125141,0.04355444033700414,0.06620850360570192,0.5218819826817734,0.5885094083060048,-0.03956779317114458,-0.00032347834590617917
379,-3.929555406137486e-07,0.20033819315440526,0.14931265691972817,0.043553914039605665,0.06576560588756795,0.5221327978934975,0.588680248704308,-0.039584751189572435,-0.00032440984220909717
380,3.5950215820836767e-07,0.20031862596731917,0.14940921978805316,0.043554395510861134,0.0654635157826573,0.5222710954769291,0.5887956208252944,-0.039598202591004744,-0.0003253414795013386
381,-1.7065282844315813e-06,0.20036599126417934,0.149162374548346,0.04355440935704329,0.06614695254465855,0.5217376293871419,0.5886442692885328,-0.03959478863598507,-0.0003262731895024693
382,-3.929318330118947e-07,0.200338158131594,0.14931266831607412,0.04355388308975265,0.06570406305993438,0.5219884396434246,0.5888151364163556,-0.0396117485490866,-0.0003272050271830087
383,3.594675182586049e-07,0.20031859241587452,0.14940923149060517,0.043554364513733554,0.06540198068254226,0.5221267277038354,0.5889305318229979,-0.0396252016352442,-0.00032813700593253126
384,-1.7064230898129404e-06,0.2003659545526689,0.14916238368983473,0.0435543783601897,0.06608538869866558,0.5215932398074069,0.5887791753222862,-0.039621787617293854,-0.00032906905732071364
385,-3.929086006392718e-07,0.2003381230567198,0.14931267971711817,0.04355385212237123,0.06564250747138248,0.5218440451137204,0.5889500692019387,-0.03963874942652478,-0.0003300012364316822
386,3.5943241023621286e-07,0.20031855881504276,0.14940924319694418,0.04355433349845167,0.06534043284295366,0.5219823236562607,0.589065487915247,-0.03965220419878502,-0.0003309335566916016
387,-1.7063183199508836e-06,0.20036591779079949,0.14916239283662744,0.04355434734518086,0.0660238120991598,0.5214488139526281,0.5889141264496061,-0.039648790117904016,-0.00033186594952023786
388,-3.9288579195551065e-07,0.20033808793402258,0.14931269112267054,0.0435538211362678,0.0655809391512527,0.5216996143138981,0.5890850471018477,-0.0396657538246246,-0.00033279847011533043
389,3.593968838323455e-07,0.2003185251688004,0.14940925490697954,0.04355430246388833,0.06527887229140103,0.5218378833430959,0.5892004891413212,-0.03967921028427173,-0.00033373113193961796
390,-1.7062139278274657e-06,0.2003658809826102,0.14916240198840713,0.04355431631088973,0.06596222277438465,0.5213043518313537,0.5890491227097037,-0.03967579614045841,-0.0003346638662629353
391,-3.92863361035542e-07,0.2003380527672834,0.14931270253255993,0.04355379013037672,0.0655193581259182,0.5215551472520192,0.5892200701539122,-0.03969276174594385,-0.00033559672839664277
392,3.59360983357912e-07,0.20031849148069406,0.14940926662062898,0.043554271409037074,0.06521729905262466,0.5216934067718473,0.5893355355377023,-0.03970621989417916,-0.0003365297318400379
393,-1.7061098715465128e-06,0.20036584413170325,0.14916241114488893,0.043554285256309944,0.0659006207497366,0.5211598534507842,0.5891841641390003,-0.03970280568743038,-0.0003374628077130055
394,-3.9284126692427923e-07,0.2003380175598746,0.14931271394663181,0.04355375910374636,0.06545776441910674,0.521410643934852,0.5893551383933222,-0.039719773192880066,-0.00033839601144053404
395,3.593247482952186e-07,0.20031845775388676,0.14940927833781756,0.04355424033299911,0.06515571314889518,0.52154889394879,0.5894706271383798,-0.03973323303083094,-0.00033932935655846643
396,-1.7060061137663673e-06,0.2003658072412917,0.14916242030581706,0.04355425418054278,0.06583900604807297,0.5210153188169209,0.5893192507714308,-0.039729818761142205,-0.0003402627740367198
397,-3.928194731378856e-07,0.2003379823148041,0.14931272536474732,0.043553728055526826,0.06539615805218685,0.5212661043680132,0.5894902518529149,-0.03974678816768797,-0.0003411963194139192
398,3.5928821384874354e-07,0.20031842399119962,0.1494092900584775,0.04355420923497156,0.06509411460028192,0.5214043448791011,0.5896057639751207,-0.03976024969641587,-0.0003421300062624391
399,-1.7059026212002878e-06,0.20036577031424127,0.14916242947096175,0.04355422308278544,0.06577737868998768,0.5208707479346965,0.5894543826387134,-0.03975683536378151,-0.00034306376540221254
400,-3.927979471182036e-07,0.20033794703475488,0.14931273678678095,0.04355369698495878,0.065334539044424,0.5211215285560932,0.5896254105634301,-0.039773806672495006,-0.0003439976524855099
401,3.59251411415247e-07,0.20031839019514897,0.14940930178254713,0.04355417811423706,0.06503250342489071,0.5212597595669798,0.5897409460777103,-0.03978726989300265,-0.0003449316811212254
402,-1.705799364180166e-06,0.2003657333531082,0.1491624386401167,0.043554191962320625,0.06571573869405556,0.5207261408080913,0.5895895597705901,-0.039783855497415935,-0.0003458657819792922
403,-3.9277665985978927e-07,0.2003379117221198,0.1493127482126198,0.043553665891363745,0.06527290741320757,0.520976916502768,0.5897606145537382,-0.03980082870931511,-0.00034680001082563555
404,3.5921436898449233e-07,0.20031835636797946,0.1494093135099706,0.04355414697015459,0.06497087963907655,0.5211151380157537,0.5898761734741685,-0.039814293622552885,-0.0003477343813056574
405,-1.7056963162558059e-06,0.2003656963601728,0.14916244781309648,0.04355416081850736,0.06565408607705099,0.5205814974402381,0.5897247821950417,-0.039810879164006115,-0.0003486688239392764
406,-3.9275558550658923e-07,0.20033787637903347,0.14931275964216228,0.04355363477413529,0.06521126317425448,0.5208322682108996,0.5898958638510422,-0.03982785428006112,-0.0003496033946060822
407,3.5917711151741555e-07,0.20031832251169274,0.1494093252406971,0.04355411580215103,0.06490924325763395,0.5209704802279747,0.59001144619094,-0.03984132088693273,-0.00035053810698797356
408,-1.7055934538462436e-06,0.2003656593374691,0.14916245698973493,0.04355412965077259,0.06559242085414342,0.5204368178335138,0.589860049938478,-0.039837906365417355,-0.00035147289145484026
409,-3.927347009841792e-07,0.20033784100739993,0.1493127710753168,0.043553603632731225,0.06514960634179043,0.520687583682624,0.5900311584810591,-0.039854883386555705,-0.00035240780399994697
410,3.591396612653147e-07,0.20031828862807494,0.14940933697468087,0.04355408460971397,0.06484759429396501,0.5208257862055027,0.5901467642530658,-0.03986835168792323,-0.00035334285834167837
411,-1.7054907559292329e-06,0.20036562228681146,0.14916246616988277,0.04355409845860395,0.06553074303907018,0.520292101989623,0.5899953630259086,-0.03986493710342995,-0.0003542779846998828
412,-3.9271398573261646e-07,0.20033780560891765,0.14931278251200086,0.04355357246666666,0.06508793692871057,0.5205428629194316,0.5901664984681811,-0.039881916030541135,-0.0003552132391815095
413,3.591020380777632e-07,0.20031825471871872,0.14940934871188033,0.04355405339238504,0.06478593276023072,0.5206810559495821,0.590282127684335,-0.03989538602722957,-0.00035614863554141933
414,-1.7053882037602192e-06,0.20036558520981862,0.14916247535340596,0.04355406724154313,0.06546905264429201,0.5201473499096703,0.5901307214810951,-0.0398919713797484,-0.0003570841038494062
415,-3.926934214124045e-07,0.20033777018510165,0.1493127939521404,0.043553541275507805,0.06502625494672447,0.5203981059222365,0.5903018838356187,-0.03990895221368806,-0.00035801970032611557
416,3.590642596610835e-07,0.20031822078504524,0.14940936045225783,0.04355402214975412,0.06472425866748537,0.520536289460908,0.5904175365074206,-0.039922423906489334,-0.0003589554387628747
417,-1.7052857806381522e-06,0.20036554810793436,0.14916248454018424,0.04355403599918,0.0654073496811312,0.5200025615942265,0.5902661253266852,-0.03991900919600967,-0.0003598912490794109
418,-3.9267299166596825e-07,0.2003377347373036,0.14931280539566855,0.04355351005886641,0.06496456040648385,0.5202533126914396,0.5904373146055283,-0.039935991937603214,-0.0003608271876100762
419,3.5902634179778986e-07,0.20031818682832186,0.14940937219577935,0.043553990881454056,0.0646625720257962,0.5203914867396868,0.5905529907439998,-0.03994946532727976,-0.0003617632681826553
420,-1.70518347164441e-06,0.20036551098244687,0.1491624937301096,0.04355400473114749,0.06534563415989461,0.5198577370433871,0.590401574584334,-0.039946050553790476,-0.0003626994205667976
421,-3.926526819112222e-07,0.20033769926672892,0.14931281684252534,0.04355347881639489,0.06490285331769738,0.5201084832269857,0.5905727907991276,-0.039963035203836414,-0.00036363570121057296
422,3.5898829856950004e-07,0.2003181528496793,0.14940938394241393,0.04355395958715611,0.06460087284435018,0.5202466477856892,0.5906884904148629,-0.03997651029112438,-0.0003645721239782149
423,-1.705081263503154e-06,0.2003654738345052,0.1491625029230851,0.04355397343711686,0.06528390608998347,0.5197128762568233,0.5905370692748115,-0.03997309545461385,-0.0003655086184892829
424,-3.926324791334035e-07,0.2003376637744532,0.14931282829265655,0.04355344754778191,0.06484113368923246,0.5199636175284117,0.590708312436796,-0.03999008201388666,-0.00036644524130557683
425,3.5895014254862245e-07,0.200318118850126,0.14940939569213374,0.04355392826656572,0.06453916113154971,0.520101772598298,0.5908240355400081,-0.04000355879949875,-0.0003673820063277699
426,-1.7049791443610185e-06,0.20036543666513418,0.14916251211902393,0.04355394211679358,0.06522216547999174,0.5195679792338294,0.5906726094180981,-0.040000143899954904,-0.00036831884302532145
427,-3.926123717280794e-07,0.20033762826143575,0.14931283974601361,0.043553416252748445,0.06477940152920689,0.5198187155948927,0.590843879538166,-0.040017132369207696,-0.0003692558080737726
428,3.589118849310624e-07,0.20031808483056152,0.14940940744491354,0.04355389691941884,0.0644774368950975,0.5199568611765505,0.5909596261387281,-0.04003061085383571,-0.00037019291541022845
429,-1.7048771036465987e-06,0.20036539947524865,0.14916252131784796,0.04355391076991364,0.0651604123377934,0.5194230459733635,0.5908081950334706,-0.04002719589124612,-0.00037113009435403756
430,-3.925923493493591e-07,0.2003375927285322,0.14931285120255283,0.04355338493104433,0.06471765684506955,0.5196737774252805,0.590979492122204,-0.0400441862712129,-0.00037206740169449463
431,3.5887353572183756e-07,0.20031805079178844,0.14940941920073042,0.04355386554547869,0.06441570014207218,0.5198119135191763,0.5910952622296863,-0.040057666455530015,-0.00037300485140512806
432,-1.704775131937744e-06,0.20036536226566382,0.14916253051948716,0.043553879396240266,0.06509864667062029,0.5192780764740847,0.5909438261395779,-0.04005425142988188,-0.00037394237265516605
433,-3.925724027607075e-07,0.20033755717650586,0.14931286266223465,0.04355335358244514,0.06465589964367334,0.5195288030181399,0.591115150207282,-0.04007124372127965,-0.00037488002234766746
434,3.588351038339571e-07,0.20031801673452232,0.14940943095956397,0.04355383414453274,0.0643539508789965,0.519666929624631,0.5912309438309844,-0.04008472560594241,-0.00037581781449257763
435,-1.7046732208305868e-06,0.20036532503710766,0.14916253972387883,0.04355384799556096,0.06503686848513206,0.5191330707343855,0.5910795027545087,-0.040081310517222635,-0.00037675567810899397
436,-3.9255252372825955e-07,0.20033752160603757,0.14931287412502373,0.04355332220674937,0.06459412993133944,0.5193837923717795,0.5912508538112422,-0.04009830472075323,-0.0003776936702137524
437,3.5879659722286295e-07,0.20031798265940148,0.14940944272139528,0.043553802716390144,0.06429218911189713,0.5195219094911263,0.5913666709602236,-0.04011178830640337,-0.00037863180485320696
438,-1.7045713628285192e-06,0.20036528779022916,0.14916254893096634,0.04355381656768489,0.06497507778747787,0.5189880287524214,0.591215224895853,-0.04010837315459857,-0.0003795700108963147
439,-3.9253270489938985e-07,0.2003374860177347,0.14931288559088826,0.043553290803776026,0.06453234771391542,0.5192387454842798,0.5913866029514544,-0.0401253692709503,-0.00038050834547370097
440,3.5875802299051296e-07,0.2003179485669952,0.14940945448620752,0.043553771260879386,0.06423041484635876,0.5193768531166566,0.5915024436345585,-0.040138854558216336,-0.0003814468226681209
441,-1.7044695512467845e-06,0.2003652505256069,0.14916255814069931,0.04355378511244054,0.06491327458335189,0.5188429505261367,0.591350992580755,-0.040135439343312894,-0.00038238537119838204
442,-3.9251293972118045e-07,0.20033745041213857,0.14931289705979955,0.043553259373362366,0.06447055299682627,0.5190936623535192,0.5915223976448665,-0.040152437373162014,-0.0003833240483089113
443,3.5871938747298465e-07,0.2003179144578112,0.14940946625398543,0.043553739777846205,0.06416862808757223,0.5192317604990232,0.5916382618707458,-0.0401659243626607,-0.000384262868118858
444,-1.7043677801179338e-06,0.2003652132437575,0.14916256735303224,0.04355375362967368,0.06485145887804289,0.5186978360532879,0.5914868058259619,-0.04016250908464477,-0.00038520175919687144
445,-3.9249322234761325e-07,0.20033741478973216,0.14931290853173168,0.04355322791536196,0.06440874578512068,0.518948542977195,0.591658237908051,-0.04017950902865679,-0.0003861407789011921
446,3.586806963272113e-07,0.2003178803323022,0.1494094780247153,0.0435537082671517,0.06410682884037727,0.5190866316358554,0.5917741256851867,-0.040192997720994356,-0.0003870799413873565
447,-1.704266044127642e-06,0.20036517594514117,0.14916257656792437,0.043553722119245415,0.06478963067647817,0.5185526853314645,0.5916226646478671,-0.040189582379851894,-0.00038801917507384586
448,-3.9247354754849695e-07,0.20033737915094638,0.1493129200066616,0.0435531964296429,0.06434692608351177,0.5188033873528444,0.5917941237572452,-0.040206584238682744,-0.00038895853743272756
449,3.5864195458736037e-07,0.20031784619087165,0.1494094897983845,0.04355367672867074,0.06404501710930074,0.5189414665246296,0.5919100350939662,-0.040220074634456066,-0.00038989804265591836
450,-1.7041643385253685e-06,0.20036513863016875,0.14916258578533909,0.04355369058103063,0.06472778998326288,0.5184074983581071,0.5917585690625478,-0.04021665923017286,-0.00039083761901172306
451,-3.92453910685181e-07,0.20033734349616475,0.14931293148456823,0.043553164916086295,0.06428509389641386,0.5186581954778613,0.591930055208387,-0.04023366300446991,-0.00039177732408604836
452,3.5860316676197823e-07,0.20031781203387972,0.14940950157498178,0.04355364516229045,0.06398319289859092,0.5187962651626858,0.5920459901128864,-0.04024715510426752,-0.00039271717210718387
453,-1.7040626590844599e-06,0.20036510129920618,0.1491625950052436,0.04355365901491645,0.06466593680271536,0.5182622751305245,0.5918945190857994,-0.0402437396368292,-0.00039365709119324957
454,-3.924343075969311e-07,0.20033730782572998,0.1493129429654329,0.04355313337458482,0.06422324922797484,0.5185129673495136,0.5920660322771484,-0.04026074532723223,-0.00039459713904400353
455,3.5856433686434763e-07,0.2003177778616468,0.14940951335449681,0.04355361356790884,0.06392135621224766,0.5186510275472439,0.592181990757498,-0.0402742391316352,-0.0003955373299241027
456,-1.7039610020370966e-06,0.2003650639525799,0.14916260422760844,0.043553627420800906,0.06460407113889809,0.5181170156459081,0.5920305147331669,-0.04027082360102725,-0.00039647759180147285
457,-3.9241473457404114e-07,0.20033727213994706,0.14931295444923867,0.04355310180504147,0.06416139208210558,0.5183677029649557,0.5922020549789633,-0.040287831208169235,-0.00039741798248973687
458,3.585254684844788e-07,0.200317743674459,0.14940952513692046,0.04355358194543372,0.06385950705404987,0.5185057536754156,0.5923180370431271,-0.04030132671775202,-0.0003983585162899114
459,-1.7038593640049046e-06,0.20036502659058097,0.14916261345240706,0.0435535957985918,0.06454219299564601,0.5179717199013445,0.5921665560199709,-0.040297911123959806,-0.00039929912101972076
460,-3.9239518830145453e-07,0.20033723643908785,0.1493129659359702,0.04355307020736846,0.06409952246250553,0.5182224023212421,0.5923381233290541,-0.04031492064846767,-0.0004002398546066647
461,3.5848656482293656e-07,0.20031770947257121,0.14940953692224423,0.0435535502947816,0.06379764542757962,0.5183604435442176,0.5924541289848995,-0.0403284178637988,-0.0004011807313881138
462,-1.703757741992884e-06,0.20036498921346863,0.14916262267961575,0.04355356414820566,0.06448030237659129,0.5178263878938283,0.5923026429613324,-0.04032500220680757,-0.0004021216790315818
463,-3.92375665838815e-07,0.20033720072339495,0.1493129774256138,0.04355303858148627,0.06403764037268649,0.5180770654153379,0.5924742373424535,-0.04034201364930286,-0.00040306275557845867
464,3.5844762873073893e-07,0.20031767525621003,0.1494095487104605,0.04355351861587676,0.0637357713362438,0.5182150971505818,0.592590266597762,-0.0403555125709456,-0.0004040039754024615
465,-1.7036561333182848e-06,0.20036495182147407,0.14916263190921314,0.043553532469566766,0.06441839928518564,0.5176810196202715,0.592438775572194,-0.04035209685074051,-0.00040494526602088607
466,-3.9235616454934286e-07,0.2003371649930839,0.14931298891815714,0.04355300692732271,0.06397574581599264,0.5179316922441303,0.5926103970340263,-0.040369110211839955,-0.00040588668558902505
467,3.584086627587968e-07,0.20031764102557784,0.14940956050156243,0.04355348690865041,0.06367388478329346,0.5180697144913653,0.5927264498965032,-0.04038261084035287,-0.00040682824851693655
468,-1.703554535597597e-06,0.20036491441480292,0.14916264114118005,0.04355350076260634,0.06435648372472025,0.5175356150775137,0.5925749538673403,-0.04037919505691898,-0.00040776988217168953
469,-3.9233668207901834e-07,0.20033712924834723,0.14931300041358897,0.04355297524481214,0.06391383879561947,0.5177862828044358,0.5927466024184871,-0.04039621033723503,-0.0004087116448224925
470,3.583696691882715e-07,0.20031760678085467,0.14940957229554375,0.04355345517303996,0.0636119857718412,0.5179242955633583,0.592862678895769,-0.0404097126731725,-0.00040965355091573805
471,-1.7034529466971107e-06,0.20036487699363906,0.14916265037549906,0.0435534690272618,0.06429455569834358,0.5173901742623291,0.5927111778614137,-0.040406296826494804,-0.00041059552766826025
472,-3.923172163348976e-07,0.20033709348935613,0.14931301191189925,0.04355294353389476,0.06385191931463027,0.5176408370930089,0.5928828535104161,-0.040423314026636105,-0.0004115376334631965
473,3.5833065004185066e-07,0.2003175725222005,0.14940958409239857,0.043553423408988344,0.06355007430487628,0.5177788403632917,0.5929989536100794,-0.040436818070548775,-0.0004124798827832677
474,-1.7033513647242426e-06,0.20036483955814538,0.14916265961215489,0.04355343726347607,0.06423261520907701,0.5172446971714353,0.592847447568931,-0.040433402160612184,-0.0004134222026950652
475,-3.922977654434792e-07,0.20033705771626287,0.14931302341307895,0.04355291179451602,0.06378998737597037,0.5174953551065496,0.593019150324275,-0.040450421281183965,-0.00041436465169566804
476,3.5829160714012653e-07,0.2003175382497582,0.149409595892122,0.043553391616443414,0.06348815038527827,0.5176333488878454,0.5931352740538414,-0.04046392703361917,-0.00041530724430411867
477,-1.7032497879754943e-06,0.2003648021084675,0.1491626688511335,0.043553405471197015,0.06417066225982884,0.5170991838014996,0.5929837630042967,-0.04046051106040854,-0.00041624990743675827
478,-3.922783277307551e-07,0.20033702192920316,0.14931303491711972,0.04355288002662602,0.06372804298248091,0.5173498368417094,0.5931554928744185,-0.04047753210201303,-0.00041719269970462067
479,3.5825254210159613e-07,0.20031750396365441,0.14940960769470918,0.04355335979535744,0.06342621401583004,0.5174878211336523,0.5932716402413617,-0.04049103956351513,-0.00041813563566306405
480,-1.703148214952932e-06,0.20036476464473454,0.14916267809242237,0.04355337365037691,0.06410869685340764,0.516953634149144,0.5931201241818146,-0.040487623527015265,-0.0004190786420781712
481,-3.922589017109346e-07,0.20033698612829764,0.14931304642401427,0.04355284823017903,0.06366608613691017,0.5172042822950967,0.5932918811751067,-0.040504646490251976,-0.00042002177767494367
482,3.5821345636781465e-07,0.20031746966400196,0.14940961950015577,0.04355332794568663,0.06336426519922782,0.5173422570973047,0.5934080521868573,-0.040518155661362715,-0.00042096505704504906
483,-1.7030466443017367e-06,0.20036472716706175,0.14916268733601007,0.043553341800971965,0.0640467189925327,0.5168080482109515,0.5932565311156996,-0.04051473956155836,-0.000421908406804304
484,-3.922394860500153e-07,0.2003369503136534,0.14931305793375585,0.043552816405133025,0.0636041168419241,0.5170586914632826,0.5934283152405153,-0.04053176444702443,-0.0004228518857916906
485,3.5817435123201846e-07,0.20031743535090105,0.14940963130845786,0.043553296067390675,0.06330230393809147,0.5171966567753598,0.593544509904466,-0.0405452753282832,-0.00042379550863518007
486,-1.7029450748249492e-06,0.20036468967555138,0.14916269658188658,0.043553309922941874,0.06398472867984445,0.5166624259834705,0.5933929838200874,-0.04054185916515906,-0.00042473920180031543
487,-3.9222007956491584e-07,0.20033691448536578,0.14931306944633838,0.04355278455144929,0.06354213510011578,0.5169130643428047,0.5935647950847455,-0.04055888597344948,-0.0004256830242400724
488,3.581352278373903e-07,0.20031740102444065,0.14940964311961208,0.04355326416043241,0.06324033023497319,0.5170510201643422,0.5936810134082544,-0.04057239856539359,-0.0004266269906187196
489,-1.7028435054557145e-06,0.2003646521702943,0.14916270583004257,0.04355327801624947,0.06392272591791359,0.5165167674632185,0.5935294823090429,-0.04056898233893434,-0.00042757102725151844
490,-3.922006811896486e-07,0.20033687864351946,0.14931308096175636,0.043552752669092074,0.0634801409140138,0.5167674009301714,0.5937013207218308,-0.0405860110706422,-0.00042851519320545156
491,3.580960872273664e-07,0.20031736668469974,0.14940965493361494,0.043553232224777444,0.0631783440923652,0.5169053472607498,0.5938175627122261,-0.0405995253738071,-0.0004294595031810782
492,-1.7027419352373327e-06,0.20036461465137123,0.14916271508046997,0.043553246080860364,0.06386071070924884,0.5163710726466867,0.5936660265965676,-0.04059610908399737,-0.0004304038833433713
493,-3.921812899805241e-07,0.20033684278818945,0.14931309248000482,0.04355272075802827,0.06341813428608957,0.5166217012218653,0.5938378921657453,-0.04061313973971408,-0.0004313483928733328
494,3.5805693031701336e-07,0.20031733233174842,0.14940966675046335,0.043553200260393915,0.0631163455127068,0.5167596380610555,0.593954157830328,-0.04062665575463358,-0.0004322930465078077
495,-1.7026403633223913e-06,0.20036457711885403,0.14916272433316108,0.043553214116742706,0.06379868305630434,0.5162253415303424,0.5938026166966074,-0.040623239401457976,-0.00043323777026147206
496,-3.9216190510574234e-07,0.20033680691944222,0.14931310400107917,0.04355268881822713,0.06335611521876401,0.5164759652143474,0.5939745094304103,-0.040640271981773446,-0.00043418262342936084
497,3.5801775791991647e-07,0.2003172979656486,0.14940967857015483,0.04355316826725216,0.06305433449839037,0.5166138925617118,0.5940907987764574,-0.04065378970897988,-0.0004351276207845977
498,-1.7025387889536836e-06,0.20036453957280592,0.14916273358810933,0.04355318212386682,0.06373664296148575,0.516079574110633,0.5939392526230578,-0.04065037329242298,-0.0004360726881915545
499,-3.9214252579248404e-07,0.20033677103733685,0.14931311552497523,0.04355265684966,0.06329408371441346,0.5163301929040581,0.5941111725296996,-0.040667407797925784,-0.0004370178850593128
500,3.5797857077333323e-07,0.20031726358645524,0.14940969039268664,0.043553136245324524,0.06299231105176709,0.5164681107591519,0.5942274855644671,-0.040680927237950186,-0.00043796322619726907
501,-1.702437211463341e-06,0.2003645020132832,0.14916274284530845,0.04355315010220507,0.0636745904271561,0.5159337703839874,0.5940759343897706,-0.04067751075799654,-0.00043890863731948316
502,-3.9212315138675846e-07,0.20033673514192557,0.14931312705168953,0.04355262485230013,0.06323203977537507,0.5161843842874217,0.5942478814774459,-0.040694547189274094,-0.0004398541779490958
503,3.5793936952778493e-07,0.20031722919421685,0.14940970221805647,0.0435531041945851,0.06293027517515189,0.5163222926497936,0.5943642182081706,-0.04070806834264635,-0.0004407998629317702
504,-1.7023356302398734e-06,0.200364464440336,0.149162752104753,0.04355311805173153,0.06361252545564107,0.5157879303468196,0.5942126620105579,-0.04070465179928049,-0.00044174561783124754
505,-3.9210378127967765e-07,0.2003366992332543,0.14931313858121834,0.04355259282612241,0.06316998340395154,0.5160385393608475,0.5943846362874438,-0.04072169015691913,-0.0004426915022847402
506,3.579001547678734e-07,0.20031719478897636,0.1494097140462621,0.04355307211500958,0.06286822687082783,0.5161764382300409,0.5945009967213457,-0.040735213024168083,-0.0004436375311741732
507,-1.7022340447550577e-06,0.20036442685400804,0.14916276136643794,0.04355308597242192,0.06355044804923325,0.5156420539955304,0.5943494354991967,-0.04073179641737453,-0.00044458362991296014
508,-3.9208441493607943e-07,0.200336663311364,0.14931315011355867,0.04355256077110327,0.0631079146024153,0.5158926581207324,0.5945214369734552,-0.04074883670195969,-0.00044552985825239944
509,3.578609270226893e-07,0.20031716037077157,0.14940972587730164,0.04355304000657508,0.06280616614105024,0.5160305474962857,0.5946378211177396,-0.0407623612836133,-0.00044647623111067076
510,-1.7021324545431205e-06,0.20036438925433836,0.1491627706303587,0.04355305386425333,0.06348835821019658,0.5154961413265091,0.5944862548694332,-0.04075894461337655,-0.0004474226737508535
511,-3.9206505188498636e-07,0.2003366273762902,0.14931316164870756,0.04355252868722043,0.06304583337301234,0.515746740563462,0.5946582835492127,-0.040775986825492806,-0.0004483692460383442
512,3.5782168674933224e-07,0.20031712593963574,0.14940973771117322,0.04355300786925997,0.06274409298804974,0.5158846204449101,0.5947746914110715,-0.040789513122078215,-0.00044931596292757203
513,-1.7020308591712482e-06,0.2003643516413612,0.1491627798965113,0.043553021727204135,0.06342625594076938,0.5153501923361351,0.5946231201349859,-0.04078609638838275,-0.00045026274953127493
514,-3.920456916944523e-07,0.20033659142806484,0.1493131731866625,0.04355249657445284,0.06298373971796545,0.5156007866854134,0.5947951760284229,-0.04080314052861398,-0.00045120966582896054
515,3.577824343719421e-07,0.200317091495598,0.1494097495478751,0.04355297570304373,0.06268200741403596,0.5157386570722875,0.5949116076150364,-0.04081666854065762,-0.00045215672681130146
516,-1.7019292582638734e-06,0.2003643140151067,0.14916278916489187,0.043552989561253835,0.06336414124316825,0.5152042070207798,0.5947600313095486,-0.04081325174348792,-0.0004531038574406861
517,-3.9202633399064435e-07,0.20033655546671542,0.14931318472742103,0.04355246443278051,0.06292163363947754,0.5154547964829553,0.5949321144247691,-0.04083029781241735,-0.00045405111781074756
518,3.577431702504741e-07,0.20031705703868383,0.14940976138740553,0.04355294350790686,0.06261990942120026,0.5155926573747835,0.5950485697433072,-0.04084382754044502,-0.00045499852294839474
519,-1.70182765149747e-06,0.2003642763756013,0.1491627984354969,0.04355295736638292,0.06330201411959074,0.5150581853768076,0.5948969884067938,-0.04084041067978554,-0.0004559459976656602
520,-3.920069784335567e-07,0.20033651949226622,0.14931319627098089,0.04355243226218437,0.06285951513973392,0.5153087699524505,0.5950690987519145,-0.040857458677995846,-0.0004568936021703144
521,3.577038947258013e-07,0.20031702256891576,0.149409773229763,0.04355291128383075,0.0625577990117178,0.5154466213487588,0.595185577809538,-0.040870990122532806,-0.0004578413515254979
522,-1.7017260385701963e-06,0.20036423872286818,0.14916280770832333,0.04355292514257277,0.06323987457221768,0.5149121274005773,0.5950339914403749,-0.04086757319836801,-0.0004587891703928788
