tc-huang/low_cost_robot/result/line.csv
,x,y,z,j0,j1,j2,j3,j4,j5

2,0.004987803611124326,0.18560156042240505,0.1329666479245527,0.020145783829279187,0.040735568157514467,0.5002019600043371,0.40405767106066354,-0.025571458569714604,-2.7949648471203123e-07

3,-0.00030350330783932185,0.198628321863211,0.15077999487875215,0.04546362900506488,0.08056152190873314,0.5867387586994666,0.5195941047264719,-0.032924461497914864,-3.967282748464665e-07

4,2.6613883605608804e-06,0.1999967430323436,0.1499939391114582,0.043620996681609896,0.09022983798163507,0.5891123469738789,0.5269196774387467,-0.03339008162256589,-5.430183524616805e-07

5,2.731350627058378e-06,0.1999959894563706,0.1499407467170628,0.04362081608343651,0.09031377300556445,0.5889033709011476,0.5268408844307056,-0.03338845487254846,-7.226422178004485e-07

6,2.745124340056658e-06,0.19999651035739566,0.1498796741977087,0.04362064354706619,0.09041836226679219,0.5886788653817661,0.5267564313786842,-0.03338668690066499,-9.346415576163319e-07

7,2.697331700367983e-06,0.1999984056101565,0.14981120533241798,0.04362048052100857,0.09054338270927208,0.5884403570378772,0.5266673429644042,-0.03338480387203221,-1.1765752436934684e-06

8,2.585431370175084e-06,0.20000172667158836,0.14973575268970227,0.04362032735009112,0.09068848590043735,0.5881890875910718,0.526574369923339,-0.03338282455718472,-1.4459768399401318e-06

9,2.408486635659471e-06,0.20000649333251452,0.1496536771323028,0.0436201839617953,0.09085323305669196,0.5879260699622328,0.5264780820271265,-0.033380763113923,-1.7407054133779458e-06

10,2.16661280487071e-06,0.20001270321736703,0.14956529972499974,0.04362005008284322,0.09103712464601951,0.5876521417104121,0.5263789187017647,-0.033378630439150965,-2.0589593855135904e-06

11,1.8606512869352027e-06,0.20002033825114168,0.14947091013275265,0.04361992532889975,0.09123962274252903,0.5873680068678668,0.5262772230617954,-0.03337643503314731,-2.3992181591253737e-06

12,1.4919479301746252e-06,0.20002936932199833,0.14937077281684324,0.043619809253510174,0.09146016742748715,0.5870742673952242,0.5261732664478552,-0.0333741836129956,-2.7601813738581803e-06

13,1.062194173132025e-06,0.20003975969306761,0.14926513167481958,0.043619701379289784,0.0916981886879526,0.586771446626915,0.5260672664645406,-0.03337188156155754,-3.1407195753067477e-06

14,5.733114341009704e-07,0.20005146750593047,0.149154213541512,0.043619601218893786,0.09195311497744099,0.5864600067321595,0.5259594003131258,-0.033369533258923896,-3.539836517365648e-06

15,2.7366726199420932e-08,0.20006444761620373,0.14903823084828044,0.04361950828917112,0.09222437931584809,0.5861403617389239,0.5258498146660765,-0.03336714232779541,-3.956640815241161e-06

16,1.3765440862179013e-07,0.19999687180226655,0.15000045597776432,0.04363358293762162,0.09017915857173188,0.5883843459458005,0.5274456579606355,-0.033472866811415626,-4.390472395981816e-06

17,-5.458294550014439e-07,0.20001293897541908,0.14987486261276908,0.04363350171772325,0.09048109432244694,0.5880493078876736,0.527332584070701,-0.03347039041693342,-4.840500910362112e-06

18,-1.2798419938000669e-06,0.20003013627166277,0.14974478434943608,0.043633426310592506,0.09079758050242223,0.5877070605936633,0.5272180386904902,-0.03346787744189362,-5.3060511220767e-06

19,-2.0624187806201483e-06,0.20004841949916816,0.14961039600732673,0.04363335639584934,0.0911281173682679,0.5873579208031731,0.5271021261083058,-0.03346533051575982,-5.78647326720718e-06

20,-2.8915291365111742e-06,0.20006774359970378,0.14947186293471368,0.043633291627567405,0.09147221793823346,0.5870021830392953,0.5269849336475758,-0.03346275180336658,-6.2811451323781914e-06

21,-3.7651411705016957e-06,0.2000880636063852,0.14932934236251552,0.04363323166812748,0.09182940870618955,0.5866401218583556,0.5268665375266531,-0.03346014318513122,-6.789480037343778e-06

22,-4.681248059128229e-06,0.20010933508961382,0.14918298423285378,0.0436331761974132,0.09219923034786366,0.5862719946346351,0.5267470056302136,-0.03345750633338046,-7.310926328315155e-06

23,-5.63788170168146e-06,0.2001315144273709,0.14903293182103977,0.04363312491507555,0.09258123814465737,0.5858980438972567,0.5266263992815973,-0.03345484275784128,-7.84496394912084e-06

24,1.4329876255048113e-07,0.19999671908984262,0.15000020463166455,0.04363355323676139,0.09011381168088971,0.5879351999252043,0.5277913125771356,-0.033533617651681294,-8.39128183063622e-06

25,-9.26918381816827e-07,0.2000214674443433,0.1498431296061875,0.043633508188645184,0.09051852560417488,0.5875501385851,0.5276682916276907,-0.03353089519717075,-8.94933866507821e-06

26,-2.0316429067725184e-06,0.2000469910760697,0.14968276494122332,0.043633466472763546,0.09093401212585793,0.5871598497110323,0.5275442670624694,-0.03352814768593851,-9.518682500924922e-06

27,-3.169375703590549e-06,0.20007325563802025,0.14951923607710524,0.04363342794714221,0.09135990532642412,0.5867645556748958,0.5274193102555099,-0.033525376931287786,-1.0098864553353887e-05

28,-4.338571737374022e-06,0.20010022637994698,0.14935266179898884,0.04363339243643259,0.09179584946449428,0.5863644647124435,0.5272934807315692,-0.03352258441223974,-1.068944711891324e-05

29,-5.5376930344673905e-06,0.20012786886806755,0.14918315522896683,0.04363335976318931,0.09224149916842803,0.5859597718104379,0.5271668307010372,-0.03351977141795337,-1.1290013925812938e-05

30,1.1100673144234796e-07,0.19999745786999965,0.1500000902641383,0.043633513538790865,0.09005504245975213,0.5876198323078063,0.5280501662510927,-0.03358092702705378,-1.1900339564400276e-05

31,-1.181074521092694e-06,0.2000272084035304,0.14982501737248016,0.04363348488690814,0.0905187580868997,0.5872063363762354,0.5279216262082961,-0.03357806797245175,-1.2519991158656836e-05

32,-2.4981136168625295e-06,0.20005752049101064,0.1496473306920746,0.043633458526455345,0.09099105785152777,0.5867887031713337,0.5277923165615367,-0.03357518963080487,-1.3148605830647718e-05

33,-3.838953964075201e-06,0.20008836735827296,0.14946712938379686,0.043633434387169635,0.0914716582386261,0.5863671116816734,0.5276622975416925,-0.03357229353459544,-1.3785823406901345e-05

34,-5.202390225439793e-06,0.20011972170831785,0.14928450710503927,0.043633412364255386,0.09196028291029082,0.5859417285785786,0.5275316187082063,-0.033569380916593866,-1.4431293446417054e-05

35,-6.587215692044693e-06,0.2001515563726814,0.14909955288944227,0.04363339234627394,0.092456663030471,0.5855127091512842,0.5274003230215537,-0.0335664528384762,-1.5084683925901198e-05

36,1.3376854444187986e-07,0.19999693626306825,0.15000005962973123,0.04363346756358509,0.08997870348738592,0.5873129159990029,0.5282964992114969,-0.033628582568231064,-1.574587184399068e-05

37,-1.335028474084947e-06,0.20003068084691958,0.14981068048846402,0.0436334499731206,0.09048942918028412,0.5868768884223812,0.5281636518546667,-0.033625616894065506,-1.641449936224324e-05

38,-2.8209822276921426e-06,0.20006481166025974,0.14961922126531554,0.04363343400755741,0.09100698614989382,0.586437571414262,0.528030204420069,-0.033622636101266895,-1.7090274580993655e-05

39,-4.323259368240948e-06,0.20009930900195572,0.1494257612518483,0.043633419651090084,0.091531158865061,0.585995113681319,0.5278962126671032,-0.03361964161735598,-1.777290398129956e-05

40,-5.840957356098055e-06,0.20013415226159126,0.14923037483810284,0.04363340684515452,0.09206173606013915,0.585549652275592,0.5277617210952456,-0.03361663455220512,-1.8462100778546976e-05

41,-7.373156832324659e-06,0.20016932064126786,0.14903313243149785,0.04363339551941314,0.09259851122850982,0.5851013135491093,0.5276267673803274,-0.033613615838201064,-1.9157594623568286e-05

42,1.5341158707965485e-07,0.19999648610226697,0.150000034199025,0.0436334170284486,0.08989505477742527,0.5870161548636669,0.52853960767816,-0.03367692825151067,-1.9859340329591078e-05

43,-1.455912903476804e-06,0.20003341256537535,0.14979927334566007,0.04363340710068039,0.09044320802216808,0.5865622238543139,0.5284033605027314,-0.03367387841142263,-2.056703545102803e-05

44,-3.076121669853306e-06,0.2000705837310615,0.14959685611239704,0.04363339837374258,0.09099679500894252,0.586105673406834,0.5282666445028112,-0.03367081668116855,-2.1280442304502878e-05

45,-4.706648574505021e-06,0.20010798579787875,0.14939284617591436,0.043633390865832455,0.09155565471877376,0.5856466289739999,0.5281295125483221,-0.033667744421484944,-2.1999318649584062e-05

46,-6.346840123992031e-06,0.20014560370447163,0.1491873027482123,0.043633384546370106,0.09211962798614504,0.5851852047035512,0.5279920056159453,-0.03366466265685196,-2.272342692036213e-05

47,1.1724941655511661e-07,0.19999731426401718,0.1500000113869027,0.04363337181835848,0.08982781816264222,0.5867787918577967,0.5287478201565179,-0.033718128832951035,-2.3452729524020432e-05

48,-1.5864157401294238e-06,0.20003637956828657,0.14979156657970635,0.04363336655680357,0.09040118450913658,0.5863127491506029,0.5286092516736106,-0.03371502151145885,-2.4186962324728935e-05

49,-3.2968132083737584e-06,0.20007559538566327,0.14958175323777984,0.04363336228131408,0.09097904890476946,0.5858445497049581,0.5284703127169017,-0.03371190473350805,-2.4925920531498164e-05

50,-5.013525377055121e-06,0.20011495137400548,0.1493706238292399,0.04363335901505163,0.09156128536454775,0.5853743005293618,0.5283310510174988,-0.033708779726809066,-2.566939749256278e-05

51,-6.736049530787699e-06,0.2001544359036172,0.14915822688986421,0.04363335673676327,0.0921477685017235,0.5849020980591999,0.5281915032063123,-0.03370564740739024,-2.6417192146715468e-05

52,1.2545982542438994e-07,0.19999712611033868,0.1499999952857744,0.04363332565635723,0.08975082602796823,0.5865425615374782,0.5289477821512896,-0.033759214066021066,-2.716930985304937e-05

53,-1.6563487700658325e-06,0.2000379640276404,0.14978520389564098,0.043633324025721426,0.09034505129679858,0.586066534676092,0.5288073228956135,-0.033756059942795694,-2.7925520942055567e-05

54,-3.441377053458629e-06,0.2000788728528525,0.1495692803322127,0.043633323209832896,0.09094299640448827,0.585588725907764,0.5286665674943266,-0.033752898193931714,-2.8685652368010765e-05

55,-5.229354398172091e-06,0.20011984553204107,0.14935226825966053,0.04363332324333194,0.09154456535045936,0.5851092286730751,0.5285255615229468,-0.03374972999577664,-2.9449527206038376e-05

56,-7.019916464898364e-06,0.2001608735528171,0.14913420769044985,0.0436333241143029,0.0921496614955362,0.5846281262041331,0.5283843392831026,-0.033746556207454544,-3.0216972752176874e-05

57,1.3247869555185754e-07,0.1999969652567936,0.14999998454599048,0.043633278286995696,0.08967106925909184,0.5863101445246595,0.5291465561101292,-0.033800557791532106,-3.098802887217292e-05

58,-1.7139256362399408e-06,0.2000392692993039,0.14977994708496764,0.04363327949429126,0.09028253952474688,0.5858258686814578,0.5290045414177279,-0.03379736517736862,-3.176249137730822e-05

59,-3.56062383060924e-06,0.2000815778717854,0.14955897246573968,0.04363328138874271,0.09089708515817896,0.5853401188709388,0.5288622905010225,-0.03379416641343089,-3.254021220960288e-05

60,-5.407470900203187e-06,0.20012388673469736,0.14933709716409965,0.04363328401365843,0.09151463517748787,0.5848529777416025,0.5287198475002999,-0.03379096264236948,-3.3321038136942357e-05

61,-7.254220054280294e-06,0.20016619002867597,0.14911435421372737,0.04363328736388903,0.0921351168834069,0.5843645179362299,0.5285772450445054,-0.03378775468255276,-3.410481920796947e-05

62,1.38424931342071e-07,0.1999968289848097,0.1499999752185144,0.04363322997185535,0.08958903904495244,0.58608086731358,0.5293443554495005,-0.033842114691199576,-3.489162342513179e-05

63,-1.76134997097524e-06,0.20004034490328895,0.14977560041023372,0.043633233422449624,0.09021476292094893,0.5855897706399971,0.5292010575412286,-0.03383889033436674,-3.5681267243450425e-05

64,-3.658989658997247e-06,0.20008381019352234,0.14955044953890084,0.043633237464288155,0.09084302899090027,0.5850974539556462,0.52905757246253,-0.033835661036149295,-3.6473622942303896e-05

65,-5.5544544560358e-06,0.20012722297949334,0.14932455316328774,0.04363324214701578,0.0914737870118613,0.5846039910996504,0.5289139432523418,-0.03383242791344273,-3.7268556628573816e-05

66,-7.4475959551002086e-06,0.20017057962652246,0.14909793856803955,0.04363324747029299,0.09210698411889312,0.5841094460488194,0.5287702012224103,-0.033829191752530345,-3.806593696887349e-05

67,1.4344024141122597e-07,0.19999671404668967,0.14999996721215786,0.04363318090577874,0.08950512999517295,0.5858541764986274,0.5295413673948369,-0.03388384864380608,-3.886585524084636e-05

68,-1.800421757689255e-06,0.200041231370241,0.1497720059876489,0.04363318614792907,0.09014263304407258,0.5853574374644522,0.5293970095537283,-0.03388059808082181,-3.966814481471841e-05

69,-3.740134217547139e-06,0.20008565229380615,0.1495434018271649,0.04363319190804688,0.09078223731943555,0.584859688106337,0.529252504887523,-0.033877343570466616,-4.0472694674402625e-05

70,-5.675745246460154e-06,0.2001299769144831,0.14931418040763927,0.043633198240457555,0.09142390973915841,0.5843609950169598,0.5291078955511328,-0.033874086208991926,-4.1279386829423524e-05

71,-7.607188404252889e-06,0.20017420345379539,0.1490843642691332,0.04363320514828068,0.09206761384851438,0.5838614150392946,0.5289632117887774,-0.03387082675667211,-4.208810527054008e-05

72,1.4765490918659807e-07,0.19999661745657604,0.14999996039828453,0.04363313123313006,0.08941966628694187,0.5856296123325068,0.5297377481990614,-0.03392573014147527,-4.289896063567896e-05

73,-1.8326193813120867e-06,0.20004196206034353,0.14976903344912482,0.043633137918114163,0.09006690209141237,0.5851282041861916,0.5295925141800872,-0.033922457929667055,-4.371180018907418e-05

74,-3.807074717112474e-06,0.20008717231036086,0.14953757359664321,0.04363314506418597,0.09071587445075921,0.5846259589277528,0.5294471665762386,-0.03391918258955208,-4.4526526665380226e-05

75,-5.775832222570769e-06,0.20013224994669035,0.1493056024868023,0.0436331527291893,0.09136656447608238,0.5841229371749465,0.5293017468223967,-0.03391590520057588,-4.534303517630384e-05

76,-7.738893616182976e-06,0.20017719473607531,0.14907313874150818,0.04363316091877919,0.0920189492847194,0.5836191898872254,0.5291562842895199,-0.033912626501729735,-4.616122234604757e-05

77,1.5118637656900968e-07,0.19999653652298463,0.1499999546376646,0.04363308106256323,0.08933291436458538,0.5854067931714391,0.5299336271041325,-0.033967734928489174,-4.69812149673549e-05

78,-1.8591554497007431e-06,0.20004256438156642,0.1497665750570084,0.04363308891719667,0.0899881906099119,0.5849015199514818,0.5297876683375642,-0.03396444482412041,-4.780287171455324e-05

79,-3.86229529789929e-06,0.20008842643175387,0.14953275352606268,0.04363309718815511,0.09064490184664012,0.5843955527333765,0.5296416233959118,-0.03396115226691174,-4.862610664336187e-05

80,-5.858414951193276e-06,0.20013412577960632,0.14929850836119807,0.04363310593597484,0.091303040923001,0.5838889472040599,0.529495533124293,-0.03395785832254526,-4.945082566394831e-05

81,-7.8475727417213e-06,0.2001796634764081,0.14906385494766106,0.0436331151682068,0.0919625961798368,0.5833817494671251,0.5293494261767041,-0.033954563712532054,-5.027693581953641e-05

82,1.5413844168133545e-07,0.19999646886716937,0.14999994979357983,0.043633030477302014,0.0892450934297205,0.5851854024405236,0.530129110806719,-0.03400984302397154,-5.1104577419322924e-05

83,-1.881025475022717e-06,0.20004306086284296,0.14976454175270063,0.04363303928491139,0.0899070106797459,0.5846769285193641,0.5299825521778184,-0.03400653812525742,-5.193361849706563e-05

84,-3.907842000333214e-06,0.20008946099220143,0.14952876694826456,0.043633048473221005,0.09057011355110092,0.5841678788635359,0.5298359299883448,-0.034003231331044194,-5.2763982424187306e-05

85,-5.926543267341551e-06,0.20013567349579736,0.14929264094580186,0.04363305810486051,0.09123440459763722,0.5836583050890572,0.529689284598916,-0.03399992369570623,-5.3595584008729124e-05

86,-7.937234594258477e-06,0.20018170049165906,0.14905617645635677,0.043633068188825,0.0918998814411655,0.5831482492903142,0.5295426440737303,-0.03399661592636922,-5.4428338886099705e-05

87,1.5660151430306468e-07,0.19999641241724223,0.14999994573842218,0.043632979542124715,0.0891563839742036,0.5849651776985968,0.5303242873659499,-0.03405203795201354,-5.526239870609053e-05

88,-1.8990476896244696e-06,0.20004347003816664,0.14976285991093274,0.04363298912913742,0.08982378501087393,0.5844540521145806,0.5301772319215653,-0.034048720815653355,-5.609763916682232e-05

89,-3.945401114034339e-06,0.2000903142126089,0.14952546947651302,0.04363299906824558,0.09049216546279645,0.5839424485347697,0.5300301315824805,-0.034045402243849325,-5.693399129845626e-05

90,-5.98273265653166e-06,0.20013695012254118,0.14928778772765358,0.043633009423728206,0.09116153590938524,0.5834304152132873,0.5298830263104484,-0.034042083281664304,-5.7771377237266435e-05

91,-8.011186605481543e-06,0.2001833807711476,0.1490498251656078,0.04363302020569804,0.09183190164693263,0.5829179909335298,0.5297359436837998,-0.034038764624368625,-5.860971970233377e-05

92,1.5865348552707853e-07,0.19999636538822096,0.1499999423567792,0.04363292830814468,0.08906693472625907,0.5847459014895987,0.5305192294672099,-0.034094306118393605,-5.944917988788082e-05

93,-1.913895326386035e-06,0.20004380716740394,0.1497614686622372,0.04363293853442541,0.08973886264291471,0.5842325780139274,0.5303717622687483,-0.034090978855015976,-6.0289639754694314e-05

94,-3.976363268778059e-06,0.2000910176328955,0.14952274174758484,0.04363294908967621,0.09041159946416001,0.5837188573258552,0.5302242655873415,-0.0340876505360656,-6.113103662199845e-05

95,-6.029058862463792e-06,0.2001380027473245,0.1492837730268556,0.0436329600394895,0.091085162405641,0.5832047849025919,0.5300767790557914,-0.03408432219892254,-6.197329865735705e-05

96,-8.072158699760391e-06,0.20018476624786471,0.14904457117507744,0.043632971394854475,0.09175956310962567,0.5826903967926732,0.5299293298517131,-0.034080994529075107,-6.281635441726626e-05

97,1.6036090367751998e-07,0.19999632625507036,0.14999993954647511,0.04363287681614146,0.08897686831651816,0.5845273937053169,0.5307139971177293,-0.034136636301436665,-6.366037315675605e-05

98,-1.926122806091002e-06,0.200044084823578,0.1497603176813606,0.04363288756786887,0.08965253185641947,0.5840122474021686,0.5305661884030357,-0.034133300653957574,-6.450524194000868e-05

99,-4.001875849136277e-06,0.20009159728842235,0.14952048508069288,0.04363289862977443,0.09032886330856883,0.5834967706606398,0.5304183629337206,-0.03412996426464847,-6.535090324288641e-05

100,-6.067235435369342e-06,0.20013887025919844,0.14928045160598358,0.04363291006850522,0.09100588537596058,0.5829810066638718,0.5302705600708494,-0.03412662816453882,-6.619729019232186e-05

101,-8.12240492250628e-06,0.20018590808138284,0.14904022442289508,0.04363292189574487,0.09168361494823983,0.5824649892011151,0.5301228066612093,-0.03412329303103689,-6.7044336152325e-05

102,1.61780260047803e-07,0.1999962937232275,0.14999993721842275,0.043632825098936026,0.08888628590967011,0.5843095052210745,0.5309086398675503,-0.03417901923461791,-6.789221721272587e-05

103,-1.9361870382539337e-06,0.2000443133721205,0.14975936535975867,0.043632836283238656,0.08956503079890919,0.5837928461191618,0.5307605476495713,-0.034175676642662856,-6.874082458227706e-05

104,-4.022885926774876e-06,0.20009207467668716,0.14951861789109586,0.04363284776239108,0.09024432701768598,0.5832759117761517,0.5306124491913474,-0.0341723335680578,-6.959010495710186e-05

105,-6.0986773774279746e-06,0.20013958478242577,0.1492777033907039,0.043632859603892626,0.09092420180630773,0.5827587434797873,0.5304643836291183,-0.03416899103657339,-7.043999553739844e-05

106,-8.163786915408103e-06,0.2001868485387158,0.14903662777668072,0.04363287181998151,0.09160467639333432,0.582241373152727,0.5303163775362799,-0.03416564971893679,-7.129043364340309e-05

107,1.629592667248131e-07,0.19999626669931744,0.14999993529582062,0.043632773183122815,0.08879527099775417,0.5840921125998261,0.5311031986391554,-0.03422144726372045,-7.214160118628219e-05

108,-1.944464795158342e-06,0.20004450136272636,0.14975857729519243,0.04363278472396241,0.08947655623689052,0.5835741969825419,0.5309548708440966,-0.03421809891664494,-7.299339272630698e-05

109,-4.040175485707856e-06,0.20009246755237753,0.14951707272654935,0.04363279654711481,0.09015829640756222,0.5830560517538766,0.5308065454958106,-0.03421475030106178,-7.384575840553712e-05

110,-6.1245534507736385e-06,0.20014017285748392,0.14927542910742636,0.04363280872077119,0.09084052250179545,0.5825377166354305,0.5306582615442306,-0.03421140243837894,-7.469863876484296e-05

111,-8.197842568446155e-06,0.20018762254468084,0.14903365132469495,0.04363282125761518,0.09152325933584186,0.5820192220076051,0.5305100453366173,-0.03420805599379358,-7.555197437692938e-05

112,1.639380597029047e-07,0.19999624426357857,0.14999993371302353,0.04363272109036239,0.08870389251187662,0.5838751136904611,0.5312977072352231,-0.0342639140648567,-7.640595213630727e-05

113,-1.9512669173207473e-06,0.20004465585032344,0.14975792504326552,0.04363273292532302,0.08938727076921826,0.5833561534215876,0.5311491834633804,-0.03426056094541964,-7.726046929882699e-05

114,-4.054390367202836e-06,0.2000927905818211,0.14951579381809,0.04363274503232352,0.090071024250865,0.582837001263245,0.5310006693165353,-0.03425720773442973,-7.811547881214065e-05

115,-6.145829219719734e-06,0.2001406564145302,0.14927354667817783,0.04363275748011854,0.09075518705095331,0.5823176956428752,0.5308522035899852,-0.03425385544966883,-7.897092395205431e-05

116,-8.22584254295787e-06,0.2001882589604752,0.14903118765796602,0.04363277028175083,0.0914397869522354,0.5817982656665549,0.5307038124437707,-0.03425050475175213,-7.982674796187733e-05

117,1.6475029403738295e-07,0.19999622564476693,0.14999993241429269,0.04363266883836477,0.0886122073783214,0.583658423972851,0.5314921935816677,-0.034306414412311304,-8.068314202642052e-05

118,-1.9568499518346147e-06,0.20004478265839093,0.1497573850853991,0.04363268091611476,0.08929730877570866,0.5831385942010878,0.5313435065585793,-0.0343030573326738,-8.154000555458542e-05

119,-4.066064082948635e-06,0.20009305588210657,0.14951473505567983,0.043632693257477005,0.08998271949159546,0.582618603725313,0.5311948350925997,-0.03429970030772427,-8.23972937700552e-05

120,-6.163302503237739e-06,0.20014105357622286,0.14927198824093751,0.043632705931666106,0.09066847618507173,0.5820984899035256,0.5310462178504554,-0.03429634435222452,-8.325495218269158e-05

121,-8.248836849438466e-06,0.20018878163857975,0.14902914797094888,0.04363271895201493,0.0913546090917287,0.581578280788852,0.5308976808370384,-0.03429299012298907,-8.41129262252839e-05

122,1.6542411783882632e-07,0.19999621019783487,0.14999993135254527,0.043632616441651485,0.08852026262065907,0.5834419735253343,0.5316866807528092,-0.03434894398724194,-8.497141079967619e-05

123,-1.961425703319794e-06,0.2000448865952644,0.1497569379756683,0.0436326287199155,0.08920678132507985,0.5829214190504547,0.5315378575259203,-0.0343455836186571,-8.583030701910362e-05

124,-4.075637425449315e-06,0.2000932734654795,0.14951385831487474,0.04363264125487378,0.0898935548542963,0.5824007296537783,0.5313890547588432,-0.034342223425628086,-8.668957194532932e-05

125,-6.177632598743793e-06,0.20014137932010734,0.14927069768670478,0.04363265411611679,0.09058062198818449,0.5818799418095492,0.5312403110112061,-0.03433886442039578,-8.754915290807297e-05

126,-8.267693256938137e-06,0.20018921029344142,0.14902745883842358,0.043632667317211986,0.09126801499043367,0.5813590827008749,0.531091652159199,-0.03433550725661838,-8.840899713175169e-05

127,1.6598302449676028e-07,0.1999961973844015,0.14999993048817303,0.04363256391215458,0.08842809709015287,0.5832257045102766,0.531881187817141,-0.03439149921993945,-8.926930276099229e-05

128,-1.965169082673683e-06,0.20004497163201737,0.14975656763547063,0.04363257635607974,0.0891157802258803,0.5827045450440699,0.531732250743103,-0.034388136117250306,-9.012997224223758e-05

129,-4.083474630213815e-06,0.20009345160585038,0.1495131320735576,0.04363258905101952,0.08980367312900782,0.5821832719715719,0.5315833381810288,-0.0343847732900203,-9.099096411313977e-05

130,-6.189364386542835e-06,0.20014164602533396,0.14926962862354862,0.04363260206687174,0.09049181633292534,0.5816619210367278,0.531434488601148,-0.034381411748380726,-9.185222718074992e-05

131,-8.28312898387782e-06,0.20018956122032863,0.14902605955116796,0.04363261541739337,0.09118024377820973,0.5811405187038087,0.5312857277727695,-0.034378052143365125,-9.271371013210322e-05

132,1.6644658935600215e-07,0.19999618675587208,0.14999992978796473,0.043632511259692884,0.08833574289132586,0.5830095690903061,0.5320757305352743,-0.03443407715968555,-9.357561396223076e-05

133,-1.9682245640771645e-06,0.20004504104887938,0.14975626077038698,0.04363252384052365,0.08902438137114559,0.5824879036046331,0.5319266980948497,-0.03443071178154704,-9.443784214383767e-05

134,-4.089876704168119e-06,0.20009359714120198,0.1495125302683965,0.04363253666770734,0.08971319236347122,0.5819661421355261,0.5317776935156586,-0.034427346761446244,-9.530035439092799e-05

135,-6.198948221184525e-06,0.2001418639240474,0.14926874269351934,0.043632549811393015,0.09040221785151945,0.5814443198234635,0.5316287551931327,-0.03442398310774417,-9.616310070461805e-05

136,-8.295736856739865e-06,0.20018984788898908,0.14902489991341006,0.043632563285490485,0.091091493162348,0.5809224625388346,0.5314799088077108,-0.034420621469288516,-9.702603096247224e-05

137,1.6683110077696933e-07,0.1999961779389769,0.149999929224146,0.04363245849235466,0.08824322655716646,0.5827935277022169,0.5322703219360148,-0.03447667536732851,-9.788934868526019e-05

138,-1.970711501932468e-06,0.20004509755584926,0.1497560063880527,0.043632471186352884,0.08893264750066024,0.5822714380228863,0.5321212094069193,-0.034473308092905074,-9.875295811808641e-05

139,-4.0950924228748756e-06,0.2000937157231929,0.149512031349439,0.04363248412288035,0.0896222101532735,0.5817492669301554,0.5319721275074013,-0.03446994124477937,-9.96168199035864e-05

140,-6.206756352693937e-06,0.20014204147416076,0.14926800818120353,0.04363249737229135,0.09031195769694128,0.581227049065871,0.5318231145701432,-0.03446657582982204,-0.00010048088500267961

141,-8.306006909798713e-06,0.20019008143401404,0.1490239384219371,0.04363251094861853,0.0910019266050744,0.5807048098098254,0.5316741962015858,-0.03446321249505727,-0.00010134510425843783

142,1.6715009680534632e-07,0.19999617062347172,0.14999992877353907,0.043632405616807354,0.08815057001847407,0.5825775476276682,0.5324649727919413,-0.03451929182657663,-0.00010220968344871458

143,-1.9727285122872126e-06,0.20004514339211246,0.14975579539953238,0.04363241840436881,0.08884063048274067,0.5820551014051557,0.532315792804549,-0.03451592296933349,-0.00010307452738105455

144,-4.099327407812263e-06,0.20009381202324247,0.1495116174984886,0.04363243143132652,0.08953080718712754,0.5815325858153527,0.5321666457348964,-0.03451255459481284,-0.00010393959742185765

145,-6.213096487087122e-06,0.20014218566727235,0.14926739886334425,0.04363244476820217,0.09022114430465669,0.5810100350881332,0.5320175698628643,-0.034509187708626037,-0.00010480484529810935

146,-8.314344225221829e-06,0.20019027105995577,0.14902314076067613,0.043632458429126615,0.09091167925653984,0.5804874741980706,0.5318685907331794,-0.034505822956273066,-0.00010567022263228924

147,1.6741481928365942e-07,0.19999616455173302,0.14999992841683463,0.043632352638549136,0.08805779140378106,0.5823616018100031,0.5326596920120791,-0.034561924870724424,-0.00010653593723701777

148,-1.974357085479314e-06,0.20004518040803382,0.14975562028972897,0.043632365503478786,0.08874837319947142,0.5818388549752032,0.5325104550084888,-0.034558554689820865,-0.00010740189430863016

149,-4.102751621323092e-06,0.200093889902728,0.14951127398287012,0.043632378605241426,0.08943905017694767,0.5813160487325254,0.5323612528138575,-0.03455518503828109,-0.0001082680557678664

150,-6.218222987242061e-06,0.2001423022830538,0.14926689305773383,0.04363239201449497,0.09012986732863813,0.5807932169715089,0.5322121236634798,-0.03455181692064801,-0.0001091343739475545

151,-8.321083670948144e-06,0.20019042437606396,0.14902247855604953,0.04363240574544829,0.09082086285938151,0.5802703843320877,0.5320630930505161,-0.03454845098114465,-0.00011000080109566873

152,1.6763459624417887e-07,0.1999961595099947,0.14999992813796928,0.04363229956211497,0.08796490569969666,0.5821456678750461,0.5328544869661485,-0.034604573122109884,-0.00011086754687561957

153,-1.9756645664109965e-06,0.20004521013280602,0.14975547484486798,0.04363231249103122,0.08865591110452777,0.581622666669416,0.5327052015794924,-0.03460120183181315,-0.00011173451672891431

154,-4.105505556747414e-06,0.2000939525535678,0.14951098862112092,0.04363232565468743,0.08934699427967815,0.5810996142900828,0.5325559525648574,-0.034597831109433604,-0.00011260167299051912

155,-6.222346126644879e-06,0.2001423960994423,0.14926647283684302,0.043632339123852046,0.09003820089502851,0.5805765443454732,0.5324067781197387,-0.03459446195860333,-0.0001134689684665968

156,-8.326502078032268e-06,0.20019054767290073,0.14902192834791167,0.04363235291279535,0.09072956980329763,0.5800534811992305,0.532257703694116,-0.03459109502247269,-0.00011433635590332364

157,1.6781716292556953e-07,0.19999615532099116,0.1499999279235953,0.04363224639124526,0.0878719252962106,0.5819297273208877,0.5330493637523492,-0.03464723544208037,-0.00011520404666264818

158,-1.9767066141576986e-06,0.20004523383028605,0.14975535392717157,0.04363225937308944,0.08856327351061928,0.5814065099748094,0.5329000371202497,-0.03464386321954531,-0.00011607194631246449

159,-4.107705351853036e-06,0.2000940026143676,0.1495107513412179,0.04363227258796883,0.08925468509919486,0.5808832482627948,0.5327507481519266,-0.03464049159679427,-0.00011694001748609375

160,-6.225639735478461e-06,0.20014247106633778,0.14926612337764164,0.04363228610674126,0.08994620629189683,0.5803599755611194,0.5326015350126831,-0.03463712157667874,-0.00011780821335344828

161,-8.330828303455308e-06,0.20019064615094856,0.14902147073870958,0.04363229994372467,0.09063787647708264,0.5798367160053737,0.5324524231162487,-0.03463375380144527,-0.00011867648705362853

162,1.679689304624754e-07,0.19999615183780048,0.1499999277626315,0.043632193129024416,0.08777886043711164,0.5817137648476008,0.5332443274185277,-0.03468991088963524,-0.00011954505152112132

163,-1.977529232498332e-06,0.2000452525450949,0.14975525328854755,0.04363220615465653,0.08847048465358681,0.5811903629679568,0.5330949654421687,-0.03468653788133413,-0.00012041381235196198

164,-4.109447013657397e-06,0.20009404226638816,0.1495105538153052,0.04363221941193983,0.0891621603411891,0.5806669223507949,0.5329456421970254,-0.0346831654991556,-0.00012128273238200306

165,-6.2282475193544545e-06,0.20014253044915414,0.1492658324240152,0.043632232971804026,0.08985393419290794,0.5801434761807177,0.5327963958208437,-0.034679794745278145,-0.00012215176505427859

166,-8.334251546605193e-06,0.2001907241095583,0.14902108968999098,0.043632246848603444,0.09054584603993396,0.5796200484051444,0.5326472516968305,-0.03467642626118405,-0.00012302086381374243

167,1.6809521031883878e-07,0.19999614893870193,0.14999992764588582,0.043632139777994974,0.08768571959210791,0.5814977678028055,0.5334393821448518,-0.03473259868723551,-0.0001238902430631482

168,-1.9781704466790423e-06,0.2000452671406881,0.14975516941653905,0.04363215283986019,0.08837756457196934,0.5809742075201763,0.5332899897031244,-0.034729225014272835,-0.00012475980834540974

169,-4.110809909405044e-06,0.20009407331285028,0.1495103891576762,0.04363216613225755,0.08906945118125079,0.5804506131533613,0.533140636874581,-0.034725851989200494,-0.00012562952261966807

170,-6.230288281409459e-06,0.20014257694746623,0.14926558984227511,0.04363217972617422,0.08976142649572848,0.5799270177287564,0.5329913617732404,-0.034722480613612924,-0.00012649933952712971

171,-8.336928223011755e-06,0.20019078510312563,0.14902077194073576,0.043632193635991565,0.09045353071269165,0.5794034450385814,0.5328421897565221,-0.03471911152834351,-0.00012736921274659162

172,1.682004013734903e-07,0.19999614652288727,0.14999992756573824,0.04363208634025182,0.08759250976431059,0.581281725723109,0.5336345313946971,-0.034775298192534686,-0.0001282393580627819

173,-1.9786616883730665e-06,0.20004527833080057,0.1497550994069467,0.04363209943210518,0.0882845298340868,0.5807580286402522,0.5334851125212245,-0.03477192395504057,-0.00012910968089827453

174,-4.111859651625277e-06,0.2000940972444748,0.149510251675052,0.043632112753590614,0.08897658339589644,0.580234301320336,0.5333357339895469,-0.03476855038342527,-0.0001299801442699709

175,-6.23186023858413e-06,0.20014261279307716,0.14926538725363742,0.043632126375740814,0.08966871784195524,0.5797105766592185,0.5331864338931217,-0.03476517847877269,-0.0001308507019552668

176,-8.338987645979852e-06,0.20019083207018787,0.14902050652641252,0.043632140312956494,0.09036097367220476,0.5791868783211814,0.5330372375674958,-0.03476180888136265,-0.000131721307807246

177,1.6828814565147954e-07,0.19999614450689282,0.14999992751587465,0.04363203281751975,0.08749923674435917,0.5810656299548862,0.5338297780392949,-0.03481800887500382,-0.00013259217892120132

178,-1.979028939849692e-06,0.2000452867054269,0.14975504085850583,0.04363204593419886,0.08819139413912111,0.5805418139309293,0.5336803360687834,-0.0348146341557661,-0.00013346322054376417

179,-4.112650482544257e-06,0.20009411529365334,0.14951013666010055,0.043632059279790955,0.08888357829766134,0.5800179708504637,0.5335309350418698,-0.0348112601172708,-0.00013433439569540586

180,-6.2330445893985995e-06,0.20014263983108446,0.14926521773034065,0.04363207292536439,0.08957583687377764,0.5794941335016859,0.5333816130340684,-0.034807887760152055,-0.00013520565823845469

181,-8.340536723166689e-06,0.20019086744014236,0.14902028438131265,0.04363208688533287,0.0902682106176051,0.5789703254434786,0.5332323953622892,-0.03480451772421495,-0.000136076962151026

182,1.6836145784633605e-07,0.19999614282163158,0.14999992749106575,0.04363197921121739,0.08740590532045688,0.5808494733406937,0.5340251244606948,-0.034860730296601,-0.00013694852577988455

183,-1.9792936792259463e-06,0.2000452927522849,0.14975499178579932,0.04363199234845465,0.08809816881403754,0.5803255531395043,0.5338756621499304,-0.034857355164068037,-0.00013782025414971967

184,-4.113227244867922e-06,0.20009412847922295,0.14951004022070824,0.043632005714035374,0.08879045350820292,0.5798016085112273,0.5337262412797109,-0.034853980724557254,-0.00013869211023976224

185,-6.233908463049165e-06,0.20014265958689018,0.14926507554438306,0.04363201937905545,0.08948280727297571,0.579277672155312,0.5335768999097712,-0.03485060797830324,-0.0001395640479548841

186,-8.341663838970156e-06,0.20019089322146583,0.14902009800974428,0.04363203335793631,0.09017527106531059,0.5787537675438772,0.5334276633410597,-0.034847237564701546,-0.00014043602135749766

187,1.6842283288333315e-07,0.1999961414099277,0.14999992748698215,0.04363192552251043,0.08731251945198658,0.5806332499599762,0.534220572636819,-0.0349034620957847,-0.00014130824999694178

188,-1.979473661675897e-06,0.20004529687455333,0.14975495054725013,0.043631938676777865,0.08800486322441473,0.5801092377862387,0.5340710922647095,-0.03490008660654804,-0.00014218063863790533

189,-4.113627010880749e-06,0.20009413764347578,0.1495099591388148,0.04363195205894289,0.08869722359749384,0.5795852033591572,0.5339216537433861,-0.03489671182047681,-0.00014305315018132427

190,-6.234507357422495e-06,0.20014267332159597,0.14926495595976652,0.043631965740122174,0.08938964861996956,0.5790611793050718,0.5337722951185929,-0.03489333873744758,-0.00014392573853956253

191,-8.342442064068235e-06,0.20019091107464515,0.14901994121416043,0.043631979734740575,0.09008217941975408,0.5785371890247453,0.5336230416775294,-0.034889967996500224,-0.00014479835782564123

192,1.684743351866233e-07,0.19999614022447088,0.14999992750004043,0.043631871752355215,0.08721908241304215,0.5804169549146817,0.5344161242117312,-0.034946203974292066,-0.00014567122875101303

193,-1.979583564941205e-06,0.20004529940553065,0.14975491578558006,0.04363188492073624,0.08791148511411685,0.5798928608571302,0.5342666276620245,-0.03494282817513914,-0.0001465442557888746

194,-4.1138804289884284e-06,0.20009414348275464,0.1495098907536888,0.04363189831667119,0.08860390061231609,0.5793687463432217,0.5341171733016465,-0.034939453087528265,-0.0001474174017312271

195,-6.234887154445319e-06,0.20014268207779884,0.14926485506071377,0.043631912011291976,0.08929637710410147,0.5788446439391168,0.53396779916383,-0.0349360797110123,-0.00014829062046894153

196,-8.342931808722788e-06,0.20019092237247,0.14901980887036148,0.04363192601902324,0.08998895585869153,0.578320576986961,0.533818530523854,-0.03493270868432,-0.00014916386613778737

197,1.6851767271983814e-07,0.1999961392261199,0.14999992752727545,0.04363181790153495,0.08712559691108576,0.580200584152013,0.5346117805536867,-0.03498895568620324,-0.0001500373605778553

198,-1.9796355228869633e-06,0.2000453006207496,0.14975488637857923,0.04363183108161844,0.08781804088612893,0.579676416549903,0.5344622693833667,-0.034985579615814666,-0.00015091100794478878

199,-4.114012836969709e-06,0.20009414657274302,0.14950983286541633,0.04363184448899667,0.08851049451322246,0.579152229976919,0.5343128006816293,-0.03498220426388392,-0.0001517847708963192

200,-6.2350857862299505e-06,0.2001426867174502,0.14926476960963148,0.04363185819481219,0.0892030061109072,0.5786280569497326,0.5341634124704184,-0.034978830629668556,-0.00015265860327785604

201,-8.343183016320047e-06,0.20019092824987803,0.14901969674162358,0.0436318722134865,0.08989561706519231,0.5781039207624049,0.5340141300146048,-0.03497545935162302,-0.00015353245922487883

202,1.6855425839183008e-07,0.19999613838249475,0.1499999275662342,0.04363176397068969,0.08703206518504947,0.579984134317889,0.5348075428030844,-0.03503171702889596,-0.00015440656167842062

203,-1.9796395664640684e-06,0.20004530074799093,0.14975486139839905,0.043631777160482346,0.08772453583475323,0.5794599000640007,0.5346580182989277,-0.03502834071924886,-0.0001552808144550003

204,-4.114045182153532e-06,0.20009414738937292,0.1495097836551001,0.04363179057738042,0.08841701353582385,0.5789356480671697,0.5345085364935798,-0.03502496513376744,-0.00015615518005713026

205,-6.235134612492428e-06,0.20014268795315396,0.1492646969296664,0.04363180429253328,0.0891095467076849,0.5784114108034172,0.5343591353987064,-0.03502159127143738,-0.00015702961226494208

206,-8.343236976805432e-06,0.2001909296451639,0.1490196013250112,0.04363181832035683,0.08980217683286654,0.5778872115274283,0.5342098402700205,-0.03501821977046927,-0.00015790406519457267

207,1.6858526093350978e-07,0.1999961376668126,0.14999992761488756,0.04363170996034081,0.08693848908645391,0.5797676026358025,0.5350034119120923,-0.03507448783556417,-0.0001587787628650873

208,-1.9796039882075817e-06,0.20004529997556067,0.14975484007789355,0.04363172315819475,0.08763097433760203,0.5792433074269696,0.5348538751374335,-0.03507111131309263,-0.00015965360873602114

209,-4.1139947821820094e-06,0.20009414632610953,0.14950974161887615,0.04363173658302254,0.08832346448951832,0.5787189954901816,0.5347043812512674,-0.035067735519495775,-0.000160528565137347

210,-6.235059559231947e-06,0.20014268637404342,0.14926463480759844,0.043631750305977206,0.08901600804498384,0.5781946992681172,0.5345549682558169,-0.03506436145350679,-0.00016140358576753307

211,-8.343127825934799e-06,0.20019092733404859,0.14901951972430189,0.04363176434146703,0.0897086465662909,0.5776704419832859,0.5344056613986704,-0.03506098975311758,-0.0001622786247076186

212,1.686116469640231e-07,0.19999613705692046,0.14999992767155715,0.04363165587091195,0.08684487014646795,0.5795509868066688,0.5351993886773678,-0.035117267969028754,-0.00016315390703575158

213,-1.9795356435590647e-06,0.20004529845913072,0.14975482178278948,0.04363166907546488,0.08753736001433074,0.5790266353509181,0.5350498405107716,-0.035113891255583354,-0.0001640293358396941

214,-4.113875953962176e-06,0.20009414370823986,0.14950970551335677,0.04363168250690781,0.08822985300447651,0.5785022680061392,0.5349003353888258,-0.035110515274895684,-0.0001649048732625584

215,-6.234882060265033e-06,0.20014268246717187,0.14926458141354862,0.04363169623639487,0.08892239768855402,0.5779779171877105,0.5347509113050012,-0.035107141025462474,-0.0001657804729076031

216,-8.342883784798541e-06,0.2001909219578448,0.14901944954491467,0.04363171027832502,0.08961503569476156,0.577453606091919,0.534601593499616,-0.03510376914507774,-0.00016665608880774352

217,1.686342159393575e-07,0.1999961365344974,0.14999992773485543,0.043631601702745514,0.08675120963137002,0.5793342849260423,0.5353954737671076,-0.03516005731661903,-0.00016753194708453827

218,-1.9794401999156247e-06,0.20004529632739587,0.14975480598867538,0.04363161491287122,0.08744369585789673,0.5788098811138607,0.5352459149343464,-0.03515668043026024,-0.00016840795044172438

219,-4.113700533587769e-06,0.20009413980468566,0.14950967431052062,0.043631628349842556,0.08813618373586907,0.5782854621060121,0.5350963992746691,-0.03515330427985926,-0.0001692840608237146

220,-6.234619835468469e-06,0.20014267663520013,0.14926453523459082,0.04363164208481258,0.0888287218938234,0.5777610602955702,0.5349469647733656,-0.035149929863689575,-0.00017016023172735888

221,-8.342528184561784e-06,0.20019091404674477,0.14901938880703458,0.04363165613216957,0.08952135201440792,0.5772366988575215,0.5347976366641898,-0.03514655781936452,-0.00017103641712667633

222,1.6865362900599784e-07,0.19999613608439193,0.14999992780363475,0.04363154745611684,0.0866575085884012,0.5791174954156767,0.5355916677433814,-0.03520285578593781,-0.00017191284417367866

223,-1.9793223425233764e-06,0.20004529368674823,0.14975479226197427,0.043631560670884285,0.08734998434308298,0.578593042461616,0.5354420988438789,-0.03519947874159208,-0.00017278941517792596

224,-4.113478306160337e-06,0.20009413483777044,0.14950964716041304,0.04363157411248562,0.08804246053272181,0.5780685748848977,0.5352925732229681,-0.035196102435839476,-0.00017366609187534246

225,-6.234287534277565e-06,0.20014266921101795,0.1492644950198585,0.04363158785207106,0.08873498583283669,0.5775441250604209,0.5351431288582287,-0.0351927278667412,-0.00017454282764711303

226,-8.342080313672104e-06,0.20019090403907225,0.14901933587377872,0.043631601904017055,0.08942760197105386,0.5770197161459413,0.5349937909774347,-0.03518935567174408,-0.00017541957639945484

227,1.686704329123545e-07,0.19999613569407412,0.1499999278769462,0.04363149313124571,0.08656376788368164,0.5789006169669557,0.5357879710805888,-0.03524566330135869,-0.00017629656630411994

228,-1.979185944680703e-06,0.20004529062514242,0.1497547802442126,0.04363150634988522,0.08725622751623106,0.5783761175267135,0.5356383926092871,-0.03524228611136096,-0.000177173699268074

229,-4.113217361200253e-06,0.2000941289912927,0.1495096233603074,0.04363151979537386,0.08794868657753131,0.5778516039373178,0.5354888575031262,-0.03523890966212469,-0.00017805093681066202

230,-6.233897267673809e-06,0.20014266046983206,0.14926445973515856,0.04363153353885753,0.0886411937818947,0.5773271085589081,0.5353394037323655,-0.03523553495150779,-0.00017892823218975193

231,-8.34155611828969e-06,0.20019089229719922,0.14901928939180356,0.04363154759469989,0.08933379089409432,0.576802654535374,0.5351900565192813,-0.03523216261680236,-0.00017980553923639632

232,1.686850797646619e-07,0.199996135353183,0.14999992795400557,0.04363143872830608,0.0864699882335647,0.5786836484941313,0.5359843841807066,-0.03528847980112853,-0.00018068308713323488

233,-1.9790342084442802e-06,0.20004528721529086,0.14975476963901255,0.043631451950181366,0.0871624270694374,0.5781591047613531,0.535834796546149,-0.03528510247567084,-0.0001815607773776555

234,-4.112924386423869e-06,0.20009412241720156,0.14950960232920496,0.04363146539894334,0.0878548645017042,0.577634547270657,0.5356852523476036,-0.03528172589275678,-0.0001824385712657363

235,-6.233459048021403e-06,0.20014265063916117,0.14926442852544408,0.04363147914573236,0.08854734927669985,0.5771100083702457,0.5355357895483313,-0.03527835105004842,-0.00018331642192570408

236,-8.34096878139963e-06,0.20019087912070566,0.14901924824219653,0.04363149320489852,0.08923992318986973,0.5765855111929248,0.535386433365509,-0.03527497858469284,-0.00018419428310736106

237,1.6869794341057426e-07,0.19999613505315064,0.1499999280341641,0.043631384247433874,0.08637617023056299,0.5784665890956675,0.5361809073858833,-0.03533130523497042,-0.00018507238499692002

238,-1.9788697809639683e-06,0.20004528351730447,0.14975476020133635,0.043631397472018954,0.08706858440190113,0.5779420028819845,0.5360313109251669,-0.035327927782472866,-0.00018595062867639484

239,-4.1126049106499085e-06,0.20009411524111473,0.14950958358675184,0.04363141092354671,0.08776099648100467,0.5774174032336012,0.5358817579583698,-0.035324551073981775,-0.00018682897521306828

240,-6.23298115267918e-06,0.20014263990709782,0.1492644006837859,0.04363142467315097,0.08845345524063282,0.576892822489118,0.5357322864420196,-0.03532117610696957,-0.0001877073776003018

241,-8.340329201576499e-06,0.2001908647572586,0.14901921149987218,0.043631438735167616,0.08914600250154994,0.5763682837725561,0.5355829215885234,-0.035317803518446274,-0.0001885857895016161

242,1.6870933299689694e-07,0.1999961347868931,0.14999992811688576,0.04363132968873341,0.08628231436479082,0.5782494380222947,0.53637754098885,-0.035374139562101246,-0.00018946444210075612

243,-1.9786948505969015e-06,0.20004527958087753,0.1497547517285951,0.043631342915593445,0.08697470067065319,0.5777248108234977,0.5362279359799917,-0.0353707619895187,-0.00019034323605954552

244,-4.112263504553806e-06,0.20009410756688256,0.1495095667358068,0.04363135636946741,0.08766708431447702,0.577200170456983,0.5360783745122387,-0.03536738516214141,-0.00019122213221190362

245,-6.232470424597826e-06,0.2001426284291411,0.1492643756257179,0.04363137012148176,0.08835951409081752,0.5766755492536783,0.5359288945356045,-0.03536401007725721,-0.00019210108341200996

246,-8.339646388749386e-06,0.20019084941160792,0.14901917840000017,0.04363138418595761,0.08905203184133222,0.5761509703307219,0.5357795212579983,-0.035360637371745704,-0.00019298004323294545

247,1.6871950410824593e-07,0.1999961345485525,0.1499999282017276,0.04363127505228328,0.0861884210416857,0.578032194650595,0.5365742852415101,-0.035416982749591035,-0.00019385924385100078

248,-1.978511226493132e-06,0.20004527544709155,0.14975474405329556,0.043631288281058826,0.08688077683249151,0.5775075277013477,0.5364246719136715,-0.0354136050626668,-0.0001947385855038046

249,-4.1119039467856985e-06,0.20009409948035736,0.14950955144802833,0.043631301736932165,0.08757312948969065,0.5769828478048721,0.5362751021652584,-0.03541022812192829,-0.0001956180287881381

250,-6.231932520917027e-06,0.2001426163338424,0.14926435286802534,0.04363131549102168,0.08826552782580761,0.5764581872860182,0.5361256139399512,-0.035406852924482896,-0.00019649752641543307

251,-8.338927791531198e-06,0.20019083325302123,0.14901914831024765,0.043631329557633304,0.08895801369973377,0.5759335692566141,0.5359762324413855,-0.03540348010708529,-0.00019737703186489518

252,0.0002997790829340277,0.19999651125293882,0.14989985701470027,0.04213303132012348,0.08626505924921717,0.5775532628610054,0.5365668037344901,-0.03544497889834351,-0.0001982567044127911

253,0.00029771094076083086,0.200045525243674,0.14965468121764863,0.0421330446945692,0.08695740216366314,0.5770285592581426,0.5364172295219071,-0.03544160212872098,-0.00019913650456067266

254,0.00029565607976198005,0.2000942241448747,0.14940949726174968,0.04213305829814564,0.08764975133143219,0.5765038479908237,0.5362677055571042,-0.03543822628144352,-0.00020001639741899294

255,0.00029361406499228346,0.20014261720363724,0.1491643071944446,0.042133072193134884,0.08834215432233185,0.5759791598220922,0.5361182674962367,-0.03543485228820374,-0.00020089633654339195

256,0.0008994892207028118,0.19999752280078673,0.14969985952877532,0.03913386030742459,0.08654160877664818,0.576862257236665,0.5363275334847667,-0.03545029793508612,-0.00020177634782103483

257,0.0008975783016415108,0.20004628113567124,0.14945470917548806,0.039133873936954396,0.08723392414941186,0.5763375089333316,0.5361780245009554,-0.03544692256483153,-0.00020265645403032552

258,0.0008956795007115433,0.20009472940303746,0.14920955232532224,0.03913388781515311,0.08792627099585414,0.5758127709902503,0.5360285856368513,-0.0354435486340707,-0.00020353662196490534

259,0.000893792474922642,0.20014287561413718,0.14896438974622483,0.03913390197980192,0.088618693125767,0.5752880690016061,0.5358792461339968,-0.035440176895917934,-0.0002044168084660907

260,0.001499486924216347,0.19999752368028484,0.14949986421792533,0.03613315207136127,0.08682446153386035,0.5761745440696809,0.5360948979439615,-0.03545602055974144,-0.00020529704800455832

261,0.001497731214000578,0.20004604015171568,0.14925473803525133,0.036133165939117064,0.08751683127580326,0.5756497962160035,0.53594550357532,-0.03545264784529246,-0.0002061773685271413

262,0.001495986620449783,0.20009424857522828,0.14900960400658514,0.036133180038105624,0.08820924691978414,0.575125061607425,0.5357961842539132,-0.0354492766920211,-0.00020705774226512544

263,0.001494252836674181,0.2001421566339296,0.1487644626549819,0.03613319440599288,0.08890175077484702,0.5746003640879955,0.5356469677733914,-0.03544590781724059,-0.00020793813025745344

264,0.0020994877957471857,0.19999752500508994,0.14929987186911875,0.03313216893379877,0.08711979818759523,0.5754935194977444,0.5358753876326126,-0.03546255520740705,-0.00020881857321993657

265,0.0020978856324535755,0.20004580578187015,0.14905476046566524,0.033132182967068,0.08781227377907273,0.5749687761886064,0.5357261196314185,-0.035459185441622645,-0.00020969909780564435

266,0.0020962936254638022,0.20009377966446124,0.14880963926363833,0.03313219721608514,0.08850480580836736,0.5744440445814919,0.5355769278544679,-0.03545581726535177,-0.00021057967777498278

267,0.0020947114948856706,0.2001414542073584,0.1485645087724437,0.03313221171970385,0.0891974358579729,0.5739193480300097,0.5354278396596981,-0.03545245138545672,-0.0002114602754673485

268,0.002699488621096851,0.19999752619250685,0.14909987945167305,0.030130981160655813,0.0874276040265851,0.5748191878915899,0.5356689541127596,-0.03546989774621686,-0.000212340935629054

269,0.0026980384682312843,0.20004557505566484,0.1488547721930475,0.030130995300147744,0.08812022528213903,0.5742944418174529,0.5355198142707376,-0.0354665309745226,-0.00021322168202938483

270,0.0026965975274157875,0.20009331785002074,0.1486096531833156,0.030131009644299236,0.08881291174315606,0.5737697048551164,0.5353707507670082,-0.03546316579430677,-0.00021410248874213135

271,0.0026951655430879793,0.20014076206335452,0.14836452298017858,0.03013102423311552,0.08950570452248374,0.5732450002397789,0.5352217908207878,-0.03545980290934767,-0.00021498331850682703

272,0.003299489418456072,0.19999752721066738,0.14889988699134363,0.027129642759573594,0.08774786462852927,0.5741515628615086,0.5354755805677105,-0.03547804704740326,-0.0002158642194310044

273,0.003298189795402489,0.2000453470219061,0.14865477355888057,0.027129656962974757,0.08844066559033031,0.5736268043622129,0.5353265678974755,-0.03547468324633727,-0.0002167452119403534

274,0.003296898448736398,0.20009286143088145,0.14840964657733707,0.02712967136374321,0.08913353947923146,0.573102052315644,0.5351776314075537,-0.035471321031961114,-0.00021762627006604503

275,0.003295615146293472,0.2001400778797293,0.14816450666568437,0.027129686002784707,0.08982652703587918,0.5725773299423628,0.5350287982669087,-0.03546796110716442,-0.00021850735668629476

276,0.0038994901943773543,0.1999975280671911,0.14869989449702994,0.02412820779181523,0.08808056654060444,0.5734906576351264,0.5352952569243885,-0.03548700268668569,-0.00021938852307710265

277,0.0038983396545694943,0.2000451212362609,0.1484547652573846,0.02412822203043697,0.08877357756451992,0.5729658772699224,0.5351463697756645,-0.035483641816384075,-0.00022026978620414632

278,0.0038971964614224245,0.20009240956956478,0.1482096208498167,0.024128236461918622,0.08946666847982505,0.572441100888858,0.5349975586078326,-0.035480282526948015,-0.00022115111995877772

279,0.0038960604057357157,0.20013940047206424,0.14796446195365986,0.024128251127830805,0.09015987970181003,0.571916351722356,0.5348488505657064,-0.0354769255210272,-0.00022203248728816014

280,0.004499490951366431,0.1999975287732665,0.14849990197306606,0.021126730334472616,0.08842569664156275,0.5728364850991329,0.53512797511096,-0.035496764425281886,-0.00022291394258653697

281,0.004498488074147468,0.20004489742324286,0.1482547480060861,0.021126744589373303,0.08911894529574817,0.5723116742886719,0.5349792117808293,-0.035493406444605836,-0.00022379549934567234

282,0.004497491618561029,0.20009196172834431,0.14800957742014867,0.021126759034553615,0.0898122801968183,0.5717868652327035,0.5348305242542101,-0.035490050039508926,-0.0002246771312970343

283,0.004496501398088366,0.20013872906074864,0.14776439095056293,0.021126773712071306,0.09050574146397816,0.5712620811732405,0.5346819396592931,-0.035486695912589024,-0.00022555880144396563

284,0.005099491690593471,0.19999752933989537,0.148299909422212,0.018125264462499003,0.08878324196381165,0.5721890578717155,0.5349737276620634,-0.035507332059510954,-0.00022644056729071165

285,0.0050986350771415,0.2000446753781494,0.14805472245799312,0.01812527872140541,0.08947675353284756,0.5716642089796792,0.5348250865569838,-0.03550397693005785,-0.00022732243887110308

286,0.005097783964207932,0.20009151749995296,0.14780951757212196,0.01812529316931126,0.0901703571932934,0.5711393598407045,0.5346765211142208,-0.03550062337178574,-0.00022820438975899263

287,0.005096938187728939,0.20013806304761403,0.1475642955510384,0.018125307848636675,0.0908640927902086,0.57061453370416,0.5345280584474084,-0.03549727208729335,-0.0002290863830174122

288,0.005699492412701333,0.19999752977694063,0.14809991684656593,0.015123864239835336,0.0891531896143885,0.5715483883574259,0.534832507287099,-0.03551870537786694,-0.0002299684792640214

289,0.005698780683316461,0.20004445493471867,0.14785468918526973,0.01512387849494308,0.08984698745214809,0.5710234946195056,0.5346839869533812,-0.03551535306472119,-0.0002308506850986132

290,0.005698073536646844,0.20009107655092073,0.1476094424283098,0.015123892938635941,0.09054088278999983,0.5704985988364781,0.5345355421769946,-0.03551200231924713,-0.00023173297394544053

291,0.005697370830884591,0.20013740194024002,0.14736417740877983,0.015123907613611296,0.09123491521682779,0.5699737242597961,0.5343872000575409,-0.03550865384405871,-0.00023261530893469256

292,0.00629949311806267,0.199997530092992,0.14789992424786824,0.012122583712965323,0.08953552672915405,0.570914488791984,0.5347043067292991,-0.035530884150031986,-0.0002334977538033573

293,0.00629892491004669,0.20004423595294687,0.14765464868296596,0.012122597959430161,0.09022963253797212,0.5703895442124033,0.5345559058466463,-0.03552753462160152,-0.00023438031174236057

294,0.006298360369751392,0.2000906385995876,0.1474093529592981,0.012122612394637728,0.0909238408816091,0.5698645959666276,0.5344075804489244,-0.03552418665813258,-0.0002352629560351008

295,0.00629779937744489,0.2001367453218651,0.14716403795267938,0.012122627061505286,0.09161819110803156,0.5693396673032581,0.5342593576218486,-0.035520840962259326,-0.00023614564988663384

296,0.006899493806870586,0.19999753029545714,0.14769993162761774,0.00912147690507101,0.0899302404400854,0.5702873712799343,0.5345891187135758,-0.03554386812520561,-0.00023702846015896656

297,0.006899067772766251,0.20004401831331792,0.1474546013775575,0.00912149113999265,0.09062467450347098,0.569762370529741,0.5344408360797263,-0.035540521352838916,-0.00023791138665863013

298,0.006898644493767376,0.2000902034052477,0.14720925000099888,0.009121505564189817,0.09131921581483338,0.569237364645418,0.5342926288867826,-0.035537176143418725,-0.00023879440253616636

299,0.0068982238720534435,0.20013609283605394,0.1469638784130814,0.009121520220761173,0.09201390349435791,0.5687123768684366,0.5341445242066774,-0.03553383319960318,-0.00023967747107836007

300,0.007499494479177877,0.1999975303907021,0.14749993898712696,0.0061205978102905085,0.0903373178492051,0.5696670478266228,0.5344869359223025,-0.03555765703299636,-0.000240560662276946

301,0.007499209285282014,0.2000438019132642,0.1472545476358904,0.006120612032034488,0.0910320992296807,0.5691419861524233,0.5343387704368895,-0.03555431299058103,-0.00024144397257730847

302,0.007498925935886403,0.20008977076124948,0.14700913427235648,0.0061206264438311165,0.09172699229450357,0.5686169180083162,0.5341906803727855,-0.035550970509694815,-0.00024232737500399408

303,0.007498644354930268,0.2001354441767037,0.1467636998480753,0.006120641088934651,0.09242203594745305,0.5680918666250424,0.5340426927882932,-0.03554763029302483,-0.00024321083293127123

304,0.008099495134919438,0.19999753038418971,0.1472999463275575,0.003120000387960838,0.09075674600683176,0.569053530365424,0.5343977509805793,-0.03557225058488024,-0.00024409441948417747

305,0.008099349460024632,0.20004358666455352,0.1470544877733549,0.0031200145957086868,0.0914518927153051,0.5685284035097822,0.5342497016303818,-0.03556890924847643,-0.00024497812776889906

306,0.008099204720716317,0.2000893404898028,0.14680900639142055,0.0031200289944440024,0.09214715530611928,0.5680032689624374,0.5341017277028332,-0.03556556947269587,-0.00024586193068967376

307,0.008099060862553116,0.2001347990804219,0.1465635031672214,0.0031200436275593004,0.09284257247652787,0.5674781499404149,0.5339538562428271,-0.03556223196026117,-0.00024674579171289276

308,0.008699495773928466,0.19999753028060563,0.14709995364994505,0.00011973855683224853,0.09118851189315141,0.5684468307809255,0.5343215564453057,-0.03558764847565567,-0.0002476297870993785

309,0.00869948830826019,0.20004337249117887,0.14685442206105775,0.0001197527502845659,0.09188404103426219,0.5679216349136007,0.534173622291313,-0.03558430982317495,-0.00024851390663684005

310,0.008699480870680867,0.2000889124377475,0.14660886688942076,0.00011976713575978711,0.09257969005031295,0.5673964302311024,0.5340257635792169,-0.03558097273084846,-0.00024939812311378356

311,0.008699473428237781,0.2001341573202795,0.1463632891522877,0.00011978175677697173,0.09327549744063236,0.5668712399342943,0.5338780073407869,-0.03557763790144236,-0.00025028240009232385

312,0.00929949639594963,0.19999753008396728,0.14689996095521932,-0.0028801338107347723,0.09163260240251929,0.5678469609286381,0.5342583447962138,-0.03560385038474776,-0.00025116681697055803

313,0.00929962584027077,0.200043159327587,0.14665435073203148,-0.00288011963155325,0.09232853029946199,0.5673216925873891,0.5341105249624377,-0.03560051439567551,-0.0002520513602373202

314,0.009299754406361056,0.2000884864729901,0.14640871622294427,-0.0028801052592501712,0.09302458188687933,0.5667964143923546,0.5339627806051008,-0.03559717996666092,-0.00025293600256895605

315,0.009299882082633965,0.20013351870054163,0.14616305847517985,-0.0028800906501879305,0.09372079547367793,0.5662711495262571,0.5338151387431919,-0.035593847800523125,-0.00025382070762596843

316,0.009899497000650317,0.19999752979771826,0.14669996824422105,-0.005879562894577306,0.09208900433008721,0.5672539326517293,0.5342081084282176,-0.03562085597734011,-0.00025470555794433427

317,0.009899762065508393,0.2000429471171724,0.14645427398658806,-0.005879548729444841,0.09278534663182604,0.5667285886914161,0.53406040209206,-0.03561752263249656,-0.00025559053673262117

318,0.009900025346786016,0.20008806248147104,0.14620855478442943,-0.005879534370053298,0.09348181628684354,0.56620323391199,0.5339127712799322,-0.0356141908479312,-0.00025647561655768526

319,0.009900286854147476,0.2001328830521772,0.1459628117133882,-0.0058795197726520775,0.09417845142018409,0.565677891476455,0.5337652429984341,-0.03561086132652676,-0.0002573607611802473

320,0.010499497587630493,0.19999752942480997,0.14649997551771568,-0.008878494932532307,0.0925577043604264,0.5666677577951863,0.5341708396447787,-0.035638664905345174,-0.00025824605627399594

321,0.010499896992725766,0.2000427358109892,0.14625419199692274,-0.008878480781112377,0.09325447613378236,0.56614233534403,0.534023246028754,-0.03563533418668014,-0.0002591314817849624

322,0.010500293709679668,0.20008764036457038,0.14600838291119347,-0.008878466434272684,0.09395137879138969,0.5656169011717741,0.5338757279954653,-0.03563200502878341,-0.00026001701017238743

323,0.010500687769297969,0.20013225022901848,0.14576254936327465,-0.008878451848153581,0.0946484502801802,0.5650914784204717,0.5337283125395584,-0.03562867813461281,-0.00026090260529830267

324,0.01109949815643128,0.19999752896777143,0.14629998277640574,-0.011876876226225677,0.09303868905787398,0.5660884482177744,0.5341465306521294,-0.03565727680823318,-0.0002617883559732696

325,0.011100030630086837,0.20004252536664957,0.14605410491107435,-0.011876862088119514,0.09373590486660877,0.5655629446397777,0.5339990490167554,-0.035653948698649844,-0.0002626742388977437

326,0.011100559511668917,0.20008722003688736,0.14580820089319446,-0.011876847753419741,0.09443325497668326,0.5650374284934926,0.5338516430322789,-0.035650622150553604,-0.0002635602264245223

327,0.011101084853020606,0.20013162010447266,0.145562271851498,-0.011876833178160583,0.09513077716197041,0.5645119228990872,0.5337043396818616,-0.03564729786698982,-0.00026444628251739516

328,0.011699498706542537,0.19999752842876897,0.14609999002094037,-0.014874653146843289,0.0935319448583713,0.5655160158020955,0.5341351735542337,-0.035676691313739045,-0.00026533249912237886

329,0.011700162985259941,0.20004231574737982,0.14585401285632915,-0.01487463902162291,0.09422961883109364,0.5649904286647615,0.5339878031919281,-0.0356733657969426,-0.0002662188497106429

330,0.011700822768458696,0.20008680142433843,0.1456080089797041,-0.014874624698628184,0.09492743042376874,0.5644648281594111,0.5338405085567088,-0.03567004184254567,-0.00026710530652909644

331,0.01170147812891946,0.2001309925687053,0.14536197954483454,-0.014874610133789455,0.09562541724166662,0.5639392373836486,0.5336933166207543,-0.03566672015369421,-0.00026799183364316907

332,0.012299499237409493,0.19999752780965863,0.14589999725192362,-0.01787177214087965,0.09403745806259191,0.5649504724630128,0.5341367603483869,-0.035696908038464564,-0.00026887852613241965

333,0.01230029406549597,0.2000421069212122,0.14565391594214577,-0.017871758028108135,0.09473560395105557,0.5644247995096183,0.5339895005782268,-0.0356935850988324,-0.00026976535425443746

334,0.012301083494978512,0.2000863844625275,0.14540780738504236,-0.017871743716378476,0.09543389069283736,0.56389911242964,0.5338423166181431,-0.035690263722675614,-0.0002706522901502593

335,0.012301867619479457,0.2001303675262271,0.14516167275861874,-0.017871729161518964,0.09613235572854702,0.5633734342976577,0.5336952354298561,-0.0356869446132544,-0.0002715392979863431

336,0.012899499748438575,0.19999752711202978,0.1457000044699217,-0.02086817988836146,0.09455521483051567,0.564391830154877,0.5341512829228807,-0.03571792659270346,-0.0002724265199513542

337,0.012900423908201886,0.20004189885846535,0.1454538142628099,-0.020868166087181474,0.09525384606036524,0.5638660692813044,0.5340041330881727,-0.03571460621954974,-0.0002733138798989991

338,0.012901341795964185,0.20008596908987586,0.14520759629384172,-0.020868152214960623,0.09595262130327735,0.5633402935586688,0.5338570591524402,-0.035711287410599674,-0.00027420134398606583

339,0.012902253522517997,0.20012974488307736,0.1449613517645449,-0.02086813821086349,0.09665157783860091,0.5628145260381122,0.5337100880673312,-0.035707970869250996,-0.00027508887657328026

340,0.013499500239248603,0.1999975263380946,0.14550001167546842,-0.0238638232135363,0.09508520118071515,0.5638401008785441,0.5341787330549388,-0.03573974658077348,-0.0002759765873785035

341,0.013500552562002657,0.20004169153243817,0.14525370789911124,-0.023863809893592717,0.09578433089299283,0.5633142501116324,0.5340316925133922,-0.03573642875389149,-0.00027686443070401465

342,0.013501597701256925,0.2000855552558674,0.14500737586402118,-0.02386379645752467,0.09648360771339516,0.562788383803588,0.5338847279640434,-0.03573311249250757,-0.00027775237928497445

343,0.013502635788516095,0.20012912456962145,0.1447610167947487,-0.023863782847800268,0.09718306876329585,0.562262524982231,0.5337378663493452,-0.03572979850028156,-0.00027864039882695944

344,0.01409950070899883,0.19999752548838537,0.14530001886907146,-0.026858648295485708,0.09562740297328377,0.5632952966822232,0.5342191023939498,-0.035762367573353944,-0.0002795286023551804

345,0.014100679927699929,0.20004148492775045,0.14505359692064346,-0.02685863530191588,0.09632704406132907,0.5627693541617489,0.5340721705193557,-0.03575905227878577,-0.0002804169409058876

346,0.014101851053610179,0.20008514292779106,0.14480714623193447,-0.026858622160887337,0.09702683529694844,0.562243395435467,0.5339253147345631,-0.0357557385512292,-0.00028130538702211187

347,0.014103014239433748,0.20012850653446304,0.14456066805001883,-0.026858608817648396,0.09772681364630208,0.5617174435078558,0.533778561973281,-0.03575242709449479,-0.0002821939064225309

348,0.014699501156841389,0.19999752456332903,0.14510002605121494,-0.029852601988130476,0.09618180591607106,0.5627574296668689,0.5342723824750646,-0.03578578914753156,-0.00028308261519676965

349,0.014700806021263757,0.20004127902479987,0.14485348138756013,-0.029852589216179594,0.09688197105831443,0.5622313936323027,0.5341255586540891,-0.03578247637169315,-0.0002839714611131153

350,0.014702101885748636,0.2000847320666974,0.1446069075151852,-0.02985257627539214,0.09758228933901025,0.5617053407510347,0.533978811023965,-0.03577916516443146,-0.00028486041654384017

351,0.014703388923907426,0.2001278907200222,0.1443603057032884,-0.029852563112850033,0.09828279757160902,0.5611792940043232,0.5338321665102294,-0.03577585622972496,-0.00028574944724683697

352,0.015299501582107094,0.199997523563894,0.1449000332223645,-0.03284563123809254,0.0967483955654539,0.562226511992551,0.5343385647149856,-0.03581001087124685,-0.0002866386723974963

353,0.01530093085630586,0.20004107380682187,0.144653361351553,-0.03284561861750522,0.09744909725214389,0.5617003807695351,0.5341918483441329,-0.03580670060070504,-0.00028752803653628154

354,0.0153023502247581,0.20008432263875342,0.14440665981482287,-0.03284560581337351,0.0981499550256942,0.5611742320796964,0.534045208268,-0.0358033919003508,-0.00028841751188574577

355,0.015303759881759704,0.2001272770760345,0.14415992990316762,-0.032845592773978305,0.0988510055491223,0.5606480888813168,0.5338986714045467,-0.03580008547434755,-0.00028930706426108684

356,0.015899501984096502,0.19999752249089134,0.14470004038296863,-0.035837683088580305,0.09732715732004056,0.561702555878606,0.5344176404064089,-0.035835032303207316,-0.000290196815936874

357,0.015901054443752824,0.2000408692589818,0.14445323685712796,-0.03583767057221303,0.09802840787635317,0.5611763278676707,0.5342710308897984,-0.03583172452465888,-0.0002910867082568169

358,0.015902596092626124,0.20008391461404995,0.14420640321781608,-0.035837657862061036,0.09872981743071728,0.5606500817880272,0.5341244977740859,-0.035828418317948724,-0.00029197671330702114

359,0.01590412714552195,0.2001266655580609,0.14395954077755355,-0.035837644907179535,0.0994314224977926,0.5601238405753182,0.5339780679702618,-0.03582511438744192,-0.00029286679697115766

360,0.016499502362086492,0.19999752134500087,0.14450004753346207,-0.03882870468909764,0.09791807641922744,0.561185573605561,0.5345096007167967,-0.035860852993187524,-0.0002937570846307442

361,0.016501176792701223,0.2000406653681034,0.14425310794264118,-0.0388286922452893,0.098619888025136,0.5606592472725579,0.5343630974643426,-0.035857547693437186,-0.000294647514457639

362,0.016502839507867538,0.20008350796604046,0.1440061377990786,-0.03882867960044807,0.0993218615075792,0.5601329022850319,0.5342166707208462,-0.03585424396720962,-0.00029553805840951375

363,0.01650449074275834,0.20012605612664888,0.14375913843660304,-0.03882866670411949,0.10002403323475975,0.5596065615564007,0.5340703473909431,-0.03585094251908799,-0.00029642868244499987

364,0.01709950271533486,0.19999752012679473,0.14430005467426793,-0.04181864315413863,0.09852113794184979,0.5606755775163776,0.5346144366856717,-0.03588747247798302,-0.00029731947181609486

365,0.01710129788106188,0.20004046212484505,0.14405297464103514,-0.04181863046835878,0.09922352264847444,0.5601491513836666,0.5344680391095076,-0.03588416963960379,-0.00029821040421618746

366,0.01710308039800077,0.20008310267826585,0.14380586362284925,-0.04181861745043578,0.0999260720810059,0.559622706024501,0.534321718151718,-0.035880868376945214,-0.00029910145711537677

367,0.017104850525110266,0.2001254487607331,0.14355872297470937,-0.04181860406638075,0.10062882246304068,0.5590962643306933,0.53417550071136,-0.03587756939480884,-0.00029999259638819443

368,0.017699503042851377,0.1999975188359293,0.14410006180579998,-0.04480744566625931,0.09913632680156888,0.5601725800163222,0.5347321392223485,-0.035914890281789597,-0.00030088394528121566

369,0.01770141767507643,0.20004025952180704,0.1438528369810622,-0.044807432558822705,0.09983929654717598,0.5596460526569615,0.5345858467413965,-0.035911589897268885,-0.00030177544528930706

370,0.017703318762380682,0.20008269873125636,0.14360558074540125,-0.04480741915806781,0.10054243384303987,0.5591195055125296,0.5344396309899376,-0.035908291090233024,-0.00030266706728414555

371,0.017705206583789265,0.20012484342424755,0.14335829447478102,-0.04480740542683726,0.10124577476961388,0.5585929614535455,0.5342935188617683,-0.035904994565619526,-0.00030355877603198015

372,0.01829950334404102,0.19999751747343242,0.1439000689284618,-0.047795058851217466,0.09976362775624563,0.5596765935755331,0.5348626991045067,-0.03594310590367154,-0.0003044502919939926

373,0.018301536003277885,0.20004005756587895,0.14365269498618227,-0.04779504274719701,0.10046719437228074,0.5591499636017819,0.5347165111196156,-0.035939807920135604,-0.0003053419639061428

374,0.018303553956225578,0.20008229616449583,0.14340528921171913,-0.04779502523451904,0.10117093133763522,0.5586233132922946,0.534570399974656,-0.035936511520491654,-0.0003062338074398104

375,0.018305557535422706,0.20012424021303146,0.14315785300225714,-0.047795006421481774,0.10187487459208877,0.5580966654982356,0.534424392560268,-0.035933217409539316,-0.00030712578330707475

376,0.018899503616153345,0.19999751603258387,0.1437000760426564,-0.05078142854220962,0.10040302536263518,0.5591876307173392,0.5350061069522744,-0.03597211878492747,-0.0003080179422689253

377,0.018901652507973463,0.2000398562788636,0.14345254867948826,-0.05078140809201489,0.10110720059646813,0.5586608967851016,0.5348600229002065,-0.03596882324021373,-0.0003089103118172477

378,0.01890378587303721,0.20008189497572854,0.1432049890685333,-0.05078138664232572,0.10181154896300275,0.5581341419827409,0.5347140158034858,-0.035965529281067984,-0.0003098028526882314

379,0.018905904060869394,0.20012363905358763,0.14295739862751564,-0.050781364266518574,0.10251610626130701,0.5576073891406247,0.5345681125475832,-0.03596223761174182,-0.00031069551705952583

380,0.019499503860008077,0.1999975145194104,0.14350008314876495,-0.053766507142398196,0.101054504091126,0.5587057040507468,0.5351623533515558,-0.03600192856988091,-0.0003115883579899925

381,0.019501768117863534,0.20003965557592668,0.14325239808023849,-0.05376648377954113,0.10175929961436117,0.5581788648592563,0.5350163726583977,-0.03599863544803717,-0.00031248140104157346

382,0.0195040160044873,0.20008149502009598,0.14300468035162062,-0.05376645969467452,0.10246427103378611,0.5576520042698149,0.5348704690337108,-0.03599534391269376,-0.0003133746076309971

383,0.019506247883439708,0.20012303976964896,0.1427569314013355,-0.05376643493439391,0.1031694540094505,0.5571251450931396,0.5347246693595215,-0.03599205466846757,-0.0003142679307984332

384,0.020099504076161887,0.1999975129389871,0.1433000902471786,-0.0567502421073944,0.1017180482434147,0.5582308262578536,0.535331428711947,-0.03603253475184451,-0.0003151614272402115

385,0.020101882742317077,0.2000394554602611,0.14305224320303286,-0.05675021679567269,0.10242347564948705,0.5577038805299352,0.5351855507967942,-0.036029244036891415,-0.0003160551205498053

386,0.020104244171751388,0.20008109629941412,0.14280436308973793,-0.05675019094724578,0.10312908169825856,0.5571769128837237,0.5350397500630519,-0.03602595490964343,-0.0003169489725570869

387,0.02010658874392665,0.20012244236155033,0.14255645136642114,-0.05675016459075481,0.10383490191217469,0.5566499461112112,0.5348940533901048,-0.03602266807507708,-0.000317842936885662

388,0.020699504263503407,0.19999751129046617,0.14310009733827228,-0.059732581316861356,0.10239364192662186,0.5577630100658725,0.5355133232884177,-0.03606393682055254,-0.0003187371159312669

389,0.02070199634470655,0.20003925592628918,0.14285208406163502,-0.05973255498277748,0.10309971274144468,0.5572359565506753,0.5353675475699234,-0.03606064850156824,-0.00031963148804553494

390,0.020704470336526372,0.20008069880037618,0.14260403730973636,-0.059732528353592544,0.10380596493064,0.5567088806045387,0.5352218491460282,-0.036057361771183655,-0.0003205260108243202

391,0.020706926632002673,0.20012184680560435,0.14235595856236039,-0.05973250143062735,0.10451243388020497,0.5561818050013694,0.535076254894005,-0.036054077334782914,-0.0003214206387823449

392,0.021299504421239828,0.19999750957409437,0.14290010442242548,-0.06271347296023293,0.10308126909504334,0.5573022682682107,0.5357080272136554,-0.036096134263617345,-0.00032231544338822793

393,0.02130210891880677,0.2000390569673019,0.1426519206679323,-0.06271344618218458,0.10378799478233793,0.5567751057388621,0.5355623531049666,-0.03609284832083523,-0.00032321043380480793

394,0.02130469442865938,0.20008030251536704,0.1424037030344754,-0.06271341914989133,0.10449490456150401,0.5562479202721838,0.5354167564037027,-0.036089563968175746,-0.0003241055734422383

395,0.021307261362046265,0.20012125309869777,0.14215545302255225,-0.06271339186010703,0.10520203368341381,0.5557207346249617,0.535271263985931,-0.036086281911473665,-0.00032500081798689744

396,0.021899504548257398,0.19999750778893935,0.1427001115000125,-0.06569286525023454,0.10378091353913552,0.5568486137206142,0.5359155304863159,-0.036129126553105594,-0.0003258963714519287

397,0.02190222043034957,0.20003885857944842,0.14245175303283575,-0.06569283903688616,0.10448830550770989,0.5563213409737799,0.5357699574057417,-0.036125842985562796,-0.0003267921101307492

398,0.021904916505693206,0.20007990742486695,0.14220336028541028,-0.0656928129615727,0.10519588427402536,0.555794044790874,0.5356244618461181,-0.036122561008333075,-0.0003276879827958644

399,0.02190759319389781,0.20012066119424402,0.14195493477881962,-0.06569278697156247,0.10590368495461752,0.555266747911845,0.5354790706823747,-0.03611928132773196,-0.00032858394642366483

400,0.022499504644173912,0.1999975059367361,0.14250011857140046,-0.06867070727988232,0.10449255890659397,0.5564020593452054,0.5361358229878617,-0.03616291318041461,-0.0003294801040351812

401,0.022502330987615195,0.2000386607459187,0.14225158116512382,-0.06867068219680686,0.10520062851139453,0.5558746751971425,0.5359903503405452,-0.03615963195823867,-0.0003303764292823252

402,0.02250513659286857,0.2000795135137558,0.1420030090788649,-0.06867065714431395,0.10590888760672647,0.5553472671182564,0.5358449553261995,-0.036156352328056154,-0.00033127288892970363

403,0.02250792189929715,0.20012007109704186,0.14175440385449692,-0.06867063207807027,0.10661737117632131,0.5548198578330646,0.5356996648200774,-0.03615307499685318,-0.00033216944305851435

404,0.023099504707643666,0.199997504015665,0.14230012563695912,-0.07164694627293448,0.10521618866870652,0.5559626181211405,0.5363688944408812,-0.03619749356145016,-0.0003330661979229427

405,0.02310244029001505,0.20003846349225218,0.14205140507261188,-0.07164692194592993,0.10592494721428058,0.555435121404144,0.5362235216326322,-0.03619421467206343,-0.0003339631243084913

406,0.023105354207102448,0.2000791208231262,0.14180264943040963,-0.0716468975756318,0.10663389793286657,0.5549076002679245,0.5360782265700468,-0.03619093737664696,-0.00033486018854384555

407,0.02310824691927755,0.2001194828527616,0.141553860272968,-0.07164687312459055,0.10734307567632509,0.554380077422191,0.5359330361289549,-0.0361876623825541,-0.0003357573504984231

408,0.02369950473740226,0.19999750202419125,0.14210013269704969,-0.0746215312779035,0.10595178614494781,0.5555303030861053,0.5366147344521931,-0.036232867150825625,-0.00033665471911775393

409,0.023702548366325037,0.20003826681014017,0.14185122476282436,-0.07462150745430267,0.10666124489160922,0.5550026926520492,0.5364694608877688,-0.036229590581730385,-0.00033755226231379327

410,0.023705569407068063,0.20007872933778975,0.14160228135436823,-0.07462148353757997,0.10737089848374119,0.5544750573157979,0.5363242651815346,-0.03622631560850233,-0.00033844994603606166

411,0.023708568340443586,0.20011889643947542,0.14135330405505653,-0.07462145949487625,0.10808078164230764,0.5539474197729648,0.536179174210454,-0.036223042938882365,-0.00033934773000817266

412,0.024299504732714357,0.19999749996268784,0.14190013975203442,-0.07759441149870737,0.10669933451328878,0.5551051273444179,0.53687333250681,-0.036269033395766294,-0.0003402457259242578

413,0.02430265523980868,0.20003807069349677,0.141651040242058,-0.07759438800912975,0.10740950467850902,0.5545774020616988,0.5367281575879309,-0.036265759134142664,-0.00034114389890047356

414,0.024305782238213076,0.20007833904539293,0.14140190486276266,-0.07759436439270398,0.10811987235206807,0.5540496513987416,0.5365830606393798,-0.03626248647022167,-0.0003420422145579477

415,0.024308886228778706,0.20011831183874554,0.1411527352183172,-0.07759434061962522,0.10883047212501949,0.5535218980378447,0.5364380685398512,-0.03625921611215121,-0.00034294063251983893

416,0.024899504692817744,0.19999749783143356,0.14170014680227044,-0.080565536296987,0.10745881679984531,0.554687104059463,0.5371446779581999,-0.03630599173536753,-0.00034383926726573827

417,0.02490276092756892,0.20003787513678056,0.1414508515157865,-0.08056551302781556,0.10816970956000439,0.5541592628113543,0.5369996010829473,-0.0363027197681433,-0.0003447380811730419

418,0.024905992734268453,0.20007794993473177,0.14120151996602867,-0.08056548960885077,0.10888080248221528,0.5536313957095931,0.5368546022896754,-0.03629944940040969,-0.00034563703956697224

419,0.02490920063351762,0.20011772903385144,0.14095215377800113,-0.08056546601231444,0.10959213002859898,0.5531035254239693,0.5367097084594176,-0.03629618134073967,-0.00034653610199917136

420,0.02549950461693353,0.19999749563063557,0.14150015384811368,-0.08353485520710575,0.1082302158808179,0.5542762464527377,0.5374287600299191,-0.03634374160092572,-0.00034743538575744497

421,0.02550286544257207,0.20003768013489198,0.14125065858884006,-0.0835348320820597,0.10894184237286839,0.5537482881363193,0.537283780592475,-0.03634047191482709,-0.00034833485052355003

422,0.025506200921096345,0.20007756199552146,0.14100112667334636,-0.08353480879149403,0.10965367167191496,0.5532203034972439,0.5371388793481223,-0.036337203829969196,-0.0003492344613470393

423,0.025509511592644994,0.20011714800943617,0.14075155974751913,-0.08353478530896992,0.11036573811211117,0.5526923151936113,0.536994083180841,-0.03633393805536714,-0.00035013417772599613

424,0.026099504504271877,0.19999749336045197,0.14130016088991784,-0.08650231794776507,0.10901351448448827,0.5538725678028746,0.5377255678166223,-0.03638228241614173,-0.0003510341197697677

425,0.02610296879500226,0.20003748568307717,0.1410504614655111,-0.08650229491556337,0.1097258858074053,0.5533444913282182,0.5375806852071187,-0.036379014997727874,-0.00035193424449829144

426,0.026106406819265016,0.20007717521818902,0.14080072499284405,-0.08650227170694992,0.11043846257382331,0.5528163880661338,0.5374358809012332,-0.03637574918227339,-0.0003528345166974737

427,0.026109819136574494,0.2001165687511932,0.1405509531387368,-0.08650224829636578,0.11115127899088101,0.5522882806638556,0.5372911817864964,-0.03637248567925172,-0.0003537348958224381

428,0.026699504354035952,0.199997491021007,0.14110016792803481,-0.08946787443133498,0.10980869519323873,0.5534760814446279,0.5380350902848974,-0.03642161359726574,-0.0003546355048111008

429,0.02670307099316785,0.20003729177684887,0.14085026014963462,-0.08946785145743698,0.11052182240924444,0.5529478857341265,0.5378903038893077,-0.03641834843295184,-0.00035553629804917686

430,0.026706610445771745,0.20007678959370628,0.1406003149317543,-0.08946782829947253,0.11123515769709219,0.5524196627755125,0.5377455959072418,-0.03641508487328851,-0.0003564372400654395

431,0.026710123290610708,0.20011599124561946,0.1403503339622014,-0.08946780493245562,0.11194873513784757,0.551891435205984,0.5376009932303824,-0.03641182362822326,-0.00035733829027771556

432,0.02729950416542499,0.1999974886124028,0.14090017496281446,-0.09243147477163677,0.1106157404456313,0.553086800767832,0.5383573162740954,-0.03646173455321328,-0.0003582395744553097

433,0.027303172044108356,0.2000370984119264,0.14065005464465274,-0.09243145183271208,0.11132963458121338,0.552558484755635,0.538212625474145,-0.03645847162928548,-0.00035914104437315245

434,0.027306811815196348,0.20007640511346497,0.14039989649653992,-0.09243142870423464,0.11204373940904298,0.5520301410386018,0.5380680131969704,-0.03645521031167462,-0.0003600426643056893

435,0.027310424076597187,0.20011541547982936,0.1401497022273275,-0.09243140536158648,0.11275808888504497,0.5515017922447285,0.5379235063390035,-0.036451951310817486,-0.00036094439363580205

436,0.027899503937636017,0.19999748613472468,0.14070018199460438,-0.09539306929067025,0.11143463253853379,0.5527047392163357,0.5386922344971858,-0.03650264468566437,-0.0003618463609641964

437,0.02790327195400061,0.20003690558418952,0.14044984495366908,-0.09539304637089595,0.11214930458528427,0.5521763018478667,0.5385476386702762,-0.03649938398828945,-0.0003627485154756731

438,0.027907010940473122,0.20007602176918157,0.14019946969300162,-0.09539302325753511,0.11286418993693938,0.5516478363216932,0.5384031214747114,-0.036496124898874556,-0.00036365082119065983

439,0.02791072151401957,0.200114841441416,0.1399490579425552,-0.09539299992620132,0.11357932242520795,0.5511193652574458,0.5382587098122653,-0.03649286812836067,-0.0003645532374572163

440,0.028499503669865374,0.19999748358804745,0.14050018902375075,-0.0983526085246159,0.11226535362931904,0.5523299102869322,0.5390398335416825,-0.03654434338915451,-0.0003654558957055961

441,0.02850337072843078,0.20003671328964504,0.14024963107949667,-0.09835258561319693,0.11298081454461806,0.5518013505184785,0.5388953320608271,-0.036541084904386026,-0.0003663587425492652

442,0.028507207833407947,0.20007563955282892,0.13999903452637025,-0.09835256250513079,0.11369649136988252,0.5512727621432166,0.5387509093191747,-0.03653782802919828,-0.0003672617417532547

443,0.028511015620744366,0.20011426911834967,0.1397484011154863,-0.09835253917617191,0.11441241781352353,0.5507441677732512,0.5386065922244313,-0.03653457347505107,-0.0003681648526294285

444,0.029099503361309693,0.1999974809724385,0.14030019605059696,-0.1013100427702527,0.11310788573713727,0.551962327527613,0.5394001018659592,-0.03658683003770123,-0.0003690680755776542

445,0.029103468280702243,0.200036521537318,0.14004941302426022,-0.10131001897430031,0.11382414644263115,0.5514336443239649,0.539255694093495,-0.03658357373830804,-0.0003699714909511596

446,0.029107402235909526,0.20007525849461216,0.13979859100035055,-0.10130999460870921,0.11454062565490539,0.5509049320670764,0.5391113651669386,-0.03658031905168432,-0.00037087507611558655

447,0.029111305892919975,0.20011369857272754,0.13954773175131646,-0.10130996969673652,0.11525735696028609,0.5503762133628022,0.5389671420009473,-0.036577066689654325,-0.00037177878864200025

448,0.029699503010531585,0.1999974782855063,0.1401002030754876,-0.1042653224368603,0.11396221073371007,0.5516020045330983,0.5397730277976233,-0.03663010398732077,-0.00037268273881869377

449,0.02970356450119093,0.20003633033911716,0.13984919079093155,-0.10426529727967057,0.11467928212006051,0.5510731968710899,0.5396287131032328,-0.036626849876119846,-0.0003735869005745238

450,0.029707594126832437,0.20007487859298484,0.13959813912105132,-0.10426527167746977,0.11539657460413935,0.5505443597151204,0.5394844773621221,-0.03662359737926164,-0.00037449123303283605

451,0.029711592571496054,0.2001131297648162,0.13934704985949398,-0.10426524564295683,0.1161141216506165,0.5500155156649457,0.5393403474956183,-0.03662034720883866,-0.0003753956908669096

452,0.03029950261721934,0.19999747552918512,0.1399002100987583,-0.10721840024318498,0.11482831038340874,0.5512489549553385,0.5401585995739332,-0.036674164657188944,-0.000376300386867839

453,0.030303659696543875,0.20003613964992265,0.1396489643819605,-0.10721837416388526,0.11554620331021524,0.5507200218247659,0.540014377319286,-0.03667091271900628,-0.00037720529283632954

454,0.030307784001207483,0.2000744997721053,0.13939767889243543,-0.10721834772410617,0.1162643199178511,0.5501910587622459,0.5398702341235992,-0.03666766239645896,-0.00037811036786779354

455,0.030311876232250123,0.20011256260308302,0.13914635544516174,-0.10721832092835147,0.11698269355035062,0.5496620883624386,0.5397261969158058,-0.036664414402221714,-0.0003790155668283676

456,0.030899502180982058,0.19999747270510235,0.13970021712074876,-0.11016922748670524,0.11570616631793987,0.550903192497616,0.5405568052955904,-0.03671901141209253,-0.00037992100545635154

457,0.030903753841962547,0.20003594947089756,0.13944873379888723,-0.11016920078099492,0.11642489161065052,0.5503741328956417,0.5404126748357202,-0.036715761631613844,-0.00038082665343215866

458,0.03090797181055045,0.20007412203276737,0.13919721031737892,-0.11016917377112735,0.11714384315987371,0.549845042927004,0.5402686235395261,-0.03671251346812521,-0.00038173246973895945

459,0.030912156805325088,0.2001119970877614,0.13894564851261126,-0.11016914645610207,0.11786305418995825,0.5493159451821908,0.540124678344178,-0.036709267634890894,-0.0003826384093472405

460,0.03149950170093458,0.19999746981299008,0.13950022414179378,-0.11311775692754912,0.11659576003275522,0.5505647309061106,0.5409676329472354,-0.03676464364504244,-0.0003835449372779074

461,0.03150384715727786,0.2000357597646127,0.1392484990446155,-0.11311773209680161,0.11731532848932244,0.5500355438440848,0.5408235936485392,-0.036761396041834586,-0.0003844516732367342

462,0.03150815822121723,0.2000737452655094,0.13899673340181032,-0.11311770797480294,0.11803512577286955,0.5495063259868156,0.5406796336185731,-0.036758150052956046,-0.0003853585359764037

463,0.03151243560080905,0.20011143300668255,0.13874492907094732,-0.11311768443247093,0.11875518498818859,0.5489770999203519,0.5405357798021442,-0.03675490639258254,-0.0003862654836494773

464,0.032099501177846955,0.19999746685906142,0.13930023116222195,-0.11606394196770033,0.1174970729316521,0.5502335839844316,0.5413910704165386,-0.03681106077408384,-0.0003871727087892288

465,0.03210393994247093,0.20003557048279003,0.13904826011930635,-0.11606392041848615,0.11821749531189522,0.5497042684783825,0.5412471216099893,-0.036807815288619164,-0.0003880800905205009

466,0.03210834331886964,0.2000733694462121,0.1387962481442631,-0.11606389927011533,0.11893814907841312,0.5491749217464506,0.5411032521725073,-0.03680457141869602,-0.00038898759777266745

467,0.032112712034049,0.20011087043033865,0.13854419711642843,-0.11606387841733744,0.11965906721859432,0.5486455663728907,0.5409594890594513,-0.03680132987998815,-0.0003898951977603123

468,0.03269950060965859,0.1999974638384303,0.13910023818237685,-0.11900773074663874,0.11841008623141065,0.5499097655623776,0.5418271053906907,-0.03685826202454722,-0.0003908030870938783

469,0.032704031393925984,0.20003538174207902,0.13884801702377494,-0.11900771139924954,0.11913137325797983,0.5493803206295312,0.5416832464114975,-0.03685501864397226,-0.0003917111417436042

470,0.03270852580722036,0.2000729947668901,0.1385957545475552,-0.11900769224100473,0.11985289422438307,0.5488508440457932,0.5415394669033556,-0.03685177688105099,-0.0003926193297650303

471,0.0327129845995153,0.20011030958318105,0.13834345265470036,-0.11900767318669511,0.12057468200121088,0.5483213583940807,0.5413957938317575,-0.036848537452021844,-0.00039352761771411794

472,0.03329949999448149,0.19999746074685407,0.13890024520258296,-0.12194907603698636,0.11933478103509511,0.5495932895068678,0.5422757254814444,-0.036906246741348105,-0.00039443620459044524

473,0.033304121584678034,0.20003519352632382,0.13864776976081022,-0.12194905816179206,0.12005694340249505,0.5490637141799655,0.5421319556658845,-0.03690300545317881,-0.0003953449631158594

474,0.03330870583433897,0.20007262119894528,0.1383952526165208,-0.12194904033355143,0.12077934225658354,0.5485341067812636,0.5419882654229615,-0.03689976578454876,-0.0003962538606325948

475,0.03331325351490586,0.20010975042464485,0.1381426956923716,-0.12194902248047856,0.12150201035192225,0.5480044898929781,0.5418446817287015,-0.03689652845228961,-0.0003971628632338018

476,0.033899499331737984,0.19999745758516788,0.13870025222317184,-0.12488793078797808,0.12027113835886934,0.5492841697454631,0.5427369182085044,-0.036955014263523794,-0.00039807217248542895

477,0.03390421057232022,0.2000350058255346,0.13844751833213687,-0.12488791389612196,0.12099418673059155,0.5487544630680418,0.5425932368893016,-0.03695177505443817,-0.0003989816580570935

478,0.033908883510869806,0.20007224872219817,0.1381947423541813,-0.12488789695559409,0.12171747412880797,0.5482247239014381,0.5424496352435041,-0.036948537466610296,-0.0003998912867333339

479,0.03391351893927269,0.2001091929249536,0.13794192623369114,-0.12488787990359394,0.12244103319291019,0.547694974827957,0.5423061402581837,-0.03694530221749104,-0.0004008010242837901

480,0.03449949862078216,0.19999745435397032,0.13850025924446568,-0.1278242481209436,0.12121913910298716,0.5489824202476156,0.5432106709737692,-0.03700456392200139,-0.0004017110749601886

481,0.03450429839674385,0.20003481863166084,0.1382472627391661,-0.12782423188485215,0.12194308411056548,0.5484525812724668,0.5430670774790545,-0.037001326778062955,-0.00040262130551575504

482,0.03450905891378745,0.20007187732042478,0.13799422376301448,-0.12782421553565435,0.12266727067728704,0.5479227093941176,0.542923563757587,-0.03699809125697913,-0.0004035316822800494

483,0.03451378098354371,0.20010863706014487,0.1377411442821886,-0.1278241990165631,0.12339173132825881,0.5473928271957965,0.5427801568080254,-0.03699485807684211,-0.00040444217079105304

484,0.035099497860926004,0.1999974510536801,0.13830026626678738,-0.13075798136234773,0.1221787640551581,0.5486880550238289,0.5436969710659045,-0.03705489504046149,-0.0004053529780651107

485,0.03510438508597513,0.2000346319380711,0.1380470029832026,-0.1307579655624789,0.12290361629785321,0.5481580828125712,0.5435534647189945,-0.037051659947282385,-0.00040626396803421927

486,0.03510923209749888,0.200071506980282,0.1377936968453064,-0.1307579496059619,0.12362871262514262,0.5476280772874201,0.5434100382442238,-0.037048426478464784,-0.000407175106640217

487,0.035114039726390336,0.20010808281047127,0.1375403498411314,-0.13075793344003325,0.12435408544874181,0.5470980610333742,0.543266718652383,-0.0370451953527614,-0.00040808635924950595

488,0.03569949705145374,0.19999744768459637,0.13810027329045782,-0.13368908406718755,0.12314999389387593,0.5484010881248803,0.5441958056631447,-0.03710600693585247,-0.00040899793569471786

489,0.03570447066008368,0.20003444573914575,0.1378467390655,-0.13368906855636212,0.12387576393853086,0.5478709817478505,0.5440523857825398,-0.03710277387870641,-0.00040990969715458007

490,0.03570940310127521,0.20007113769046714,0.13759316160324805,-0.1336890528593419,0.12460178058600754,0.5473408416495528,0.5439090458720139,-0.0370995424473604,-0.0004108216092267116

491,0.03571429522484702,0.20010753015916222,0.13733954291365358,-0.1336890369260548,0.12532807613552516,0.546810690417604,0.5437658129550309,-0.037096313361244714,-0.0004117336371447312

492,0.03629949619163216,0.19999744424694027,0.13790028031579626,-0.13661751003589398,0.12413280919162578,0.5481215336410243,0.544707161835477,-0.03715789891873897,-0.00041264599359101996

493,0.03630455513379867,0.20003426002997446,0.13764647098727728,-0.13661749471540438,0.12485950757255677,0.5475912921772526,0.5445638277349075,-0.037154667882638215,-0.00041355853704079314

494,0.03630957195422617,0.20007076944110427,0.13739261803896524,-0.13661747918854833,0.12558645506728883,0.5470610165881575,0.544420573701404,-0.037151438473722244,-0.0004144712327750334

495,0.03631454752141993,0.20010697909152445,0.13713872350279438,-0.13661746340705352,0.12631368386344063,0.5465307294648227,0.5442774267716405,-0.037148211412114454,-0.00041538404591910655

496,0.03689949528071735,0.19999744074088047,0.13770028734311945,-0.13954321332685704,0.1251271904180377,0.5478494057011816,0.5452310265466331,-0.037210570293563755,-0.00041629719202640724

497,0.03690463851826044,0.2000340748061422,0.13744619874972408,-0.13954319813046429,0.12585482763692254,0.5473190282383835,0.5450877775351073,-0.03720734126331111,-0.00041721052690621565

498,0.036909738678630524,0.20007040222330905,0.13719206615452836,-0.1395431827138137,0.12658271647331265,0.5467886162495281,0.5449446086866794,-0.03720411386158392,-0.00041812401553978465

499,0.03691479664884624,0.20010642959430824,0.1369378916115109,-0.13954316702983613,0.12731088900412207,0.5462581923300123,0.5448015470517661,-0.03720088880921319,-0.000419037622959192

500,0.0374994943179594,0.19999743716655108,0.13750029437274205,-0.14246614826599843,0.1261331179430369,0.5475847184721302,0.5457673866560493,-0.03726402035886061,-0.00041995156760193903

501,0.03750472082219372,0.20003389006357966,0.13724592235400357,-0.14246613314921278,0.12686170446879197,0.5470542041066999,0.5456242220378927,-0.03726079331908449,-0.0004208657026408

502,0.03750990329216686,0.20007003602888868,0.13699150595195603,-0.14246611780248514,0.1275905451084513,0.5465236548178005,0.5454811376779077,-0.03725756790913694,-0.00042177999276703904

503,0.03751504263328219,0.20010588165527016,0.13673704724268548,-0.14246610217955075,0.12831967182912035,0.5459930932059882,0.54533816064078,-0.03725434485057028,-0.00042269440292799554

504,0.03809949330260566,0.19999743352406424,0.13730030140497604,-0.1453862694543438,0.1271505720399976,0.5473274861577059,0.5463162289208319,-0.0373182484074372,-0.0004236091544528993

505,0.03810480205269341,0.20003370579846017,0.13704564180125328,-0.14538625438724434,0.1278801183086432,0.5467968339947061,0.5461731479957205,-0.037315023342615286,-0.0004245240979019971

506,0.03811006580940778,0.20006967085013455,0.13679093743322016,-0.14538623908333748,0.128609921180254,0.5462661465141485,0.5460301474228898,-0.037311799908891795,-0.0004254391976814944

507,0.03811528549643826,0.20010533526287094,0.1365361903991311,-0.14538622349689634,0.12934001251302316,0.545735446322593,0.5458872542818167,-0.03730857882855354,-0.0004263544186582366

508,0.03869949223390265,0.19999742981351698,0.1371003084401311,-0.14830353177423103,0.12817953288891823,0.5470777229980172,0.5468775399977576,-0.037373253726539754,-0.0004272699850571443

509,0.03870488221575086,0.20003352200712832,0.13684535709258844,-0.14830351673665595,0.1289100493034337,0.5465469321511671,0.5467345420607439,-0.03737003062101497,-0.000428185744846271

510,0.038710226242820694,0.20006930667967987,0.13659036060024915,-0.14830350145729665,0.12964082480260217,0.5460161055959936,0.5465916245691489,-0.037366809147828035,-0.0004291016621484595

511,0.038715525257009505,0.200104790406069,0.1363353210835974,-0.1483034858907863,0.1303718911366011,0.545485265945904,0.5464488146177581,-0.03736359003001302,-0.0004300177017514135

512,0.039299491111097595,0.19999742603499723,0.13690031547851472,-0.15121789039458383,0.12921998057962797,0.5468354432686816,0.5474513064453184,-0.03742903559800708,-0.00043093409077726174

513,0.039304961316606726,0.20003333868605228,0.13664506822910283,-0.1512178753729084,0.12995147750979863,0.5463045128603439,0.5473083907868542,-0.03742581443599841,-0.00043185067461976544

514,0.03931038460343851,0.20006894351040244,0.1363897754549321,-0.15121786010573743,0.13068323599890017,0.5457735463562404,0.5471655556659683,-0.03742259490753847,-0.00043276741711792226

515,0.039315761931634025,0.20010424707417868,0.13613443929877667,-0.15121784454794576,0.13141528768999117,0.5452425663774685,0.5470228281932669,-0.037419377736421,-0.00043368428297970227

516,0.039899489933439364,0.19999742218858713,0.13670032252043163,-0.15412930077553516,0.13027189511502268,0.5466006612800823,0.5480375147258063,-0.03748559329841806,-0.0004346015022243305

517,0.03990503935998715,0.2000331558317894,0.1364447752118712,-0.1541292857605134,0.13100438289728053,0.5460695904412493,0.5478946806317635,-0.03748237406402795,-0.0004355189176875523

518,0.03991054090130896,0.2000685813353576,0.13618918199912217,-0.15412927049713296,0.1317371347052989,0.5455384831225318,0.5477519271664717,-0.03747915646437009,-0.00043643649292256806

519,0.039915995535535154,0.20010370525677354,0.1359335450473086,-0.15412925494043178,0.13247018207591463,0.5450073619535583,0.5476092814568664,-0.03747594122401005,-0.0004373541925557146

520,0.04049948870017912,0.19999741827436515,0.1365003295661842,-0.1570377186725922,0.13133525641434035,0.5463733913766524,0.548636151207454,-0.03754292609923637,-0.0004382722495021157

521,0.0405051163502622,0.20003297344096424,0.13624447804195033,-0.15703770365791103,0.13206874535159954,0.5458421792469325,0.548493397959143,-0.03753970877645581,-0.00043919050405469723

522,0.04051069514579582,0.20006822014773326,0.13598858023463983,-0.1570376883925766,0.1328025007739614,0.545310930256533,0.5483507254297612,-0.0375364930895644,-0.00044010891947791463

523,0.04051622608295187,0.2001031649436203,0.13573263833178578,-0.15703767283173808,0.1335365541129385,0.5447796670444537,0.5482081607630763,-0.03753327976391152,-0.0004410274603136887

524,0.041099487410570734,0.19999741429240817,0.1363003366160722,-0.15994310014047064,0.13241004431647171,0.5461536479361873,0.549247202166624,-0.037601033266954326,-0.00044194636237112727

525,0.04110519229155214,0.20003279151025313,0.13604417672038152,-0.15994308512178124,0.1331445446779606,0.5456222936637914,0.5491045290408126,-0.03759781783966634,-0.00044286546341481495

526,0.04111084734578088,0.200067859940819,0.13578797016327654,-0.15994306985052528,0.13387931397636674,0.5450909021532448,0.5489619367231054,-0.03759460404939831,-0.00044378472641683783

527,0.04111645358742751,0.2001026261246344,0.1355317191547586,-0.1599430542819292,0.13461438353877617,0.5445594960537576,0.5488194523746014,-0.037591392622295126,-0.00044470411583131966

528,0.041699486063871125,0.19999741024279222,0.13610034367039298,-0.16284540153668461,0.13349623858330834,0.5459414453691813,0.5498706537900461,-0.03765991406323674,-0.0004456238703589661

529,0.04170526718779856,0.20003261003637293,0.1358438712481909,-0.16284538651095354,0.13423176060439884,0.5454099481109099,0.5497280600589771,-0.037656700515218966,-0.0004465438252500244

530,0.041710997509799355,0.20006750070798465,0.13558735178679707,-0.16284537123099854,0.13496755400665292,0.5448784132403406,0.5495855472241762,-0.03765348860532606,-0.0004474639431801228

